P3
128 128
255
49 48 49 49 48 49 49 48 49 49 48 49 49 48 49 49 48 49 49 48 49 49 48 49 49 48 49 49 48 49 49 48 49 49 48 49 49 48 49 49 48 49 49 48 49 49 48 49 49 48 49 49 48 49 49 48 49 49 48 49 49 48 49 49 48 49 49 48 49 49 48 49 49 48 49 49 48 49 49 48 49 49 48 49 49 48 49 49 48 49 49 48 49 49 48 49 49 48 49 49 48 49 49 48 49 49 48 49 49 48 49 49 48 49 49 48 49 49 48 49 49 48 49 49 48 49 49 48 49 49 48 49 49 48 49 49 48 49 49 48 49 49 48 49 49 48 49 49 48 49 49 48 49 49 48 49 49 48 49 49 48 49 49 48 49 49 48 49 49 48 49 49 48 49 49 48 49 49 48 49 49 48 49 49 48 49 49 48 49 49 48 49 49 48 49 49 48 49 49 48 49 49 48 49 49 48 49 49 48 49 49 48 49 49 48 49 49 48 49 49 48 49 49 48 49 49 48 49 49 48 49 49 48 49 49 48 49 49 48 49 49 48 49 49 48 49 49 48 49 49 48 49 49 48 49 49 48 49 49 48 49 49 48 49 49 48 49 49 48 49 49 48 49 49 48 49 49 48 49 49 48 49 49 48 49 49 48 49 49 48 49 49 48 49 49 48 49 49 48 49 49 48 49 49 48 49 49 48 49 49 48 49 49 48 49 49 48 49 49 48 49 49 48 49 49 48 49 49 48 49 49 48 49 49 48 49 49 48 49 49 48 49 49 48 49 49 48 49 49 48 49 49 48 49 49 48 49 49 48 49 49 48 49 49 48 49 49 48 49 49 48 49 49 48 49 49 48 49 49 48 49 49 48 49
49 48 49 49 48 49 49 48 49 49 48 49 49 48 49 49 48 49 49 48 49 49 48 49 49 48 49 49 48 49 49 48 49 49 48 49 49 48 49 49 48 49 49 48 49 49 48 49 49 48 49 49 48 49 49 48 49 49 48 49 49 48 49 49 48 49 49 48 49 49 48 49 49 48 49 49 48 49 49 48 49 49 48 49 49 48 49 49 48 49 49 48 49 49 48 49 49 48 49 49 48 49 49 48 49 49 48 49 49 48 49 49 48 49 49 48 49 49 48 49 49 48 49 49 48 49 49 48 49 49 48 49 49 48 49 49 48 49 49 48 49 49 48 49 49 48 49 49 48 49 49 48 49 49 48 49 49 48 49 49 48 49 49 48 49 49 48 49 49 48 49 49 48 49 49 48 49 49 48 49 49 48 49 49 48 49 49 48 49 49 48 49 49 48 49 49 48 49 49 48 49 49 48 49 49 48 49 49 48 49 49 48 49 49 48 49 49 48 49 49 48 49 49 48 49 49 48 49 49 48 49 49 48 49 49 48 49 49 48 49 49 48 49 49 48 49 49 48 49 49 48 49 49 48 49 49 48 49 49 48 49 49 48 49 49 48 49 49 48 49 49 48 49 49 48 49 49 48 49 49 48 49 49 48 49 49 48 49 49 48 49 49 48 49 49 48 49 49 48 49 49 48 49 49 48 49 49 48 49 49 48 49 49 48 49 49 48 49 49 48 49 49 48 49 49 48 49 49 48 49 49 48 49 49 48 49 49 48 49 49 48 49 49 48 49 49 48 49 49 48 49 49 48 49 49 48 49 49 48 49 49 48 49 49 48 49 49 48 49 49 48 49 49 48 49 49 48 49 49 48 49 49 48 49
49 48 49 49 48 49 49 48 49 49 48 49 49 48 49 49 48 49 49 48 49 49 48 49 49 48 49 49 48 49 49 48 49 49 48 49 49 48 49 49 48 49 49 48 49 49 48 49 49 48 49 49 48 49 49 48 49 49 48 49 49 48 49 49 48 49 49 48 49 49 48 49 49 48 49 49 48 49 49 48 49 49 48 49 49 48 49 49 48 49 49 48 49 49 48 49 49 48 49 49 48 49 49 48 49 49 48 49 49 48 49 49 48 49 49 48 49 49 48 49 49 48 49 49 48 49 49 48 49 49 48 49 49 48 49 49 48 49 49 48 49 49 48 49 49 48 49 49 48 49 49 48 49 49 48 49 49 48 49 49 48 49 49 48 49 49 48 49 49 48 49 49 48 49 49 48 49 49 48 49 49 48 49 49 48 49 49 48 49 49 48 49 49 48 49 49 48 49 49 48 49 49 48 49 49 48 49 49 48 49 49 48 49 49 48 49 49 48 49 49 48 49 49 48 49 49 48 49 49 48 49 49 48 49 49 48 49 49 48 49 49 48 49 49 48 49 49 48 49 49 48 49 49 48 49 49 48 49 49 48 49 49 48 49 49 48 49 49 48 49 49 48 49 49 48 49 49 48 49 49 48 49 49 48 49 49 48 49 49 48 49 49 48 49 49 48 49 49 48 49 49 48 49 49 48 49 49 48 49 49 48 49 49 48 49 49 48 49 49 48 49 49 48 49 49 48 49 49 48 49 49 48 49 49 48 49 49 48 49 49 48 49 49 48 49 49 48 49 49 48 49 49 48 49 49 48 49 49 48 49 49 48 49 49 48 49 49 48 49 49 48 49 49 48 49 49 48 49 49 48 49 49 48 49
49 48 49 49 48 49 49 48 49 49 48 49 49 48 49 49 48 49 49 48 49 49 48 49 49 48 49 49 48 49 49 48 49 49 48 49 49 48 49 49 48 49 49 48 49 49 48 49 49 48 49 49 48 49 49 48 49 49 48 49 49 48 49 49 48 49 49 48 49 49 48 49 49 48 49 49 48 49 49 48 49 49 48 49 49 48 49 49 48 49 49 48 49 49 48 49 49 48 49 49 48 49 49 48 49 49 48 49 49 48 49 49 48 49 49 48 49 49 48 49 49 48 49 49 48 49 49 48 49 49 48 49 49 48 49 49 48 49 49 48 49 49 48 49 49 48 49 49 48 49 49 48 49 49 48 49 49 48 49 49 48 49 49 48 49 49 48 49 49 48 49 49 48 49 49 48 49 49 48 49 49 48 49 49 48 49 49 48 49 49 48 49 49 48 49 49 48 49 49 48 49 49 48 49 49 48 49 49 48 49 49 48 49 49 48 49 49 48 49 49 48 49 49 48 49 49 48 49 49 48 49 49 48 49 49 48 49 49 48 49 49 48 49 49 48 49 49 48 49 49 48 49 49 48 49 49 48 49 49 48 49 49 48 49 49 48 49 49 48 49 49 48 49 49 48 49 49 48 49 49 48 49 49 48 49 49 48 49 49 48 49 49 48 49 49 48 49 49 48 49 49 48 49 49 48 49 49 48 49 49 48 49 49 48 49 49 48 49 49 48 49 49 48 49 49 48 49 49 48 49 49 48 49 49 48 49 49 48 49 49 48 49 49 48 49 49 48 49 49 48 49 49 48 49 49 48 49 49 48 49 49 48 49 49 48 49 49 48 49 49 48 49 49 48 49 49 48 49 49 48 49 49 48 49
49 48 49 49 48 49 49 48 49 49 48 49 49 48 49 49 48 49 49 48 49 49 48 49 49 48 49 49 48 49 49 48 49 49 48 49 49 48 49 49 48 49 49 48 49 49 48 49 49 48 49 49 48 49 49 48 49 49 48 49 49 48 49 49 48 49 49 48 49 49 48 49 49 48 49 49 48 49 49 48 49 49 48 49 49 48 49 49 48 49 49 48 49 49 48 49 49 48 49 49 48 49 49 48 49 49 48 49 49 48 49 49 48 49 49 48 49 49 48 49 49 48 49 49 48 49 49 48 49 49 48 49 49 48 49 49 48 49 49 48 49 49 48 49 49 48 49 49 48 49 49 48 49 49 48 49 49 48 49 49 48 49 49 48 49 49 48 49 49 48 49 49 48 49 49 48 49 49 48 49 49 48 49 49 48 49 49 48 49 49 48 49 49 48 49 49 48 49 49 48 49 49 48 49 49 48 49 49 48 49 49 48 49 49 48 49 49 48 49 49 48 49 49 48 49 49 48 49 49 48 49 49 48 49 49 48 49 49 48 49 49 48 49 49 48 49 49 48 49 49 48 49 49 48 49 49 48 49 49 48 49 49 48 49 49 48 49 49 48 49 49 48 49 49 48 49 49 48 49 49 48 49 49 48 49 49 48 49 49 48 49 49 48 49 49 48 49 49 48 49 49 48 49 49 48 49 49 48 49 49 48 49 49 48 49 49 48 49 49 48 49 49 48 49 49 48 49 49 48 49 49 48 49 49 48 49 49 48 49 49 48 49 49 48 49 49 48 49 49 48 49 49 48 49 49 48 49 49 48 49 49 48 49 49 48 49 49 48 49 49 48 49 49 48 49 49 48 49 49 48 49 49 48 49
49 48 49 49 48 49 49 48 49 49 48 49 49 48 49 49 48 49 49 48 49 49 48 49 49 48 49 49 48 49 49 48 49 49 48 49 49 48 49 49 48 49 49 48 49 49 48 49 49 48 49 49 48 49 49 48 49 49 48 49 49 48 49 49 48 49 49 48 49 49 48 49 49 48 49 49 48 49 49 48 49 49 48 49 49 48 49 49 48 49 49 48 49 49 48 49 49 48 49 49 48 49 49 48 49 49 48 49 49 48 49 49 48 49 49 48 49 49 48 49 49 48 49 49 48 49 49 48 49 49 48 49 49 48 49 49 48 49 49 48 49 49 48 49 49 48 49 49 48 49 49 48 49 49 48 49 49 48 49 49 48 49 49 48 49 49 48 49 49 48 49 49 48 49 49 48 49 49 48 49 49 48 49 49 48 49 49 48 49 49 48 49 49 48 49 49 48 49 49 48 49 49 48 49 49 48 49 49 48 49 49 48 49 49 48 49 49 48 49 49 48 49 49 48 49 49 48 49 49 48 49 49 48 49 49 48 49 49 48 49 49 48 49 49 48 49 49 48 49 49 48 49 49 48 49 49 48 49 49 48 49 49 48 49 49 48 49 49 48 49 49 48 49 49 48 49 49 48 49 49 48 49 49 48 49 49 48 49 49 48 49 49 48 49 49 48 49 49 48 49 49 48 49 49 48 49 49 48 49 49 48 49 49 48 49 49 48 49 49 48 49 49 48 49 49 48 49 49 48 49 49 48 49 49 48 49 49 48 49 49 48 49 49 48 49 49 48 49 49 48 49 49 48 49 49 48 49 49 48 49 49 48 49 49 48 49 49 48 49 49 48 49 49 48 49 49 48 49 49 48 49 49 48 49
49 48 49 49 48 49 49 48 49 49 48 49 49 48 49 49 48 49 49 48 49 49 48 49 49 48 49 49 48 49 49 48 49 49 48 49 49 48 49 49 48 49 49 48 49 49 48 49 49 48 49 49 48 49 49 48 49 49 48 49 49 48 49 49 48 49 49 48 49 49 48 49 49 48 49 49 48 49 49 48 49 49 48 49 49 48 49 49 48 49 49 48 49 49 48 49 49 48 49 49 48 49 49 48 49 49 48 49 49 48 49 49 48 49 49 48 49 49 48 49 49 48 49 49 48 49 49 48 49 49 48 49 49 48 49 49 48 49 49 48 49 49 48 49 49 48 49 49 48 49 49 48 49 49 48 49 49 48 49 49 48 49 49 48 49 49 48 49 49 48 49 49 48 49 49 48 49 49 48 49 49 48 49 49 48 49 49 48 49 49 48 49 49 48 49 49 48 49 49 48 49 49 48 49 49 48 49 49 48 49 49 48 49 49 48 49 49 48 49 49 48 49 49 48 49 49 48 49 49 48 49 49 48 49 49 48 49 49 48 49 49 48 49 49 48 49 49 48 49 49 48 49 49 48 49 49 48 49 49 48 49 49 48 49 49 48 49 49 48 49 49 48 49 49 48 49 49 48 49 49 48 49 49 48 49 49 48 49 49 48 49 49 48 49 49 48 49 49 48 49 49 48 49 49 48 49 49 48 49 49 48 49 49 48 49 49 48 49 49 48 49 49 48 49 49 48 49 49 48 49 49 48 49 49 48 49 49 48 49 49 48 49 49 48 49 49 48 49 49 48 49 49 48 49 49 48 49 49 48 49 49 48 49 49 48 49 49 48 49 49 48 49 49 48 49 49 48 49 49 48 49 49 48 49
49 48 49 49 48 49 49 48 49 49 48 49 49 48 49 49 48 49 49 48 49 49 48 49 49 48 49 49 48 49 49 48 49 49 48 49 49 48 49 49 48 49 49 48 49 49 48 49 49 48 49 49 48 49 49 48 49 49 48 49 49 48 49 49 48 49 49 48 49 49 48 49 49 48 49 49 48 49 49 48 49 49 48 49 49 48 49 49 48 49 49 48 49 49 48 49 49 48 49 49 48 49 49 48 49 49 48 49 49 48 49 49 48 49 49 48 49 49 48 49 49 48 49 49 48 49 49 48 49 49 48 49 49 48 49 49 48 49 49 48 49 49 48 49 49 48 49 49 48 49 49 48 49 49 48 49 49 48 49 49 48 49 49 48 49 49 48 49 49 48 49 49 48 49 49 48 49 49 48 49 49 48 49 49 48 49 49 48 49 49 48 49 49 48 49 49 48 49 49 48 49 49 48 49 49 48 49 49 48 49 49 48 49 49 48 49 49 48 49 49 48 49 49 48 49 49 48 49 49 48 49 49 48 49 49 48 49 49 48 49 49 48 49 49 48 49 49 48 49 49 48 49 49 48 49 49 48 49 49 48 49 49 48 49 49 48 49 49 48 49 49 48 49 49 48 49 49 48 49 49 48 49 49 48 49 49 48 49 49 48 49 49 48 49 49 48 49 49 48 49 49 48 49 49 48 49 49 48 49 49 48 49 49 48 49 49 48 49 49 48 49 49 48 49 49 48 49 49 48 49 49 48 49 49 48 49 49 48 49 49 48 49 49 48 49 49 48 49 49 48 49 49 48 49 49 48 49 49 48 49 49 48 49 49 48 49 49 48 49 49 48 49 49 48 49 49 48 49 49 48 49 49 48 49
49 48 49 49 48 49 49 48 49 49 48 49 49 48 49 49 48 49 49 48 49 49 48 49 49 48 49 49 48 49 49 48 49 49 48 49 49 48 49 49 48 49 49 48 49 49 48 49 49 48 49 49 48 49 49 48 49 49 48 49 49 48 49 49 48 49 49 48 49 49 48 49 49 48 49 49 48 49 49 48 49 49 48 49 49 48 49 49 48 49 49 48 49 49 48 49 49 48 49 49 48 49 49 48 49 49 48 49 49 48 49 49 48 49 49 48 49 49 48 49 49 48 49 49 48 49 49 48 49 49 48 49 49 48 49 49 48 49 49 48 49 49 48 49 49 48 49 49 48 49 49 48 49 49 48 49 49 48 49 49 48 49 49 48 49 49 48 49 49 48 49 49 48 49 49 48 49 49 48 49 49 48 49 49 48 49 49 48 49 49 48 49 49 48 49 49 48 49 49 48 49 49 48 49 49 48 49 49 48 49 49 48 49 49 48 49 49 48 49 49 48 49 49 48 49 49 48 49 49 48 49 49 48 49 49 48 49 49 48 49 49 48 49 49 48 49 49 48 49 49 48 49 49 48 49 49 48 49 49 48 49 49 48 49 49 48 49 49 48 49 49 48 49 49 48 49 49 48 49 49 48 49 49 48 49 49 48 49 49 48 49 49 48 49 49 48 49 49 48 49 49 48 49 49 48 49 49 48 49 49 48 49 49 48 49 49 48 49 49 48 49 49 48 49 49 48 49 49 48 49 49 48 49 49 48 49 49 48 49 49 48 49 49 48 49 49 48 49 49 48 49 49 48 49 49 48 49 49 48 49 49 48 49 49 48 49 49 48 49 49 48 49 49 48 49 49 48 49 49 48 49 49 48 49
49 48 49 49 48 49 49 48 49 49 48 49 49 48 49 49 48 49 49 48 49 49 48 49 49 48 49 49 48 49 49 48 49 49 48 49 49 48 49 49 48 49 49 48 49 49 48 49 49 48 49 49 48 49 49 48 49 49 48 49 49 48 49 49 48 49 49 48 49 49 48 49 49 48 49 49 48 49 49 48 49 49 48 49 49 48 49 49 48 49 49 48 49 49 48 49 49 48 49 49 48 49 49 48 49 49 48 49 49 48 49 49 48 49 49 48 49 49 48 49 49 48 49 49 48 49 49 48 49 49 48 49 49 48 49 49 48 49 49 48 49 49 48 49 49 48 49 49 48 49 49 48 49 49 48 49 49 48 49 49 48 49 49 48 49 49 48 49 49 48 49 49 48 49 49 48 49 49 48 49 49 48 49 49 48 49 49 48 49 49 48 49 49 48 49 49 48 49 49 48 49 49 48 49 49 48 49 49 48 49 49 48 49 49 48 49 49 48 49 49 48 49 49 48 49 49 48 49 49 48 49 49 48 49 49 48 49 49 48 49 49 48 49 49 48 49 49 48 49 49 48 49 49 48 49 49 48 49 49 48 49 49 48 49 49 48 49 49 48 49 49 48 49 49 48 49 49 48 49 49 48 49 49 48 49 49 48 49 49 48 49 49 48 49 49 48 49 49 48 49 49 48 49 49 48 49 49 48 49 49 48 49 49 48 49 49 48 49 49 48 49 49 48 49 49 48 49 49 48 49 49 48 49 49 48 49 49 48 49 49 48 49 49 48 49 49 48 49 49 48 49 49 48 49 49 48 49 49 48 49 49 48 49 49 48 49 49 48 49 49 48 49 49 48 49 49 48 49 49 48 49 49 48 49
49 48 49 49 48 49 49 48 49 49 48 49 49 48 49 49 48 49 49 48 49 49 48 49 49 48 49 49 48 49 49 48 49 49 48 49 49 48 49 49 48 49 49 48 49 49 48 49 49 48 49 49 48 49 49 48 49 49 48 49 49 48 49 49 48 49 49 48 49 49 48 49 49 48 49 49 48 49 49 48 49 49 48 49 49 48 49 49 48 49 49 48 49 49 48 49 49 48 49 49 48 49 49 48 49 49 48 49 49 48 49 49 48 49 49 48 49 49 48 49 49 48 49 49 48 49 49 48 49 49 48 49 49 48 49 49 48 49 49 48 49 49 48 49 49 48 49 49 48 49 49 48 49 49 48 49 49 48 49 49 48 49 49 48 49 49 48 49 49 48 49 49 48 49 49 48 49 49 48 49 49 48 49 49 48 49 49 48 49 49 48 49 49 48 49 49 48 49 49 48 49 49 48 49 49 48 49 49 48 49 49 48 49 49 48 49 49 48 49 49 48 49 49 48 49 49 48 49 49 48 49 49 48 49 49 48 49 49 48 49 49 48 49 49 48 49 49 48 49 49 48 49 49 48 49 49 48 49 49 48 49 49 48 49 49 48 49 49 48 49 49 48 49 49 48 49 49 48 49 49 48 49 49 48 49 49 48 49 49 48 49 49 48 49 49 48 49 49 48 49 49 48 49 49 48 49 49 48 49 49 48 49 49 48 49 49 48 49 49 48 49 49 48 49 49 48 49 49 48 49 49 48 49 49 48 49 49 48 49 49 48 49 49 48 49 49 48 49 49 48 49 49 48 49 49 48 49 49 48 49 49 48 49 49 48 49 49 48 49 49 48 49 49 48 49 49 48 49 49 48 49 49 48 49
49 48 49 49 48 49 49 48 49 49 48 49 49 48 49 49 48 49 49 48 49 49 48 49 49 48 49 49 48 49 49 48 49 49 48 49 49 48 49 49 48 49 49 48 49 49 48 49 49 48 49 49 48 49 49 48 49 49 48 49 49 48 49 49 48 49 49 48 49 49 48 49 49 48 49 49 48 49 49 48 49 49 48 49 49 48 49 49 48 49 49 48 49 49 48 49 49 48 49 49 48 49 49 48 49 49 48 49 49 48 49 49 48 49 49 48 49 49 48 49 49 48 49 49 48 49 49 48 49 49 48 49 49 48 49 49 48 49 49 48 49 49 48 49 49 48 49 49 48 49 49 48 49 49 48 49 49 48 49 49 48 49 49 48 49 49 48 49 49 48 49 49 48 49 49 48 49 49 48 49 49 48 49 49 48 49 49 48 49 49 48 49 49 48 49 49 48 49 49 48 49 49 48 49 49 48 49 49 48 49 49 48 49 49 48 49 49 48 49 49 48 49 49 48 49 49 48 49 49 48 49 49 48 49 49 48 49 49 48 49 49 48 49 49 48 49 49 48 49 49 48 49 49 48 49 49 48 49 49 48 49 49 48 49 49 48 49 49 48 49 49 48 49 49 48 49 49 48 49 49 48 49 49 48 49 49 48 49 49 48 49 49 48 49 49 48 49 49 48 49 49 48 49 49 48 49 49 48 49 49 48 49 49 48 49 49 48 49 49 48 49 49 48 49 49 48 49 49 48 49 49 48 49 49 48 49 49 48 49 49 48 49 49 48 49 49 48 49 49 48 49 49 48 49 49 48 49 49 48 49 49 48 49 49 48 49 49 48 49 49 48 49 49 48 49 49 48 49 49 48 49 49 48 49
49 48 49 49 48 49 49 48 49 49 48 49 49 48 49 49 48 49 49 48 49 49 48 49 49 48 49 49 48 49 49 48 49 49 48 49 49 48 49 49 48 49 49 48 49 49 48 49 49 48 49 49 48 49 49 48 49 49 48 49 49 48 49 49 48 49 49 48 49 49 48 49 49 48 49 49 48 49 49 48 49 49 48 49 49 48 49 49 48 49 49 48 49 49 48 49 49 48 49 49 48 49 49 48 49 49 48 49 49 48 49 49 48 49 49 48 49 49 48 49 49 48 49 49 48 49 49 48 49 49 48 49 49 48 49 49 48 49 49 48 49 49 48 49 49 48 49 49 48 49 49 48 49 49 48 49 49 48 49 49 48 49 49 48 49 49 48 49 49 48 49 49 48 49 49 48 49 49 48 49 49 48 49 49 48 49 49 48 49 49 48 49 49 48 49 49 48 49 49 48 49 49 48 49 49 48 49 49 48 49 49 48 49 49 48 49 49 48 49 49 48 49 49 48 49 49 48 49 49 48 49 49 48 49 49 48 49 49 48 49 49 48 49 49 48 49 49 48 49 49 48 49 49 48 49 49 48 49 49 48 49 49 48 49 49 48 49 49 48 49 49 48 49 49 48 49 49 48 49 49 48 49 49 48 49 49 48 49 49 48 49 49 48 49 49 48 49 49 48 49 49 48 49 49 48 49 49 48 49 49 48 49 49 48 49 49 48 49 49 48 49 49 48 49 49 48 49 49 48 49 49 48 49 49 48 49 49 48 49 49 48 49 49 48 49 49 48 49 49 48 49 49 48 49 49 48 49 49 48 49 49 48 49 49 48 49 49 48 49 49 48 49 49 48 49 49 48 49 49 48 49 49 48 49
49 48 49 49 48 49 49 48 49 49 48 49 49 48 49 49 48 49 49 48 49 49 48 49 49 48 49 49 48 49 49 48 49 49 48 49 49 48 49 49 48 49 49 48 49 49 48 49 49 48 49 49 48 49 49 48 49 49 48 49 49 48 49 49 48 49 49 48 49 49 48 49 49 48 49 49 48 49 49 48 49 49 48 49 49 48 49 49 48 49 49 48 49 49 48 49 49 48 49 49 48 49 49 48 49 49 48 49 49 48 49 49 48 49 49 48 49 49 48 49 49 48 49 49 48 49 49 48 49 49 48 49 49 48 49 49 48 49 49 48 49 49 48 49 49 48 49 49 48 49 49 48 49 49 48 49 49 48 49 49 48 49 49 48 49 49 48 49 49 48 49 49 48 49 49 48 49 49 48 49 49 48 49 49 48 49 49 48 49 49 48 49 49 48 49 49 48 49 49 48 49 49 48 49 49 48 49 49 48 49 49 48 49 49 48 49 49 48 49 49 48 49 49 48 49 49 48 49 49 48 49 49 48 49 49 48 49 49 48 49 49 48 49 49 48 49 49 48 49 49 48 49 49 48 49 49 48 49 49 48 49 49 48 49 49 48 49 49 48 49 49 48 49 49 48 49 49 48 49 49 48 49 49 48 49 49 48 49 49 48 49 49 48 49 49 48 49 49 48 49 49 48 49 49 48 49 49 48 49 49 48 49 49 48 49 49 48 49 49 48 49 49 48 49 49 48 49 49 48 49 49 48 49 49 48 49 49 48 49 49 48 49 49 48 49 49 48 49 49 48 49 49 48 49 49 48 49 49 48 49 49 48 49 49 48 49 49 48 49 49 48 49 49 48 49 49 48 49 49 48 49 49 48 49
49 48 49 49 48 49 49 48 49 49 48 49 49 48 49 49 48 49 49 48 49 49 48 49 49 48 49 49 48 49 49 48 49 49 48 49 49 48 49 49 48 49 49 48 49 49 48 49 49 48 49 49 48 49 49 48 49 49 48 49 49 48 49 49 48 49 49 48 49 49 48 49 49 48 49 49 48 49 49 48 49 49 48 49 49 48 49 49 48 49 49 48 49 49 48 49 49 48 49 49 48 49 49 48 49 49 48 49 49 48 49 49 48 49 49 48 49 49 48 49 49 48 49 49 48 49 49 48 49 49 48 49 49 48 49 49 48 49 49 48 49 49 48 49 49 48 49 49 48 49 49 48 49 49 48 49 49 48 49 49 48 49 49 48 49 49 48 49 49 48 49 49 48 49 49 48 49 49 48 49 49 48 49 49 48 49 49 48 49 49 48 49 49 48 49 49 48 49 49 48 49 49 48 49 49 48 49 49 48 49 49 48 49 49 48 49 49 48 49 49 48 49 49 48 49 49 48 49 49 48 49 49 48 49 49 48 49 49 48 49 49 48 49 49 48 49 49 48 49 49 48 49 49 48 49 49 48 49 49 48 49 49 48 49 49 48 49 49 48 49 49 48 49 49 48 49 49 48 49 49 48 49 49 48 49 49 48 49 49 48 49 49 48 49 49 48 49 49 48 49 49 48 49 49 48 49 49 48 49 49 48 49 49 48 49 49 48 49 49 48 49 49 48 49 49 48 49 49 48 49 49 48 49 49 48 49 49 48 49 49 48 49 49 48 49 49 48 49 49 48 49 49 48 49 49 48 49 49 48 49 49 48 49 49 48 49 49 48 49 49 48 49 49 48 49 49 48 49 49 48 49 49 48 49
49 48 49 49 48 49 49 48 49 49 48 49 49 48 49 49 48 49 49 48 49 49 48 49 49 48 49 49 48 49 49 48 49 49 48 49 49 48 49 49 48 49 49 48 49 49 48 49 49 48 49 49 48 49 49 48 49 49 48 49 49 48 49 49 48 49 49 48 49 49 48 49 49 48 49 49 48 49 49 48 49 49 48 49 49 48 49 49 48 49 49 48 49 49 48 49 49 48 49 49 48 49 49 48 49 49 48 49 49 48 49 49 48 49 49 48 49 49 48 49 49 48 49 49 48 49 49 48 49 49 48 49 49 48 49 49 48 49 49 48 49 49 48 49 49 48 49 49 48 49 49 48 49 49 48 49 49 48 49 49 48 49 49 48 49 49 48 49 49 48 49 49 48 49 49 48 49 49 48 49 49 48 49 49 48 49 49 48 49 49 48 49 49 48 49 49 48 49 49 48 49 49 48 49 49 48 49 49 48 49 49 48 49 49 48 49 49 48 49 49 48 49 49 48 49 49 48 49 49 48 49 49 48 49 49 48 49 49 48 49 49 48 49 49 48 49 49 48 49 49 48 49 49 48 49 49 48 49 49 48 49 49 48 49 49 48 49 49 48 49 49 48 49 49 48 49 49 48 49 49 48 49 49 48 49 49 48 49 49 48 49 49 48 49 49 48 49 49 48 49 49 48 49 49 48 49 49 48 49 49 48 49 49 48 49 49 48 49 49 48 49 49 48 49 49 48 49 49 48 49 49 48 49 49 48 49 49 48 49 49 48 49 49 48 49 49 48 49 49 48 49 49 48 49 49 48 49 49 48 49 49 48 49 49 48 49 49 48 49 49 48 49 49 48 49 49 48 49 49 48 49 49 48 49
49 48 49 49 48 49 49 48 49 49 48 49 49 48 49 49 48 49 49 48 49 49 48 49 49 48 49 49 48 49 49 48 49 49 48 49 49 48 49 49 48 49 49 48 49 49 48 49 49 48 49 49 48 49 49 48 49 49 48 49 49 48 49 49 48 49 49 48 49 49 48 49 49 48 49 49 48 49 49 48 49 49 48 49 49 48 49 49 48 49 49 48 49 49 48 49 49 48 49 49 48 49 49 48 49 49 48 49 49 48 49 49 48 49 49 48 49 49 48 49 49 48 49 49 48 49 49 48 49 49 48 49 49 48 49 49 48 49 49 48 49 49 48 49 49 48 49 49 48 49 49 48 49 49 48 49 49 48 49 49 48 49 49 48 49 49 48 49 49 48 49 49 48 49 49 48 49 49 48 49 49 48 49 49 48 49 49 48 49 49 48 49 49 48 49 49 48 49 49 48 49 49 48 49 49 48 49 49 48 49 49 48 49 49 48 49 49 48 49 49 48 49 49 48 49 49 48 49 49 48 49 49 48 49 49 48 49 49 48 49 49 48 49 49 48 49 49 48 49 49 48 49 49 48 49 49 48 49 49 48 49 49 48 49 49 48 49 49 48 49 49 48 49 49 48 49 49 48 49 49 48 49 49 48 49 49 48 49 49 48 49 49 48 49 49 48 49 49 48 49 49 48 49 49 48 49 49 48 49 49 48 49 49 48 49 49 48 49 49 48 49 49 48 49 49 48 49 49 48 49 49 48 49 49 48 49 49 48 49 49 48 49 49 48 49 49 48 49 49 48 49 49 48 49 49 48 49 49 48 49 49 48 49 49 48 49 49 48 49 49 48 49 49 48 49 49 48 49 49 48 49 49 48 49
49 48 49 49 48 49 49 48 49 49 48 49 49 48 49 49 48 49 49 48 49 49 48 49 49 48 49 49 48 49 49 48 49 49 48 49 49 48 49 49 48 49 49 48 49 49 48 49 49 48 49 49 48 49 49 48 49 49 48 49 49 48 49 49 48 49 49 48 49 49 48 49 49 48 49 49 48 49 49 48 49 49 48 49 49 48 49 49 48 49 49 48 49 49 48 49 49 48 49 49 48 49 49 48 49 49 48 49 49 48 49 49 48 49 49 48 49 49 48 49 49 48 49 49 48 49 49 48 49 49 48 49 49 48 49 49 48 49 49 48 49 49 48 49 49 48 49 49 48 49 49 48 49 49 48 49 49 48 49 49 48 49 49 48 49 49 48 49 49 48 49 49 48 49 49 48 49 49 48 49 49 48 49 49 48 49 49 48 49 49 48 49 49 48 49 49 48 49 49 48 49 49 48 49 49 48 49 49 48 49 49 48 49 49 48 49 49 48 49 49 48 49 49 48 49 49 48 49 49 48 49 49 48 49 49 48 49 49 48 49 49 48 49 49 48 49 49 48 49 49 48 49 49 48 49 49 48 49 49 48 49 49 48 49 49 48 49 49 48 49 49 48 49 49 48 49 49 48 49 49 48 49 49 48 49 49 48 49 49 48 49 49 48 49 49 48 49 49 48 49 49 48 49 49 48 49 49 48 49 49 48 49 49 48 49 49 48 49 49 48 49 49 48 49 49 48 49 49 48 49 49 48 49 49 48 49 49 48 49 49 48 49 49 48 49 49 48 49 49 48 49 49 48 49 49 48 49 49 48 49 49 48 49 49 48 49 49 48 49 49 48 49 49 48 49 49 48 49 49 48 49 49 48 49
49 48 49 49 48 49 49 48 49 49 48 49 49 48 49 49 48 49 49 48 49 49 48 49 49 48 49 49 48 49 49 48 49 49 48 49 49 48 49 49 48 49 49 48 49 49 48 49 49 48 49 49 48 49 49 48 49 49 48 49 49 48 49 49 48 49 49 48 49 49 48 49 49 48 49 49 48 49 49 48 49 49 48 49 49 48 49 49 48 49 49 48 49 49 48 49 49 48 49 49 48 49 49 48 49 49 48 49 49 48 49 49 48 49 49 48 49 49 48 49 49 48 49 49 48 49 49 48 49 49 48 49 49 48 49 49 48 49 49 48 49 49 48 49 49 48 49 49 48 49 49 48 49 49 48 49 49 48 49 49 48 49 49 48 49 49 48 49 49 48 49 49 48 49 49 48 49 49 48 49 49 48 49 49 48 49 49 48 49 49 48 49 49 48 49 49 48 49 49 48 49 49 48 49 49 48 49 49 48 49 49 48 49 49 48 49 49 48 49 49 48 49 49 48 49 49 48 49 49 48 49 49 48 49 49 48 49 49 48 49 49 48 49 49 48 49 49 48 49 49 48 49 49 48 49 49 48 49 49 48 49 49 48 49 49 48 49 49 48 49 49 48 49 49 48 49 49 48 49 49 48 49 49 48 49 49 48 49 49 48 49 49 48 49 49 48 49 49 48 49 49 48 49 49 48 49 49 48 49 49 48 49 49 48 49 49 48 49 49 48 49 49 48 49 49 48 49 49 48 49 49 48 49 49 48 49 49 48 49 49 48 49 49 48 49 49 48 49 49 48 49 49 48 49 49 48 49 49 48 49 49 48 49 49 48 49 49 48 49 49 48 49 49 48 49 49 48 49 49 48 49 49 48 49
49 48 49 49 48 49 49 48 49 49 48 49 49 48 49 49 48 49 49 48 49 49 48 49 49 48 49 49 48 49 49 48 49 49 48 49 49 48 49 49 48 49 49 48 49 49 48 49 49 48 49 49 48 49 49 48 49 49 48 49 49 48 49 49 48 49 49 48 49 49 48 49 49 48 49 49 48 49 49 48 49 49 48 49 49 48 49 49 48 49 49 48 49 49 48 49 49 48 49 49 48 49 49 48 49 49 48 49 49 48 49 49 48 49 49 48 49 49 48 49 49 48 49 49 48 49 49 48 49 49 48 49 49 48 49 49 48 49 49 48 49 49 48 49 49 48 49 49 48 49 49 48 49 49 48 49 49 48 49 49 48 49 49 48 49 49 48 49 49 48 49 49 48 49 49 48 49 49 48 49 49 48 49 49 48 49 49 48 49 49 48 49 49 48 49 49 48 49 49 48 49 49 48 49 49 48 49 49 48 49 49 48 49 49 48 49 49 48 49 49 48 49 49 48 49 49 48 49 49 48 49 49 48 49 49 48 49 49 48 49 49 48 49 49 48 49 49 48 49 49 48 49 49 48 49 49 48 49 49 48 49 49 48 49 49 48 49 49 48 49 49 48 49 49 48 49 49 48 49 49 48 49 49 48 49 49 48 49 49 48 49 49 48 49 49 48 49 49 48 49 49 48 49 49 48 49 49 48 49 49 48 49 49 48 49 49 48 49 49 48 49 49 48 49 49 48 49 49 48 49 49 48 49 49 48 49 49 48 49 49 48 49 49 48 49 49 48 49 49 48 49 49 48 49 49 48 49 49 48 49 49 48 49 49 48 49 49 48 49 49 48 49 49 48 49 49 48 49 49 48 49 49 48 49
49 48 49 49 48 49 49 48 49 49 48 49 49 48 49 49 48 49 49 48 49 49 48 49 49 48 49 49 48 49 49 48 49 49 48 49 49 48 49 49 48 49 49 48 49 49 48 49 49 48 49 49 48 49 49 48 49 49 48 49 49 48 49 49 48 49 49 48 49 49 48 49 49 48 49 49 48 49 49 48 49 49 48 49 49 48 49 49 48 49 49 48 49 49 48 49 49 48 49 49 48 49 49 48 49 49 48 49 49 48 49 49 48 49 49 48 49 49 48 49 49 48 49 49 48 49 49 48 49 49 48 49 49 48 49 49 48 49 49 48 49 49 48 49 49 48 49 49 48 49 49 48 49 49 48 49 49 48 49 49 48 49 49 48 49 49 48 49 49 48 49 49 48 49 49 48 49 49 48 49 49 48 49 49 48 49 49 48 49 49 48 49 49 48 49 49 48 49 49 48 49 49 48 49 49 48 49 49 48 49 49 48 49 49 48 49 49 48 49 49 48 49 49 48 49 49 48 49 49 48 49 49 48 49 49 48 49 49 48 49 49 48 49 49 48 49 49 48 49 49 48 49 49 48 49 49 48 49 49 48 49 49 48 49 49 48 49 49 48 49 49 48 49 49 48 49 49 48 49 49 48 49 49 48 49 49 48 49 49 48 49 49 48 49 49 48 49 49 48 49 49 48 49 49 48 49 49 48 49 49 48 49 49 48 49 49 48 49 49 48 49 49 48 49 49 48 49 49 48 49 49 48 49 49 48 49 49 48 49 49 48 49 49 48 49 49 48 49 49 48 49 49 48 49 49 48 49 49 48 49 49 48 49 49 48 49 49 48 49 49 48 49 49 48 49 49 48 49 49 48 49 49 48 49
49 48 49 49 48 49 49 48 49 49 48 49 49 48 49 49 48 49 49 48 49 49 48 49 49 48 49 49 48 49 49 48 49 49 48 49 49 48 49 49 48 49 49 48 49 49 48 49 49 48 49 49 48 49 49 48 49 49 48 49 49 48 49 49 48 49 49 48 49 49 48 49 49 48 49 49 48 49 49 48 49 49 48 49 49 48 49 49 48 49 49 48 49 49 48 49 49 48 49 49 48 49 49 48 49 49 48 49 49 48 49 49 48 49 49 48 49 49 48 49 49 48 49 49 48 49 49 48 49 49 48 49 49 48 49 49 48 49 49 48 49 49 48 49 49 48 49 49 48 49 49 48 49 49 48 49 49 48 49 49 48 49 49 48 49 49 48 49 49 48 49 49 48 49 49 48 49 49 48 49 49 48 49 49 48 49 49 48 49 49 48 49 49 48 49 49 48 49 49 48 49 49 48 49 49 48 49 49 48 49 49 48 49 49 48 49 49 48 49 49 48 49 49 48 49 49 48 49 49 48 49 49 48 49 49 48 49 49 48 49 49 48 49 49 48 49 49 48 49 49 48 49 49 48 49 49 48 49 49 48 49 49 48 49 49 48 49 49 48 49 49 48 49 49 48 49 49 48 49 49 48 49 49 48 49 49 48 49 49 48 49 49 48 49 49 48 49 49 48 49 49 48 49 49 48 49 49 48 49 49 48 49 49 48 49 49 48 49 49 48 49 49 48 49 49 48 49 49 48 49 49 48 49 49 48 49 49 48 49 49 48 49 49 48 49 49 48 49 49 48 49 49 48 49 49 48 49 49 48 49 49 48 49 49 48 49 49 48 49 49 48 49 49 48 49 49 48 49 49 48 49 49 48 49
49 48 49 49 48 49 49 48 49 49 48 49 49 48 49 49 48 49 49 48 49 49 48 49 49 48 49 49 48 49 49 48 49 49 48 49 49 48 49 49 48 49 49 48 49 49 48 49 49 48 49 49 48 49 49 48 49 49 48 49 49 48 49 49 48 49 49 48 49 49 48 49 49 48 49 49 48 49 49 48 49 49 48 49 49 48 49 49 48 49 49 48 49 49 48 49 49 48 49 49 48 49 49 48 49 49 48 49 49 48 49 49 48 49 49 48 49 49 48 49 49 48 49 49 48 49 49 48 49 49 48 49 49 48 49 49 48 49 49 48 49 49 48 49 49 48 49 49 48 49 49 48 49 49 48 49 49 48 49 49 48 49 49 48 49 49 48 49 49 48 49 49 48 49 49 48 49 49 48 49 49 48 49 49 48 49 49 48 49 49 48 49 49 48 49 49 48 49 49 48 49 49 48 49 49 48 49 49 48 49 49 48 49 49 48 49 49 48 49 49 48 49 49 48 49 49 48 49 49 48 49 49 48 49 49 48 49 49 48 49 49 48 49 49 48 49 49 48 49 49 48 49 49 48 49 49 48 49 49 48 49 49 48 49 49 48 49 49 48 49 49 48 49 49 48 49 49 48 49 49 48 49 49 48 49 49 48 49 49 48 49 49 48 49 49 48 49 49 48 49 49 48 49 49 48 49 49 48 49 49 48 49 49 48 49 49 48 49 49 48 49 49 48 49 49 48 49 49 48 49 49 48 49 49 48 49 49 48 49 49 48 49 49 48 49 49 48 49 49 48 49 49 48 49 49 48 49 49 48 49 49 48 49 49 48 49 49 48 49 49 48 49 49 48 49 49 48 49 49 48 49 49 48 49
49 48 49 49 48 49 49 48 49 49 48 49 49 48 49 49 48 49 49 48 49 49 48 49 49 48 49 49 48 49 49 48 49 49 48 49 49 48 49 49 48 49 49 48 49 49 48 49 49 48 49 49 48 49 49 48 49 49 48 49 49 48 49 49 48 49 49 48 49 49 48 49 49 48 49 49 48 49 49 48 49 49 48 49 49 48 49 49 48 49 49 48 49 49 48 49 49 48 49 49 48 49 49 48 49 49 48 49 49 48 49 49 48 49 49 48 49 49 48 49 49 48 49 49 48 49 49 48 49 49 48 49 49 48 49 49 48 49 49 48 49 49 48 49 49 48 49 49 48 49 49 48 49 49 48 49 49 48 49 49 48 49 49 48 49 49 48 49 49 48 49 49 48 49 49 48 49 49 48 49 49 48 49 49 48 49 49 48 49 49 48 49 49 48 49 49 48 49 49 48 49 49 48 49 49 48 49 49 48 49 49 48 49 49 48 49 49 48 49 49 48 49 49 48 49 49 48 49 49 48 49 49 48 49 49 48 49 49 48 49 49 48 49 49 48 49 49 48 49 49 48 49 49 48 49 49 48 49 49 48 49 49 48 49 49 48 49 49 48 49 49 48 49 49 48 49 49 48 49 49 48 49 49 48 49 49 48 49 49 48 49 49 48 49 49 48 49 49 48 49 49 48 49 49 48 49 49 48 49 49 48 49 49 48 49 49 48 49 49 48 49 49 48 49 49 48 49 49 48 49 49 48 49 49 48 49 49 48 49 49 48 49 49 48 49 49 48 49 49 48 49 49 48 49 49 48 49 49 48 49 49 48 49 49 48 49 49 48 49 49 48 49 49 48 49 49 48 49 49 48 49 49 48 49
49 48 49 49 48 49 49 48 49 49 48 49 49 48 49 49 48 49 49 48 49 49 48 49 49 48 49 49 48 49 49 48 49 49 48 49 49 48 49 49 48 49 49 48 49 49 48 49 49 48 49 49 48 49 49 48 49 49 48 49 49 48 49 49 48 49 49 48 49 49 48 49 49 48 49 49 48 49 49 48 49 49 48 49 49 48 49 49 48 49 49 48 49 49 48 49 49 48 49 49 48 49 49 48 49 49 48 49 49 48 49 49 48 49 49 48 49 49 48 49 49 48 49 49 48 49 49 48 49 49 48 49 49 48 49 49 48 49 49 48 49 49 48 49 49 48 49 49 48 49 49 48 49 49 48 49 49 48 49 49 48 49 49 48 49 49 48 49 49 48 49 49 48 49 49 48 49 49 48 49 49 48 49 49 48 49 49 48 49 49 48 49 49 48 49 49 48 49 49 48 49 49 48 49 49 48 49 49 48 49 49 48 49 49 48 49 49 48 49 49 48 49 49 48 49 49 48 49 49 48 49 49 48 49 49 48 49 49 48 49 49 48 49 49 48 49 49 48 49 49 48 49 49 48 49 49 48 49 49 48 49 49 48 49 49 48 49 49 48 49 49 48 49 49 48 49 49 48 49 49 48 49 49 48 49 49 48 49 49 48 49 49 48 49 49 48 49 49 48 49 49 48 49 49 48 49 49 48 49 49 48 49 49 48 49 49 48 49 49 48 49 49 48 49 49 48 49 49 48 49 49 48 49 49 48 49 49 48 49 49 48 49 49 48 49 49 48 49 49 48 49 49 48 49 49 48 49 49 48 49 49 48 49 49 48 49 49 48 49 49 48 49 49 48 49 49 48 49 49 48 49 49 48 49
49 48 49 49 48 49 49 48 49 49 48 49 49 48 49 49 48 49 49 48 49 49 48 49 49 48 49 49 48 49 49 48 49 49 48 49 49 48 49 49 48 49 49 48 49 49 48 49 49 48 49 49 48 49 49 48 49 49 48 49 49 48 49 49 48 49 49 48 49 49 48 49 49 48 49 49 48 49 49 48 49 49 48 49 49 48 49 49 48 49 49 48 49 49 48 49 49 48 49 49 48 49 49 48 49 49 48 49 49 48 49 49 48 49 49 48 49 49 48 49 49 48 49 49 48 49 49 48 49 49 48 49 49 48 49 49 48 49 49 48 49 49 48 49 49 48 49 49 48 49 49 48 49 49 48 49 49 48 49 49 48 49 49 48 49 49 48 49 49 48 49 49 48 49 49 48 49 49 48 49 49 48 49 49 48 49 49 48 49 49 48 49 49 48 49 49 48 49 49 48 49 49 48 49 49 48 49 49 48 49 49 48 49 49 48 49 49 48 49 49 48 49 49 48 49 49 48 49 49 48 49 49 48 49 49 48 49 49 48 49 49 48 49 49 48 49 49 48 49 49 48 49 49 48 49 49 48 49 49 48 49 49 48 49 49 48 49 49 48 49 49 48 49 49 48 49 49 48 49 49 48 49 49 48 49 49 48 49 49 48 49 49 48 49 49 48 49 49 48 49 49 48 49 49 48 49 49 48 49 49 48 49 49 48 49 49 48 49 49 48 49 49 48 49 49 48 49 49 48 49 49 48 49 49 48 49 49 48 49 49 48 49 49 48 49 49 48 49 49 48 49 49 48 49 49 48 49 49 48 49 49 48 49 49 48 49 49 48 49 49 48 49 49 48 49 49 48 49 49 48 49 49 48 49
49 48 49 49 48 49 49 48 49 49 48 49 49 48 49 49 48 49 49 48 49 49 48 49 49 48 49 49 48 49 49 48 49 49 48 49 49 48 49 49 48 49 49 48 49 49 48 49 49 48 49 49 48 49 49 48 49 49 48 49 49 48 49 49 48 49 49 48 49 49 48 49 49 48 49 49 48 49 49 48 49 49 48 49 49 48 49 49 48 49 49 48 49 49 48 49 49 48 49 49 48 49 49 48 49 49 48 49 49 48 49 49 48 49 49 48 49 49 48 49 49 48 49 49 48 49 49 48 49 49 48 49 49 48 49 49 48 49 49 48 49 49 48 49 49 48 49 49 48 49 49 48 49 49 48 49 49 48 49 49 48 49 49 48 49 49 48 49 49 48 49 49 48 49 49 48 49 49 48 49 49 48 49 49 48 49 49 48 49 49 48 49 49 48 49 49 48 49 49 48 49 49 48 49 49 48 49 49 48 49 49 48 49 49 48 49 49 48 49 49 48 49 49 48 49 49 48 49 49 48 49 49 48 49 49 48 49 49 48 49 49 48 49 49 48 49 49 48 49 49 48 49 49 48 49 49 48 49 49 48 49 49 48 49 49 48 49 49 48 49 49 48 49 49 48 49 49 48 49 49 48 49 49 48 49 49 48 49 49 48 49 49 48 49 49 48 49 49 48 49 49 48 49 49 48 49 49 48 49 49 48 49 49 48 49 49 48 49 49 48 49 49 48 49 49 48 49 49 48 49 49 48 49 49 48 49 49 48 49 49 48 49 49 48 49 49 48 49 49 48 49 49 48 49 49 48 49 49 48 49 49 48 49 49 48 49 49 48 49 49 48 49 49 48 49 49 48 49 49 48 49 49 48 49
49 48 49 49 48 49 49 48 49 49 48 49 49 48 49 49 48 49 49 48 49 49 48 49 49 48 49 49 48 49 49 48 49 49 48 49 49 48 49 49 48 49 49 48 49 49 48 49 49 48 49 49 48 49 49 48 49 49 48 49 49 48 49 49 48 49 49 48 49 49 48 49 49 48 49 49 48 49 49 48 49 49 48 49 49 48 49 49 48 49 49 48 49 49 48 49 49 48 49 49 48 49 49 48 49 49 48 49 49 48 49 49 48 49 49 48 49 49 48 49 49 48 49 49 48 49 49 48 49 49 48 49 49 48 49 49 48 49 49 48 49 49 48 49 49 48 49 49 48 49 49 48 49 49 48 49 49 48 49 49 48 49 49 48 49 49 48 49 49 48 49 49 48 49 49 48 49 49 48 49 49 48 49 49 48 49 49 48 49 49 48 49 49 48 49 49 48 49 49 48 49 49 48 49 49 48 49 49 48 49 49 48 49 49 48 49 49 48 49 49 48 49 49 48 49 49 48 49 49 48 49 49 48 49 49 48 49 49 48 49 49 48 49 49 48 49 49 48 49 49 48 49 49 48 49 49 48 49 49 48 49 49 48 49 49 48 49 49 48 49 49 48 49 49 48 49 49 48 49 49 48 49 49 48 49 49 48 49 49 48 49 49 48 49 49 48 49 49 48 49 49 48 49 49 48 49 49 48 49 49 48 49 49 48 49 49 48 49 49 48 49 49 48 49 49 48 49 49 48 49 49 48 49 49 48 49 49 48 49 49 48 49 49 48 49 49 48 49 49 48 49 49 48 49 49 48 49 49 48 49 49 48 49 49 48 49 49 48 49 49 48 49 49 48 49 49 48 49 49 48 49 49 48 49
49 48 49 49 48 49 49 48 49 49 48 49 49 48 49 49 48 49 49 48 49 49 48 49 49 48 49 49 48 49 49 48 49 49 48 49 49 48 49 49 48 49 49 48 49 49 48 49 49 48 49 49 48 49 49 48 49 49 48 49 49 48 49 49 48 49 49 48 49 49 48 49 49 48 49 49 48 49 49 48 49 49 48 49 49 48 49 49 48 49 49 48 49 49 48 49 49 48 49 49 48 49 49 48 49 49 48 49 49 48 49 49 48 49 49 48 49 49 48 49 49 48 49 49 48 49 49 48 49 49 48 49 49 48 49 49 48 49 49 48 49 49 48 49 49 48 49 49 48 49 49 48 49 49 48 49 49 48 49 49 48 49 49 48 49 49 48 49 49 48 49 49 48 49 49 48 49 49 48 49 49 48 49 49 48 49 49 48 49 49 48 49 49 48 49 49 48 49 49 48 49 49 48 49 49 48 49 49 48 49 49 48 49 49 48 49 49 48 49 49 48 49 49 48 49 49 48 49 49 48 49 49 48 49 49 48 49 49 48 49 49 48 49 49 48 49 49 48 49 49 48 49 49 48 49 49 48 49 49 48 49 49 48 49 49 48 49 49 48 49 49 48 49 49 48 49 49 48 49 49 48 49 49 48 49 49 48 49 49 48 49 49 48 49 49 48 49 49 48 49 49 48 49 49 48 49 49 48 49 49 48 49 49 48 49 49 48 49 49 48 49 49 48 49 49 48 49 49 48 49 49 48 49 49 48 49 49 48 49 49 48 49 49 48 49 49 48 49 49 48 49 49 48 49 49 48 49 49 48 49 49 48 49 49 48 49 49 48 49 49 48 49 49 48 49 49 48 49 49 48 49 49 48 49
49 48 49 49 48 49 49 48 49 49 48 49 49 48 49 49 48 49 49 48 49 49 48 49 49 48 49 49 48 49 49 48 49 49 48 49 49 48 49 49 48 49 49 48 49 49 48 49 49 48 49 49 48 49 49 48 49 49 48 49 49 48 49 49 48 49 49 48 49 49 48 49 49 48 49 49 48 49 49 48 49 49 48 49 49 48 49 49 48 49 49 48 49 49 48 49 49 48 49 49 48 49 49 48 49 49 48 49 49 48 49 49 48 49 49 48 49 49 48 49 49 48 49 49 48 49 49 48 49 49 48 49 49 48 49 49 48 49 49 48 49 49 48 49 49 48 49 49 48 49 49 48 49 49 48 49 49 48 49 49 48 49 49 48 49 49 48 49 49 48 49 49 48 49 49 48 49 49 48 49 49 48 49 49 48 49 49 48 49 49 48 49 49 48 49 49 48 49 49 48 49 49 48 49 49 48 49 49 48 49 173 81 82 173 81 82 173 81 82 173 81 82 173 81 82 173 81 82 173 81 82 173 81 82 173 81 82 173 81 82 173 81 82 173 81 82 173 81 82 173 81 82 173 81 82 173 81 82 173 81 82 49 48 49 49 48 49 49 48 49 49 48 49 49 48 49 49 48 49 49 48 49 49 48 49 49 48 49 49 48 49 49 48 49 49 48 49 49 48 49 49 48 49 49 48 49 49 48 49 49 48 49 49 48 49 49 48 49 49 48 49 49 48 49 49 48 49 49 48 49 49 48 49 49 48 49 49 48 49 49 48 49 49 48 49 49 48 49 49 48 49 49 48 49 49 48 49 49 48 49 49 48 49 49 48 49 49 48 49 49 48 49 49 48 49 49 48 49 49 48 49 49 48 49
49 48 49 49 48 49 49 48 49 49 48 49 49 48 49 49 48 49 49 48 49 49 48 49 49 48 49 49 48 49 49 48 49 49 48 49 49 48 49 49 48 49 49 48 49 49 48 49 49 48 49 49 48 49 49 48 49 49 48 49 49 48 49 49 48 49 49 48 49 49 48 49 49 48 49 49 48 49 49 48 49 49 48 49 49 48 49 49 48 49 49 48 49 49 48 49 49 48 49 49 48 49 49 48 49 49 48 49 49 48 49 173 81 82 173 81 82 173 81 82 173 81 82 173 81 82 173 81 82 173 81 82 173 81 82 173 81 82 173 81 82 173 81 82 173 81 82 173 81 82 173 81 82 173 81 82 173 81 82 173 81 82 173 81 82 173 81 82 173 81 82 173 81 82 173 81 82 173 81 82 173 81 82 173 81 82 173 81 82 173 81 82 173 81 82 173 81 82 173 81 82 173 81 82 173 81 82 173 81 82 173 81 82 173 81 82 173 81 82 173 81 82 173 81 82 173 81 82 173 81 82 173 81 82 173 81 82 173 81 82 173 81 82 173 81 82 173 81 82 173 81 82 173 81 82 173 81 82 173 81 82 173 81 82 49 48 49 49 48 49 49 48 49 49 48 49 49 48 49 49 48 49 49 48 49 49 48 49 49 48 49 49 48 49 49 48 49 49 48 49 49 48 49 49 48 49 49 48 49 49 48 49 49 48 49 49 48 49 49 48 49 49 48 49 49 48 49 49 48 49 49 48 49 49 48 49 49 48 49 49 48 49 49 48 49 49 48 49 49 48 49 49 48 49 49 48 49 49 48 49 49 48 49 49 48 49 49 48 49 49 48 49 49 48 49 49 48 49 49 48 49 49 48 49
49 48 49 49 48 49 49 48 49 49 48 49 49 48 49 49 48 49 49 48 49 49 48 49 49 48 49 49 48 49 49 48 49 49 48 49 49 48 49 49 48 49 49 48 49 49 48 49 49 48 49 49 48 49 49 48 49 49 48 49 49 48 49 49 48 49 49 48 49 49 48 49 49 48 49 49 48 49 49 48 49 49 48 49 49 48 49 49 48 49 49 48 49 49 48 49 49 48 49 49 48 49 49 48 49 49 48 49 49 48 49 173 81 82 173 81 82 173 81 82 173 81 82 173 81 82 173 81 82 173 81 82 173 81 82 173 81 82 173 81 82 173 81 82 173 81 82 173 81 82 173 81 82 156 77 74 57 65 66 57 69 66 57 69 66 57 69 66 57 69 66 57 69 66 57 69 66 57 69 66 57 69 66 57 69 66 57 69 66 57 69 66 57 69 66 57 69 66 57 69 66 57 69 66 57 69 66 57 69 66 57 69 66 57 69 66 115 73 74 173 81 82 173 81 82 173 81 82 173 81 82 173 81 82 173 81 82 173 81 82 173 81 82 173 81 82 173 81 82 173 81 82 173 81 82 173 81 82 173 81 82 173 81 82 49 48 49 49 48 49 49 48 49 49 48 49 49 48 49 49 48 49 49 48 49 49 48 49 49 48 49 49 48 49 49 48 49 49 48 49 49 48 49 49 48 49 49 48 49 49 48 49 49 48 49 49 48 49 49 48 49 49 48 49 49 48 49 49 48 49 49 48 49 49 48 49 49 48 49 49 48 49 49 48 49 49 48 49 49 48 49 49 48 49 49 48 49 49 48 49 49 48 49 49 48 49 49 48 49 49 48 49 49 48 49 49 48 49 49 48 49 49 48 49
49 48 49 49 48 49 49 48 49 49 48 49 49 48 49 49 48 49 49 48 49 49 48 49 49 48 49 49 48 49 49 48 49 49 48 49 49 48 49 49 48 49 49 48 49 49 48 49 49 48 49 49 48 49 49 48 49 49 48 49 49 48 49 49 48 49 49 48 49 49 48 49 49 48 49 49 48 49 49 48 49 49 48 49 49 48 49 49 48 49 49 48 49 49 48 49 49 48 49 49 48 49 49 48 49 49 48 49 173 81 82 173 81 82 173 81 82 173 81 82 173 81 82 173 81 82 173 81 82 173 81 82 173 81 82 173 81 82 173 81 82 173 81 82 173 81 82 173 81 82 173 81 82 156 81 82 57 69 74 57 69 74 57 69 74 57 69 74 181 85 90 247 97 99 239 97 99 57 69 74 57 69 74 57 69 74 57 69 74 57 69 74 247 97 99 247 97 99 247 97 99 231 97 99 247 97 99 66 73 74 66 73 74 66 73 74 57 73 74 173 81 82 173 81 82 173 81 82 173 81 82 173 81 82 173 81 82 173 81 82 173 81 82 173 81 82 173 81 82 173 81 82 173 81 82 173 81 82 173 81 82 173 81 82 173 81 82 49 48 49 49 48 49 49 48 49 49 48 49 49 48 49 49 48 49 49 48 49 49 48 49 49 48 49 49 48 49 49 48 49 49 48 49 49 48 49 49 48 49 49 48 49 49 48 49 49 48 49 49 48 49 49 48 49 49 48 49 49 48 49 49 48 49 49 48 49 49 48 49 49 48 49 49 48 49 49 48 49 49 48 49 49 48 49 49 48 49 49 48 49 49 48 49 49 48 49 49 48 49 49 48 49 49 48 49 49 48 49 49 48 49 49 48 49
49 48 49 49 48 49 49 48 49 49 48 49 49 48 49 49 48 49 49 48 49 49 48 49 49 48 49 49 48 49 49 48 49 49 48 49 49 48 49 49 48 49 49 48 49 49 48 49 49 48 49 49 48 49 49 48 49 49 48 49 49 48 49 49 48 49 49 48 49 49 48 49 49 48 49 49 48 49 49 48 49 49 48 49 49 48 49 49 48 49 49 48 49 49 48 49 49 48 49 49 48 49 49 48 49 49 48 49 173 81 82 173 81 82 173 81 82 173 81 82 173 81 82 173 81 82 173 81 82 173 81 82 173 81 82 173 81 82 173 81 82 173 81 82 173 81 82 173 81 82 173 81 82 156 81 82 66 73 74 66 73 74 66 73 74 231 97 99 247 97 99 140 81 82 74 73 74 74 73 74 82 73 74 90 77 74 90 77 74 90 77 74 90 77 74 90 73 74 82 73 74 82 73 74 198 89 90 247 97 99 74 73 74 74 73 74 66 73 74 123 77 74 173 81 82 173 81 82 173 81 82 173 81 82 173 81 82 173 81 82 173 81 82 173 81 82 173 81 82 173 81 82 173 81 82 173 81 82 173 81 82 173 81 82 173 81 82 173 81 82 49 48 49 49 48 49 49 48 49 49 48 49 49 48 49 49 48 49 49 48 49 49 48 49 49 48 49 49 48 49 49 48 49 49 48 49 49 48 49 49 48 49 49 48 49 49 48 49 49 48 49 49 48 49 49 48 49 49 48 49 49 48 49 49 48 49 49 48 49 49 48 49 49 48 49 49 48 49 49 48 49 49 48 49 49 48 49 49 48 49 49 48 49 49 48 49 49 48 49 49 48 49 49 48 49 49 48 49 49 48 49 49 48 49
49 48 49 49 48 49 49 48 49 49 48 49 49 48 49 49 48 49 49 48 49 49 48 49 49 48 49 49 48 49 49 48 49 49 48 49 49 48 49 49 48 49 49 48 49 49 48 49 49 48 49 49 48 49 49 48 49 49 48 49 49 48 49 49 48 49 49 48 49 49 48 49 49 48 49 49 48 49 49 48 49 49 48 49 49 48 49 49 48 49 49 48 49 49 48 49 49 48 49 49 48 49 49 48 49 49 48 49 173 81 82 173 81 82 173 81 82 173 81 82 173 81 82 173 81 82 173 81 82 173 81 82 173 81 82 173 81 82 173 81 82 173 81 82 173 81 82 173 81 82 173 81 82 156 81 82 74 73 74 82 73 74 82 77 74 99 77 74 247 97 99 156 85 82 115 77 82 115 81 82 123 81 82 123 81 82 132 81 82 132 81 82 123 81 82 123 81 82 123 81 82 115 77 82 247 97 99 239 97 99 115 81 82 99 77 82 90 77 74 132 77 82 173 81 82 173 81 82 173 81 82 173 81 82 173 81 82 173 81 82 173 81 82 173 81 82 173 81 82 173 81 82 173 81 82 173 81 82 173 81 82 173 81 82 173 81 82 173 81 82 49 48 49 49 48 49 49 48 49 49 48 49 49 48 49 49 48 49 49 48 49 49 48 49 49 48 49 49 48 49 49 48 49 49 48 49 49 48 49 49 48 49 49 48 49 49 48 49 49 48 49 49 48 49 49 48 49 49 48 49 49 48 49 49 48 49 49 48 49 49 48 49 49 48 49 49 48 49 49 48 49 49 48 49 49 48 49 49 48 49 49 48 49 49 48 49 49 48 49 49 48 49 49 48 49 49 48 49 49 48 49 49 48 49
49 48 49 49 48 49 49 48 49 49 48 49 49 48 49 49 48 49 49 48 49 49 48 49 49 48 49 49 48 49 49 48 49 49 48 49 49 48 49 49 48 49 49 48 49 49 48 49 49 48 49 49 48 49 49 48 49 49 48 49 49 48 49 49 48 49 49 48 49 49 48 49 49 48 49 49 48 49 49 48 49 49 48 49 49 48 49 49 48 49 49 48 49 49 48 49 49 48 49 49 48 49 49 48 49 49 48 49 173 81 82 173 81 82 173 81 82 173 81 82 173 81 82 173 81 82 173 81 82 173 81 82 173 81 82 173 81 82 173 81 82 173 81 82 173 81 82 173 81 82 173 81 82 165 81 82 99 77 82 107 77 82 107 81 82 115 81 82 198 93 90 247 97 99 239 97 99 181 89 90 165 85 82 165 85 82 173 85 90 173 85 90 189 89 90 206 93 90 239 97 99 247 97 99 247 97 99 148 85 82 140 81 82 123 81 82 115 81 82 107 81 82 140 81 82 173 81 82 173 81 82 173 81 82 173 81 82 173 81 82 173 81 82 173 81 82 173 81 82 173 81 82 173 81 82 173 81 82 173 81 82 173 81 82 173 81 82 173 81 82 173 81 82 49 48 49 49 48 49 49 48 49 49 48 49 49 48 49 49 48 49 49 48 49 49 48 49 49 48 49 49 48 49 49 48 49 49 48 49 49 48 49 49 48 49 49 48 49 49 48 49 49 48 49 49 48 49 49 48 49 49 48 49 49 48 49 49 48 49 49 48 49 49 48 49 49 48 49 49 48 49 49 48 49 49 48 49 49 48 49 49 48 49 49 48 49 49 48 49 49 48 49 49 48 49 49 48 49 49 48 49 49 48 49
49 48 49 49 48 49 49 48 49 49 48 49 49 48 49 49 48 49 49 48 49 49 48 49 49 48 49 49 48 49 49 48 49 49 48 49 49 48 49 49 48 49 49 48 49 49 48 49 49 48 49 49 48 49 49 48 49 49 48 49 49 48 49 49 48 49 49 48 49 49 48 49 49 48 49 49 48 49 49 48 49 49 48 49 49 48 49 49 48 49 49 48 49 49 48 49 49 48 49 49 48 49 49 48 49 173 81 82 173 81 82 173 81 82 173 81 82 173 81 82 173 81 82 173 81 82 173 81 82 173 81 82 173 81 82 173 81 82 173 81 82 173 81 82 173 81 82 173 81 82 181 81 82 173 81 82 115 81 82 123 81 82 132 81 82 140 85 82 156 85 82 181 89 90 206 93 90 239 97 99 247 97 99 247 97 99 8 52 49 8 52 49 24 56 57 74 60 66 132 73 74 181 85 82 222 93 90 231 97 99 198 93 90 148 85 82 140 85 82 123 81 82 148 81 82 181 81 82 181 81 82 181 81 82 173 81 82 173 81 82 173 81 82 173 81 82 173 81 82 173 81 82 173 81 82 173 81 82 173 81 82 173 81 82 173 81 82 173 81 82 173 81 82 173 81 82 49 48 49 49 48 49 49 48 49 49 48 49 49 48 49 49 48 49 49 48 49 49 48 49 49 48 49 49 48 49 49 48 49 49 48 49 49 48 49 49 48 49 49 48 49 49 48 49 49 48 49 49 48 49 49 48 49 49 48 49 49 48 49 49 48 49 49 48 49 49 48 49 49 48 49 49 48 49 49 48 49 49 48 49 49 48 49 49 48 49 49 48 49 49 48 49 49 48 49 49 48 49 49 48 49 49 48 49
49 48 49 49 48 49 49 48 49 49 48 49 49 48 49 49 48 49 49 48 49 49 48 49 49 48 49 49 48 49 49 48 49 49 48 49 49 48 49 49 48 49 49 48 49 49 48 49 49 48 49 49 48 49 49 48 49 49 48 49 49 48 49 49 48 49 49 48 49 49 48 49 49 48 49 49 48 49 49 48 49 49 48 49 49 48 49 49 48 49 49 48 49 49 48 49 49 48 49 49 48 49 49 48 49 173 81 82 173 81 82 173 81 82 173 81 82 173 81 82 173 81 82 173 81 82 173 81 82 173 81 82 173 81 82 173 81 82 173 81 82 173 81 82 173 81 82 181 81 82 181 81 82 173 81 82 123 81 82 156 85 90 222 93 90 148 77 82 24 60 57 16 60 57 16 60 57 16 60 57 16 60 66 74 65 66 189 85 82 173 81 82 66 65 66 16 60 66 16 60 66 16 60 66 16 60 66 16 60 66 16 60 66 16 60 66 16 60 66 115 73 74 189 89 90 181 85 82 181 81 82 181 81 82 173 81 82 173 81 82 173 81 82 173 81 82 173 81 82 173 81 82 173 81 82 173 81 82 173 81 82 173 81 82 173 81 82 173 81 82 173 81 82 173 81 82 49 48 49 49 48 49 49 48 49 49 48 49 49 48 49 49 48 49 49 48 49 49 48 49 49 48 49 49 48 49 49 48 49 49 48 49 49 48 49 49 48 49 49 48 49 49 48 49 49 48 49 49 48 49 49 48 49 49 48 49 49 48 49 49 48 49 49 48 49 49 48 49 49 48 49 49 48 49 49 48 49 49 48 49 49 48 49 49 48 49 49 48 49 49 48 49 49 48 49 49 48 49 49 48 49 49 48 49
49 48 49 49 48 49 49 48 49 49 48 49 49 48 49 49 48 49 49 48 49 49 48 49 49 48 49 49 48 49 49 48 49 49 48 49 49 48 49 49 48 49 49 48 49 49 48 49 49 48 49 49 48 49 49 48 49 49 48 49 49 48 49 49 48 49 49 48 49 49 48 49 49 48 49 49 48 49 49 48 49 49 48 49 49 48 49 49 48 49 49 48 49 49 48 49 49 48 49 49 48 49 49 48 49 173 81 82 173 81 82 173 81 82 173 81 82 173 81 82 173 81 82 173 81 82 173 81 82 173 81 82 173 81 82 173 81 82 173 81 82 173 81 82 173 81 82 181 81 82 181 81 82 165 81 82 24 65 66 24 65 66 24 65 66 24 65 66 24 65 66 24 65 66 24 65 66 24 65 66 24 65 66 90 73 74 132 77 74 132 77 74 132 77 74 123 77 74 24 65 66 24 65 66 24 65 66 24 65 66 24 65 66 24 65 66 24 65 66 33 69 66 33 69 66 115 73 74 181 85 82 181 81 82 173 81 82 173 81 82 173 81 82 173 81 82 173 81 82 173 81 82 173 81 82 173 81 82 173 81 82 173 81 82 173 81 82 173 81 82 173 81 82 173 81 82 173 81 82 49 48 49 49 48 49 49 48 49 49 48 49 49 48 49 49 48 49 49 48 49 49 48 49 49 48 49 49 48 49 49 48 49 49 48 49 49 48 49 49 48 49 49 48 49 49 48 49 49 48 49 49 48 49 49 48 49 49 48 49 49 48 49 49 48 49 49 48 49 49 48 49 49 48 49 49 48 49 49 48 49 49 48 49 49 48 49 49 48 49 49 48 49 49 48 49 49 48 49 49 48 49 49 48 49
49 48 49 49 48 49 49 48 49 49 48 49 49 48 49 49 48 49 49 48 49 49 48 49 49 48 49 49 48 49 49 48 49 49 48 49 49 48 49 49 48 49 49 48 49 49 48 49 49 48 49 49 48 49 49 48 49 49 48 49 49 48 49 49 48 49 49 48 49 49 48 49 49 48 49 49 48 49 49 48 49 49 48 49 49 48 49 49 48 49 49 48 49 49 48 49 49 48 49 49 48 49 49 48 49 173 81 82 173 81 82 173 81 82 173 81 82 173 81 82 173 81 82 173 81 82 173 81 82 173 81 82 173 81 82 173 81 82 173 81 82 173 81 82 173 81 82 181 81 82 181 81 82 165 81 82 33 69 66 33 69 66 33 69 66 33 69 66 33 69 66 33 69 66 33 69 66 33 69 66 33 69 66 33 69 74 33 69 74 33 69 74 132 81 82 181 85 90 33 69 74 33 69 74 33 69 74 33 69 74 33 69 74 33 69 74 33 69 74 33 69 74 33 69 74 115 77 74 181 81 82 181 81 82 173 81 82 173 81 82 173 81 82 173 81 82 173 81 82 173 81 82 173 81 82 173 81 82 173 81 82 173 81 82 173 81 82 173 81 82 173 81 82 173 81 82 173 81 82 49 48 49 49 48 49 49 48 49 49 48 49 49 48 49 49 48 49 49 48 49 49 48 49 49 48 49 49 48 49 49 48 49 49 48 49 49 48 49 49 48 49 49 48 49 49 48 49 49 48 49 49 48 49 49 48 49 49 48 49 49 48 49 49 48 49 49 48 49 49 48 49 49 48 49 49 48 49 49 48 49 49 48 49 49 48 49 49 48 49 49 48 49 49 48 49 49 48 49 49 48 49 49 48 49
49 48 49 49 48 49 49 48 49 49 48 49 49 48 49 49 48 49 49 48 49 49 48 49 49 48 49 49 48 49 49 48 49 49 48 49 49 48 49 49 48 49 49 48 49 49 48 49 49 48 49 49 48 49 49 48 49 49 48 49 49 48 49 49 48 49 49 48 49 49 48 49 49 48 49 49 48 49 49 48 49 49 48 49 49 48 49 49 48 49 49 48 49 49 48 49 49 48 49 49 48 49 49 48 49 173 81 82 173 81 82 173 81 82 173 81 82 173 81 82 173 81 82 173 81 82 173 81 82 173 81 82 173 81 82 173 81 82 173 81 82 173 81 82 173 81 82 173 81 82 181 81 82 156 81 82 33 73 74 33 73 74 33 73 74 33 73 74 33 73 74 33 73 74 33 73 74 33 73 74 33 73 74 66 73 74 165 85 82 33 73 74 132 81 82 181 89 90 33 73 74 33 73 74 33 73 74 33 73 74 33 73 74 33 73 74 33 73 74 33 73 74 33 73 74 115 77 74 181 81 82 173 81 82 173 81 82 173 81 82 173 81 82 173 81 82 173 81 82 173 81 82 173 81 82 173 81 82 173 81 82 173 81 82 173 81 82 173 81 82 173 81 82 173 81 82 173 81 82 173 81 82 49 48 49 49 48 49 49 48 49 49 48 49 49 48 49 49 48 49 49 48 49 49 48 49 49 48 49 49 48 49 49 48 49 49 48 49 49 48 49 49 48 49 49 48 49 49 48 49 49 48 49 49 48 49 49 48 49 49 48 49 49 48 49 49 48 49 49 48 49 49 48 49 49 48 49 49 48 49 49 48 49 49 48 49 49 48 49 49 48 49 49 48 49 49 48 49 49 48 49 49 48 49
49 48 49 49 48 49 49 48 49 49 48 49 49 48 49 49 48 49 49 48 49 49 48 49 49 48 49 49 48 49 49 48 49 49 48 49 49 48 49 49 48 49 49 48 49 49 48 49 49 48 49 49 48 49 49 48 49 49 48 49 49 48 49 49 48 49 49 48 49 49 48 49 49 48 49 49 48 49 49 48 49 49 48 49 49 48 49 49 48 49 49 48 49 49 48 49 49 48 49 49 48 49 173 81 82 173 81 82 173 81 82 173 81 82 173 81 82 173 81 82 173 81 82 173 81 82 173 81 82 173 81 82 173 81 82 173 81 82 173 81 82 173 81 82 173 81 82 173 81 82 173 81 82 156 81 82 33 73 74 33 73 74 33 73 74 33 73 74 33 73 74 33 73 74 33 73 74 33 73 74 33 73 74 33 73 74 33 73 74 33 73 74 33 73 74 33 73 74 33 73 74 33 73 74 33 73 74 33 73 74 33 73 74 33 73 74 33 73 74 33 73 74 33 73 74 33 73 74 107 77 74 173 81 82 173 81 82 173 81 82 173 81 82 173 81 82 173 81 82 173 81 82 173 81 82 173 81 82 173 81 82 173 81 82 173 81 82 173 81 82 173 81 82 173 81 82 173 81 82 173 81 82 173 81 82 49 48 49 49 48 49 49 48 49 49 48 49 49 48 49 49 48 49 49 48 49 49 48 49 49 48 49 49 48 49 49 48 49 49 48 49 49 48 49 49 48 49 49 48 49 49 48 49 49 48 49 49 48 49 49 48 49 49 48 49 49 48 49 49 48 49 49 48 49 49 48 49 49 48 49 49 48 49 49 48 49 49 48 49 49 48 49 49 48 49 49 48 49 49 48 49 49 48 49
49 48 49 49 48 49 49 48 49 49 48 49 49 48 49 49 48 49 49 48 49 49 48 49 49 48 49 49 48 49 49 48 49 49 48 49 49 48 49 49 48 49 49 48 49 49 48 49 49 48 49 49 48 49 49 48 49 49 48 49 49 48 49 49 48 49 49 48 49 49 48 49 49 48 49 49 48 49 49 48 49 49 48 49 49 48 49 49 48 49 49 48 49 49 48 49 49 48 49 49 48 49 173 81 82 173 81 82 173 81 82 173 81 82 173 81 82 173 81 82 173 81 82 173 81 82 173 81 82 173 81 82 173 81 82 173 81 82 173 81 82 173 81 82 173 81 82 173 81 82 173 81 82 156 81 82 33 73 74 33 73 74 33 73 74 33 73 74 33 73 74 33 73 74 33 73 74 33 73 74 33 73 74 33 73 74 33 73 74 41 73 74 189 89 90 132 81 82 33 73 74 33 73 74 33 73 74 33 73 74 33 73 74 41 73 74 41 73 74 41 73 74 41 73 74 41 73 74 107 77 74 173 81 82 173 81 82 173 81 82 173 81 82 173 81 82 173 81 82 173 81 82 173 81 82 173 81 82 173 81 82 173 81 82 173 81 82 173 81 82 173 81 82 173 81 82 173 81 82 173 81 82 173 81 82 49 48 49 49 48 49 49 48 49 49 48 49 49 48 49 49 48 49 49 48 49 49 48 49 49 48 49 49 48 49 49 48 49 49 48 49 49 48 49 49 48 49 49 48 49 49 48 49 49 48 49 49 48 49 49 48 49 49 48 49 49 48 49 49 48 49 49 48 49 49 48 49 49 48 49 49 48 49 49 48 49 49 48 49 49 48 49 49 48 49 49 48 49 49 48 49 49 48 49
49 48 49 49 48 49 49 48 49 49 48 49 49 48 49 49 48 49 49 48 49 49 48 49 49 48 49 49 48 49 49 48 49 49 48 49 49 48 49 49 48 49 49 48 49 49 48 49 49 48 49 49 48 49 49 48 49 49 48 49 49 48 49 49 48 49 49 48 49 49 48 49 49 48 49 49 48 49 49 48 49 49 48 49 49 48 49 49 48 49 49 48 49 49 48 49 49 48 49 49 48 49 173 81 82 173 81 82 173 81 82 173 81 82 173 81 82 173 81 82 173 81 82 173 81 82 173 81 82 173 81 82 173 81 82 173 81 82 173 81 82 173 81 82 173 81 82 173 81 82 173 81 82 156 81 82 41 73 74 41 73 74 41 73 74 41 73 74 41 73 74 41 73 74 41 73 74 41 73 74 41 73 74 41 73 74 41 77 74 41 77 74 41 77 74 41 77 74 41 77 74 41 77 74 41 77 74 41 77 74 41 77 74 41 77 74 41 77 74 41 77 74 41 77 74 41 77 74 107 77 74 173 81 82 173 81 82 173 81 82 173 81 82 173 81 82 173 81 82 173 81 82 173 81 82 173 81 82 173 81 82 173 81 82 173 81 82 173 81 82 173 81 82 173 81 82 173 81 82 173 81 82 173 81 82 173 81 82 49 48 49 49 48 49 49 48 49 49 48 49 49 48 49 49 48 49 49 48 49 49 48 49 49 48 49 49 48 49 49 48 49 49 48 49 49 48 49 49 48 49 49 48 49 49 48 49 49 48 49 49 48 49 49 48 49 49 48 49 49 48 49 49 48 49 49 48 49 49 48 49 49 48 49 49 48 49 49 48 49 49 48 49 49 48 49 49 48 49 49 48 49 49 48 49
49 48 49 49 48 49 49 48 49 49 48 49 49 48 49 49 48 49 49 48 49 49 48 49 49 48 49 49 48 49 49 48 49 49 48 49 49 48 49 49 48 49 49 48 49 49 48 49 49 48 49 49 48 49 49 48 49 49 48 49 49 48 49 49 48 49 49 48 49 49 48 49 49 48 49 49 48 49 49 48 49 49 48 49 49 48 49 49 48 49 49 48 49 49 48 49 49 48 49 49 48 49 173 81 82 173 81 82 173 81 82 173 81 82 173 81 82 173 81 82 173 81 82 173 81 82 173 81 82 173 81 82 173 81 82 173 81 82 173 81 82 173 81 82 173 81 82 173 81 82 173 81 82 156 81 82 41 77 74 41 77 74 41 77 74 41 77 74 41 77 74 41 77 74 41 77 74 41 77 74 41 77 74 41 77 74 115 81 82 165 85 90 165 85 90 165 85 82 82 77 82 41 77 74 41 77 74 41 77 74 41 77 74 41 77 74 41 77 74 41 77 74 41 77 74 41 77 74 41 77 74 107 77 82 173 81 82 173 81 82 173 81 82 173 81 82 173 81 82 173 81 82 173 81 82 173 81 82 173 81 82 173 81 82 173 81 82 173 81 82 173 81 82 173 81 82 173 81 82 173 81 82 173 81 82 173 81 82 49 48 49 49 48 49 49 48 49 49 48 49 49 48 49 49 48 49 49 48 49 49 48 49 49 48 49 49 48 49 49 48 49 49 48 49 49 48 49 49 48 49 49 48 49 49 48 49 49 48 49 49 48 49 49 48 49 49 48 49 49 48 49 49 48 49 49 48 49 49 48 49 49 48 49 49 48 49 49 48 49 49 48 49 49 48 49 49 48 49 49 48 49 49 48 49
49 48 49 49 48 49 49 48 49 49 48 49 49 48 49 49 48 49 49 48 49 49 48 49 49 48 49 49 48 49 49 48 49 49 48 49 49 48 49 49 48 49 49 48 49 49 48 49 49 48 49 49 48 49 49 48 49 49 48 49 49 48 49 49 48 49 49 48 49 49 48 49 49 48 49 49 48 49 49 48 49 49 48 49 49 48 49 49 48 49 49 48 49 49 48 49 49 48 49 173 81 82 173 81 82 173 81 82 173 81 82 173 81 82 173 81 82 173 81 82 173 81 82 173 81 82 173 81 82 173 81 82 173 81 82 173 81 82 173 81 82 173 81 82 173 81 82 173 81 82 173 81 82 156 81 82 41 77 74 41 77 74 41 77 74 41 77 74 41 77 74 41 77 74 41 77 74 41 77 74 41 77 74 41 77 74 123 81 82 181 89 90 181 89 90 181 89 90 148 85 82 41 77 74 41 77 74 41 77 74 41 77 74 41 77 74 41 77 74 41 77 74 41 77 74 41 77 74 41 77 74 107 77 82 173 81 82 173 81 82 173 81 82 173 81 82 173 81 82 173 81 82 173 81 82 173 81 82 173 81 82 173 81 82 173 81 82 173 81 82 173 81 82 173 81 82 173 81 82 173 81 82 173 81 82 173 81 82 173 81 82 49 48 49 49 48 49 49 48 49 49 48 49 49 48 49 49 48 49 49 48 49 49 48 49 49 48 49 49 48 49 49 48 49 49 48 49 49 48 49 49 48 49 49 48 49 49 48 49 49 48 49 49 48 49 49 48 49 49 48 49 49 48 49 49 48 49 49 48 49 49 48 49 49 48 49 49 48 49 49 48 49 49 48 49 49 48 49 49 48 49 49 48 49
49 48 49 49 48 49 49 48 49 49 48 49 49 48 49 49 48 49 49 48 49 49 48 49 49 48 49 49 48 49 49 48 49 49 48 49 49 48 49 49 48 49 49 48 49 49 48 49 49 48 49 49 48 49 49 48 49 49 48 49 49 48 49 49 48 49 49 48 49 49 48 49 49 48 49 49 48 49 49 48 49 49 48 49 49 48 49 49 48 49 49 48 49 49 48 49 49 48 49 173 81 82 173 81 82 173 81 82 173 81 82 173 81 82 173 81 82 173 81 82 173 81 82 173 81 82 173 81 82 173 81 82 173 81 82 173 81 82 173 81 82 173 81 82 173 81 82 173 81 82 173 81 82 156 81 82 41 77 74 41 77 74 41 77 74 41 77 74 41 77 74 41 77 74 41 77 74 41 77 74 41 77 74 41 77 74 41 77 74 41 77 74 41 77 74 41 77 74 41 77 74 41 77 74 41 77 74 41 77 74 41 77 74 41 77 74 41 77 74 41 77 74 41 77 74 41 77 74 41 77 74 41 77 74 107 77 82 173 81 82 173 81 82 173 81 82 173 81 82 173 81 82 173 81 82 173 81 82 173 81 82 173 81 82 173 81 82 173 81 82 173 81 82 173 81 82 173 81 82 173 81 82 173 81 82 173 81 82 173 81 82 173 81 82 49 48 49 49 48 49 49 48 49 49 48 49 49 48 49 49 48 49 49 48 49 49 48 49 49 48 49 49 48 49 49 48 49 49 48 49 49 48 49 49 48 49 49 48 49 49 48 49 49 48 49 49 48 49 49 48 49 49 48 49 49 48 49 49 48 49 49 48 49 49 48 49 49 48 49 49 48 49 49 48 49 49 48 49 49 48 49 49 48 49
49 48 49 49 48 49 49 48 49 49 48 49 49 48 49 49 48 49 49 48 49 49 48 49 49 48 49 49 48 49 49 48 49 49 48 49 49 48 49 49 48 49 49 48 49 49 48 49 49 48 49 49 48 49 49 48 49 49 48 49 49 48 49 49 48 49 49 48 49 49 48 49 49 48 49 49 48 49 49 48 49 49 48 49 49 48 49 49 48 49 49 48 49 49 48 49 49 48 49 173 81 82 173 81 82 173 81 82 173 81 82 173 81 82 173 81 82 173 81 82 173 81 82 173 81 82 173 81 82 173 81 82 173 81 82 173 81 82 173 81 82 173 81 82 173 81 82 173 81 82 173 81 82 156 81 82 41 77 74 41 77 74 41 77 74 41 77 74 41 77 74 41 77 74 41 77 74 41 77 74 41 77 74 41 77 74 41 77 74 41 77 74 41 77 74 41 77 74 181 89 90 206 93 90 41 77 74 41 77 74 41 77 74 41 77 74 41 77 74 41 77 74 41 77 74 41 77 74 41 77 74 41 77 74 107 77 82 173 81 82 173 81 82 173 81 82 173 81 82 173 81 82 173 81 82 173 81 82 173 81 82 173 81 82 173 81 82 173 81 82 173 81 82 173 81 82 173 81 82 173 81 82 173 81 82 173 81 82 173 81 82 173 81 82 49 48 49 49 48 49 49 48 49 49 48 49 49 48 49 49 48 49 49 48 49 49 48 49 49 48 49 49 48 49 49 48 49 49 48 49 49 48 49 49 48 49 49 48 49 49 48 49 49 48 49 49 48 49 49 48 49 49 48 49 49 48 49 49 48 49 49 48 49 49 48 49 49 48 49 49 48 49 49 48 49 49 48 49 49 48 49 49 48 49
49 48 49 49 48 49 49 48 49 49 48 49 49 48 49 49 48 49 49 48 49 49 48 49 49 48 49 49 48 49 49 48 49 49 48 49 49 48 49 49 48 49 49 48 49 49 48 49 49 48 49 49 48 49 49 48 49 49 48 49 49 48 49 49 48 49 49 48 49 49 48 49 49 48 49 49 48 49 49 48 49 49 48 49 49 48 49 49 48 49 49 48 49 49 48 49 49 48 49 173 81 82 173 81 82 173 81 82 173 81 82 173 81 82 173 81 82 173 81 82 173 81 82 173 81 82 173 81 82 173 81 82 173 81 82 173 81 82 173 81 82 173 81 82 173 81 82 173 81 82 173 81 82 156 81 82 41 77 74 41 77 74 41 77 74 41 77 74 41 77 74 41 77 74 41 77 74 41 77 74 41 77 74 41 77 74 41 77 74 41 77 74 41 77 74 41 77 74 41 77 74 41 77 74 41 77 74 41 77 74 41 77 74 41 77 74 41 77 74 41 77 74 41 77 74 41 77 74 41 77 74 41 77 74 107 77 82 173 81 82 173 81 82 173 81 82 173 81 82 173 81 82 173 81 82 173 81 82 173 81 82 173 81 82 173 81 82 173 81 82 173 81 82 173 81 82 173 81 82 173 81 82 173 81 82 173 81 82 173 81 82 173 81 82 173 81 82 49 48 49 49 48 49 49 48 49 49 48 49 49 48 49 49 48 49 49 48 49 49 48 49 49 48 49 49 48 49 49 48 49 49 48 49 49 48 49 49 48 49 49 48 49 49 48 49 49 48 49 49 48 49 49 48 49 49 48 49 49 48 49 49 48 49 49 48 49 49 48 49 49 48 49 49 48 49 49 48 49 49 48 49 49 48 49
49 48 49 49 48 49 49 48 49 49 48 49 49 48 49 49 48 49 49 48 49 49 48 49 49 48 49 49 48 49 49 48 49 49 48 49 49 48 49 49 48 49 49 48 49 49 48 49 49 48 49 49 48 49 49 48 49 49 48 49 49 48 49 49 48 49 49 48 49 49 48 49 49 48 49 49 48 49 49 48 49 49 48 49 49 48 49 49 48 49 49 48 49 49 48 49 173 81 82 173 81 82 173 81 82 173 81 82 173 81 82 173 81 82 173 81 82 173 81 82 173 81 82 173 81 82 173 81 82 173 81 82 173 81 82 173 81 82 173 81 82 173 81 82 173 81 82 173 81 82 173 81 82 156 81 82 41 77 74 41 77 74 41 77 74 41 77 74 41 77 74 41 77 74 41 77 74 41 77 74 41 77 74 41 77 74 41 77 74 41 77 74 41 77 74 41 77 74 41 77 74 41 77 74 41 77 74 41 77 74 41 77 74 41 77 74 41 77 74 156 81 82 156 81 82 156 81 82 156 81 82 156 81 82 156 81 82 173 81 82 173 81 82 173 81 82 173 81 82 173 81 82 173 81 82 173 81 82 173 81 82 173 81 82 173 81 82 173 81 82 173 81 82 173 81 82 173 81 82 173 81 82 173 81 82 173 81 82 173 81 82 173 81 82 173 81 82 173 81 82 49 48 49 49 48 49 49 48 49 49 48 49 49 48 49 49 48 49 49 48 49 49 48 49 49 48 49 49 48 49 49 48 49 49 48 49 49 48 49 49 48 49 49 48 49 49 48 49 49 48 49 49 48 49 49 48 49 49 48 49 49 48 49 49 48 49 49 48 49 49 48 49 49 48 49 49 48 49 49 48 49 49 48 49
49 48 49 49 48 49 49 48 49 49 48 49 49 48 49 49 48 49 49 48 49 49 48 49 49 48 49 49 48 49 49 48 49 49 48 49 49 48 49 49 48 49 49 48 49 49 48 49 49 48 49 49 48 49 49 48 49 49 48 49 49 48 49 49 48 49 49 48 49 49 48 49 49 48 49 49 48 49 49 48 49 49 48 49 49 48 49 49 48 49 49 48 49 49 48 49 173 81 82 173 81 82 173 81 82 173 81 82 173 81 82 173 81 82 173 81 82 173 81 82 173 81 82 173 81 82 173 81 82 173 81 82 173 81 82 173 81 82 173 81 82 173 81 82 173 81 82 173 81 82 173 81 82 173 81 82 165 81 82 156 81 82 156 81 82 156 81 82 173 81 82 173 81 82 173 81 82 173 81 82 173 81 82 173 81 82 173 81 82 173 81 82 173 81 82 173 81 82 173 81 82 173 81 82 173 81 82 173 81 82 173 81 82 173 81 82 173 81 82 173 81 82 173 81 82 173 81 82 173 81 82 173 81 82 173 81 82 173 81 82 173 81 82 173 81 82 173 81 82 173 81 82 173 81 82 173 81 82 173 81 82 173 81 82 173 81 82 173 81 82 173 81 82 173 81 82 173 81 82 173 81 82 173 81 82 173 81 82 173 81 82 173 81 82 173 81 82 173 81 82 49 48 49 49 48 49 49 48 49 49 48 49 49 48 49 49 48 49 49 48 49 49 48 49 49 48 49 49 48 49 49 48 49 49 48 49 49 48 49 49 48 49 49 48 49 49 48 49 49 48 49 49 48 49 49 48 49 49 48 49 49 48 49 49 48 49 49 48 49 49 48 49 49 48 49 49 48 49 49 48 49 49 48 49
49 48 49 49 48 49 49 48 49 49 48 49 49 48 49 49 48 49 49 48 49 49 48 49 49 48 49 49 48 49 49 48 49 49 48 49 49 48 49 49 48 49 49 48 49 49 48 49 49 48 49 49 48 49 49 48 49 49 48 49 49 48 49 49 48 49 49 48 49 49 48 49 49 48 49 49 48 49 49 48 49 49 48 49 49 48 49 49 48 49 49 48 49 49 48 49 173 81 82 173 81 82 173 81 82 173 81 82 173 81 82 173 81 82 173 81 82 173 81 82 173 81 82 173 81 82 173 81 82 173 81 82 173 81 82 173 81 82 173 81 82 173 81 82 173 81 82 173 81 82 173 81 82 173 81 82 173 81 82 173 81 82 173 81 82 173 81 82 173 81 82 173 81 82 173 81 82 173 81 82 173 81 82 173 81 82 173 81 82 173 81 82 173 81 82 173 81 82 173 81 82 173 81 82 173 81 82 173 81 82 173 81 82 173 81 82 173 81 82 173 81 82 173 81 82 173 81 82 173 81 82 173 81 82 173 81 82 173 81 82 173 81 82 173 81 82 173 81 82 173 81 82 173 81 82 140 73 74 140 73 74 140 73 74 140 73 74 140 73 74 140 73 74 140 73 74 140 73 74 140 73 74 140 73 74 140 73 74 140 73 74 140 73 74 140 73 74 140 73 74 49 48 49 49 48 49 49 48 49 49 48 49 49 48 49 49 48 49 49 48 49 49 48 49 49 48 49 49 48 49 49 48 49 49 48 49 49 48 49 49 48 49 49 48 49 49 48 49 49 48 49 49 48 49 49 48 49 49 48 49 49 48 49 49 48 49 49 48 49 49 48 49 49 48 49 49 48 49 49 48 49 49 48 49
49 48 49 49 48 49 49 48 49 49 48 49 49 48 49 49 48 49 49 48 49 49 48 49 49 48 49 49 48 49 49 48 49 49 48 49 49 48 49 49 48 49 49 48 49 49 48 49 49 48 49 49 48 49 49 48 49 49 48 49 49 48 49 49 48 49 49 48 49 49 48 49 49 48 49 49 48 49 49 48 49 49 48 49 49 48 49 49 48 49 49 48 49 49 48 49 173 81 82 173 81 82 173 81 82 173 81 82 173 81 82 173 81 82 173 81 82 173 81 82 173 81 82 173 81 82 173 81 82 173 81 82 173 81 82 173 81 82 173 81 82 173 81 82 173 81 82 173 81 82 173 81 82 173 81 82 173 81 82 140 73 74 140 73 74 140 73 74 140 73 74 140 73 74 140 73 74 140 73 74 140 73 74 140 73 74 140 73 74 140 73 74 140 73 74 140 73 74 140 73 74 140 73 74 140 73 74 140 73 74 140 73 74 140 73 74 140 73 74 140 73 74 140 73 74 140 73 74 140 73 74 140 73 74 140 73 74 140 73 74 140 73 74 140 73 74 140 73 74 140 73 74 140 73 74 140 73 74 140 73 74 140 73 74 140 73 74 140 73 74 140 73 74 140 73 74 140 73 74 140 73 74 140 73 74 140 73 74 140 73 74 140 73 74 140 73 74 140 73 74 49 48 49 49 48 49 49 48 49 49 48 49 49 48 49 49 48 49 49 48 49 49 48 49 49 48 49 49 48 49 49 48 49 49 48 49 49 48 49 49 48 49 49 48 49 49 48 49 49 48 49 49 48 49 49 48 49 49 48 49 49 48 49 49 48 49 49 48 49 49 48 49 49 48 49 49 48 49 49 48 49 49 48 49
49 48 49 49 48 49 49 48 49 49 48 49 49 48 49 49 48 49 49 48 49 49 48 49 49 48 49 49 48 49 49 48 49 49 48 49 49 48 49 49 48 49 49 48 49 49 48 49 49 48 49 49 48 49 49 48 49 49 48 49 49 48 49 49 48 49 49 48 49 49 48 49 49 48 49 49 48 49 49 48 49 49 48 49 49 48 49 49 48 49 49 48 49 140 73 74 140 73 74 140 73 74 140 73 74 140 73 74 140 73 74 140 73 74 140 73 74 140 73 74 140 73 74 140 73 74 140 73 74 140 73 74 140 73 74 140 73 74 140 73 74 140 73 74 140 73 74 140 73 74 140 73 74 140 73 74 140 73 74 140 73 74 140 73 74 140 73 74 140 73 74 140 73 74 140 73 74 140 73 74 140 73 74 140 73 74 140 73 74 140 73 74 140 73 74 140 73 74 140 73 74 140 73 74 140 73 74 140 73 74 140 73 74 140 73 74 140 73 74 140 73 74 140 73 74 140 73 74 140 73 74 140 73 74 140 73 74 140 73 74 140 73 74 140 73 74 140 73 74 140 73 74 140 73 74 140 73 74 140 73 74 140 73 74 140 73 74 140 73 74 140 73 74 140 73 74 140 73 74 140 73 74 140 73 74 140 73 74 140 73 74 140 73 74 140 73 74 140 73 74 49 48 49 49 48 49 49 48 49 49 48 49 49 48 49 49 48 49 49 48 49 49 48 49 49 48 49 49 48 49 49 48 49 49 48 49 49 48 49 49 48 49 49 48 49 49 48 49 49 48 49 49 48 49 49 48 49 49 48 49 49 48 49 49 48 49 49 48 49 49 48 49 49 48 49 49 48 49 49 48 49 49 48 49
49 48 49 49 48 49 49 48 49 49 48 49 49 48 49 49 48 49 49 48 49 49 48 49 49 48 49 49 48 49 49 48 49 49 48 49 49 48 49 49 48 49 49 48 49 49 48 49 49 48 49 49 48 49 49 48 49 49 48 49 49 48 49 49 48 49 49 48 49 49 48 49 49 48 49 49 48 49 49 48 49 49 48 49 49 48 49 49 48 49 49 48 49 49 48 49 140 73 74 140 73 74 140 73 74 140 73 74 140 73 74 140 73 74 140 73 74 140 73 74 140 73 74 140 73 74 140 73 74 140 73 74 140 73 74 140 73 74 140 73 74 140 73 74 140 73 74 140 73 74 140 73 74 140 73 74 140 73 74 140 73 74 140 73 74 140 73 74 140 73 74 140 73 74 140 73 74 140 73 74 140 73 74 140 73 74 140 73 74 140 73 74 140 73 74 140 73 74 140 73 74 140 73 74 140 73 74 140 73 74 140 73 74 140 73 74 140 73 74 140 73 74 140 73 74 140 73 74 140 73 74 140 73 74 140 73 74 140 73 74 140 73 74 140 73 74 140 73 74 140 73 74 140 73 74 140 73 74 140 73 74 140 73 74 140 73 74 140 73 74 140 73 74 140 73 74 140 73 74 140 73 74 140 73 74 140 73 74 140 73 74 140 73 74 140 73 74 140 73 74 49 48 49 49 48 49 49 48 49 49 48 49 49 48 49 49 48 49 49 48 49 49 48 49 49 48 49 49 48 49 49 48 49 49 48 49 49 48 49 49 48 49 49 48 49 49 48 49 49 48 49 49 48 49 49 48 49 49 48 49 49 48 49 49 48 49 49 48 49 49 48 49 49 48 49 49 48 49 49 48 49 49 48 49
49 48 49 49 48 49 49 48 49 49 48 49 49 48 49 49 48 49 49 48 49 49 48 49 49 48 49 49 48 49 49 48 49 49 48 49 49 48 49 49 48 49 49 48 49 49 48 49 49 48 49 49 48 49 49 48 49 49 48 49 49 48 49 49 48 49 49 48 49 49 48 49 49 48 49 49 48 49 49 48 49 49 48 49 49 48 49 49 48 49 49 48 49 49 48 49 140 73 74 140 73 74 140 73 74 140 73 74 140 73 74 140 73 74 140 73 74 140 73 74 140 73 74 140 73 74 140 73 74 140 73 74 140 73 74 140 73 74 140 73 74 140 73 74 140 73 74 140 73 74 140 73 74 140 73 74 140 73 74 140 73 74 140 73 74 140 73 74 140 73 74 140 73 74 140 73 74 140 73 74 140 73 74 140 73 74 140 73 74 140 73 74 140 73 74 140 73 74 140 73 74 140 73 74 140 73 74 140 73 74 140 73 74 140 73 74 140 73 74 140 73 74 140 73 74 140 73 74 140 73 74 140 73 74 140 73 74 140 73 74 140 73 74 140 73 74 140 73 74 140 73 74 140 73 74 140 73 74 140 73 74 140 73 74 140 73 74 140 73 74 140 73 74 140 73 74 140 73 74 140 73 74 140 73 74 140 73 74 140 73 74 140 73 74 140 73 74 140 73 74 49 48 49 49 48 49 49 48 49 49 48 49 49 48 49 49 48 49 49 48 49 49 48 49 49 48 49 49 48 49 49 48 49 49 48 49 49 48 49 49 48 49 49 48 49 49 48 49 49 48 49 49 48 49 49 48 49 49 48 49 49 48 49 49 48 49 49 48 49 49 48 49 49 48 49 49 48 49 49 48 49 49 48 49
49 48 49 49 48 49 49 48 49 49 48 49 49 48 49 49 48 49 49 48 49 49 48 49 49 48 49 49 48 49 49 48 49 49 48 49 49 48 49 49 48 49 49 48 49 49 48 49 49 48 49 49 48 49 49 48 49 49 48 49 49 48 49 49 48 49 49 48 49 49 48 49 49 48 49 49 48 49 49 48 49 49 48 49 49 48 49 49 48 49 49 48 49 49 48 49 140 73 74 140 73 74 140 73 74 140 73 74 140 73 74 140 73 74 140 73 74 140 73 74 140 73 74 140 73 74 140 73 74 140 73 74 140 73 74 140 73 74 140 73 74 140 73 74 140 73 74 140 73 74 140 73 74 140 73 74 140 73 74 140 73 74 140 73 74 140 73 74 140 73 74 140 73 74 140 73 74 140 73 74 140 73 74 140 73 74 140 73 74 140 73 74 140 73 74 140 73 74 140 73 74 140 73 74 140 73 74 140 73 74 140 73 74 140 73 74 140 73 74 140 73 74 140 73 74 140 73 74 140 73 74 140 73 74 140 73 74 140 73 74 140 73 74 140 73 74 140 73 74 140 73 74 140 73 74 140 73 74 140 73 74 140 73 74 140 73 74 140 73 74 140 73 74 140 73 74 140 73 74 140 73 74 140 73 74 140 73 74 140 73 74 140 73 74 140 73 74 140 73 74 49 48 49 49 48 49 49 48 49 49 48 49 49 48 49 49 48 49 49 48 49 49 48 49 49 48 49 49 48 49 49 48 49 49 48 49 49 48 49 49 48 49 49 48 49 49 48 49 49 48 49 49 48 49 49 48 49 49 48 49 49 48 49 49 48 49 49 48 49 49 48 49 49 48 49 49 48 49 49 48 49 49 48 49
49 48 49 49 48 49 49 48 49 49 48 49 49 48 49 49 48 49 49 48 49 49 48 49 49 48 49 49 48 49 49 48 49 49 48 49 49 48 49 49 48 49 49 48 49 49 48 49 49 48 49 49 48 49 49 48 49 49 48 49 49 48 49 49 48 49 49 48 49 49 48 49 49 48 49 49 48 49 49 48 49 49 48 49 49 48 49 49 48 49 49 48 49 49 48 49 140 73 74 140 73 74 140 73 74 140 73 74 140 73 74 140 73 74 140 73 74 140 73 74 140 73 74 140 73 74 140 73 74 140 73 74 140 73 74 140 73 74 140 73 74 140 73 74 140 73 74 140 73 74 140 73 74 140 73 74 140 73 74 140 73 74 140 73 74 140 73 74 140 73 74 140 73 74 140 73 74 140 73 74 140 73 74 140 73 74 140 73 74 140 73 74 140 73 74 140 73 74 140 73 74 140 73 74 140 73 74 140 73 74 140 73 74 140 73 74 140 73 74 140 73 74 140 73 74 140 73 74 140 73 74 140 73 74 140 73 74 140 73 74 140 73 74 140 73 74 140 73 74 140 73 74 140 73 74 140 73 74 140 73 74 140 73 74 140 73 74 140 73 74 140 73 74 140 73 74 140 73 74 140 73 74 140 73 74 140 73 74 140 73 74 140 73 74 140 73 74 140 73 74 49 48 49 49 48 49 49 48 49 49 48 49 49 48 49 49 48 49 49 48 49 49 48 49 49 48 49 49 48 49 49 48 49 49 48 49 49 48 49 49 48 49 49 48 49 49 48 49 49 48 49 49 48 49 49 48 49 49 48 49 49 48 49 49 48 49 49 48 49 49 48 49 49 48 49 49 48 49 49 48 49 49 48 49
49 48 49 49 48 49 49 48 49 49 48 49 49 48 49 49 48 49 49 48 49 49 48 49 49 48 49 49 48 49 49 48 49 49 48 49 49 48 49 49 48 49 49 48 49 49 48 49 49 48 49 49 48 49 49 48 49 49 48 49 49 48 49 49 48 49 49 48 49 49 48 49 49 48 49 49 48 49 49 48 49 49 48 49 49 48 49 49 48 49 49 48 49 49 48 49 140 73 74 140 73 74 140 73 74 140 73 74 140 73 74 140 73 74 140 73 74 140 73 74 140 73 74 140 73 74 140 73 74 140 73 74 140 73 74 140 73 74 140 73 74 140 73 74 140 73 74 140 73 74 140 73 74 140 73 74 140 73 74 140 73 74 140 73 74 140 73 74 140 73 74 140 73 74 140 73 74 140 73 74 140 73 74 140 73 74 140 73 74 140 73 74 140 73 74 140 73 74 140 73 74 140 73 74 140 73 74 140 73 74 140 73 74 140 73 74 140 73 74 140 73 74 140 73 74 140 73 74 140 73 74 140 73 74 140 73 74 140 73 74 140 73 74 140 73 74 140 73 74 140 73 74 140 73 74 140 73 74 140 73 74 140 73 74 140 73 74 140 73 74 140 73 74 140 73 74 140 73 74 140 73 74 140 73 74 140 73 74 140 73 74 140 73 74 140 73 74 49 48 49 49 48 49 49 48 49 49 48 49 49 48 49 49 48 49 49 48 49 49 48 49 49 48 49 49 48 49 49 48 49 49 48 49 49 48 49 49 48 49 49 48 49 49 48 49 49 48 49 49 48 49 49 48 49 49 48 49 49 48 49 49 48 49 49 48 49 49 48 49 49 48 49 49 48 49 49 48 49 49 48 49 49 48 49
49 48 49 49 48 49 49 48 49 49 48 49 49 48 49 49 48 49 49 48 49 49 48 49 49 48 49 49 48 49 49 48 49 49 48 49 49 48 49 49 48 49 49 48 49 49 48 49 49 48 49 49 48 49 49 48 49 49 48 49 49 48 49 49 48 49 49 48 49 49 48 49 49 48 49 49 48 49 49 48 49 49 48 49 49 48 49 49 48 49 49 48 49 49 48 49 140 73 74 140 73 74 140 73 74 140 73 74 140 73 74 140 73 74 140 73 74 140 73 74 140 73 74 140 73 74 140 73 74 140 73 74 140 73 74 140 73 74 140 73 74 140 73 74 140 73 74 140 73 74 140 73 74 140 73 74 140 73 74 140 73 74 140 73 74 140 73 74 140 73 74 140 73 74 140 73 74 140 73 74 140 73 74 140 73 74 140 73 74 140 73 74 140 73 74 140 73 74 140 73 74 140 73 74 140 73 74 140 73 74 140 73 74 140 73 74 140 73 74 140 73 74 140 73 74 140 73 74 140 73 74 140 73 74 140 73 74 140 73 74 140 73 74 140 73 74 140 73 74 140 73 74 140 73 74 140 73 74 140 73 74 140 73 74 140 73 74 140 73 74 140 73 74 140 73 74 140 73 74 140 73 74 140 73 74 140 73 74 140 73 74 140 73 74 140 73 74 49 48 49 49 48 49 49 48 49 49 48 49 49 48 49 49 48 49 49 48 49 49 48 49 49 48 49 49 48 49 49 48 49 49 48 49 49 48 49 49 48 49 49 48 49 49 48 49 49 48 49 49 48 49 49 48 49 49 48 49 49 48 49 49 48 49 49 48 49 49 48 49 49 48 49 49 48 49 49 48 49 49 48 49 49 48 49
49 48 49 49 48 49 49 48 49 49 48 49 49 48 49 49 48 49 49 48 49 49 48 49 49 48 49 49 48 49 49 48 49 49 48 49 49 48 49 49 48 49 49 48 49 49 48 49 49 48 49 49 48 49 49 48 49 49 48 49 49 48 49 49 48 49 49 48 49 49 48 49 49 48 49 49 48 49 49 48 49 49 48 49 49 48 49 49 48 49 49 48 49 49 48 49 140 73 74 140 73 74 140 73 74 140 73 74 140 73 74 140 73 74 140 73 74 140 73 74 140 73 74 140 73 74 140 73 74 140 73 74 140 73 74 140 73 74 140 73 74 140 73 74 140 73 74 140 73 74 140 73 74 140 73 74 140 73 74 140 73 74 140 73 74 140 73 74 140 73 74 140 73 74 140 73 74 140 73 74 140 73 74 140 73 74 140 73 74 140 73 74 140 73 74 140 73 74 140 73 74 140 73 74 140 73 74 140 73 74 140 73 74 140 73 74 140 73 74 140 73 74 140 73 74 140 73 74 140 73 74 140 73 74 140 73 74 140 73 74 140 73 74 140 73 74 140 73 74 140 73 74 140 73 74 140 73 74 140 73 74 140 73 74 140 73 74 140 73 74 140 73 74 140 73 74 140 73 74 140 73 74 140 73 74 140 73 74 140 73 74 140 73 74 140 73 74 49 48 49 49 48 49 49 48 49 49 48 49 49 48 49 49 48 49 49 48 49 49 48 49 49 48 49 49 48 49 49 48 49 49 48 49 49 48 49 49 48 49 49 48 49 49 48 49 49 48 49 49 48 49 49 48 49 49 48 49 49 48 49 49 48 49 49 48 49 49 48 49 49 48 49 49 48 49 49 48 49 49 48 49 49 48 49
49 48 49 49 48 49 49 48 49 49 48 49 49 48 49 49 48 49 49 48 49 49 48 49 49 48 49 49 48 49 49 48 49 49 48 49 49 48 49 49 48 49 49 48 49 49 48 49 49 48 49 49 48 49 49 48 49 49 48 49 49 48 49 49 48 49 49 48 49 49 48 49 49 48 49 49 48 49 49 48 49 49 48 49 49 48 49 49 48 49 49 48 49 49 48 49 140 73 74 140 73 74 140 73 74 140 73 74 140 73 74 140 73 74 140 73 74 140 73 74 140 73 74 140 73 74 140 73 74 140 73 74 140 73 74 140 73 74 140 73 74 140 73 74 140 73 74 140 73 74 140 73 74 140 73 74 140 73 74 140 73 74 140 73 74 140 73 74 140 73 74 140 73 74 140 73 74 140 73 74 140 73 74 140 73 74 140 73 74 140 73 74 140 73 74 140 73 74 140 73 74 140 73 74 140 73 74 140 73 74 140 73 74 140 73 74 140 73 74 140 73 74 140 73 74 140 73 74 140 73 74 140 73 74 140 73 74 140 73 74 140 73 74 140 73 74 140 73 74 140 73 74 140 73 74 140 73 74 140 73 74 140 73 74 140 73 74 140 73 74 140 73 74 140 73 74 140 73 74 140 73 74 140 73 74 140 73 74 140 73 74 140 73 74 140 73 74 49 48 49 49 48 49 49 48 49 49 48 49 49 48 49 49 48 49 49 48 49 49 48 49 49 48 49 49 48 49 49 48 49 49 48 49 49 48 49 49 48 49 49 48 49 49 48 49 49 48 49 49 48 49 49 48 49 49 48 49 49 48 49 49 48 49 49 48 49 49 48 49 49 48 49 49 48 49 49 48 49 49 48 49 49 48 49
49 48 49 49 48 49 49 48 49 49 48 49 49 48 49 49 48 49 49 48 49 49 48 49 49 48 49 49 48 49 49 48 49 49 48 49 49 48 49 49 48 49 49 48 49 49 48 49 49 48 49 49 48 49 49 48 49 49 48 49 49 48 49 49 48 49 49 48 49 49 48 49 49 48 49 49 48 49 49 48 49 49 48 49 49 48 49 49 48 49 49 48 49 49 48 49 49 48 49 140 73 74 140 73 74 140 73 74 140 73 74 140 73 74 140 73 74 140 73 74 140 73 74 140 73 74 140 73 74 140 73 74 140 73 74 140 73 74 140 73 74 140 73 74 140 73 74 140 73 74 140 73 74 140 73 74 140 73 74 140 73 74 140 73 74 140 73 74 140 73 74 140 73 74 140 73 74 140 73 74 140 73 74 140 73 74 140 73 74 140 73 74 140 73 74 140 73 74 140 73 74 140 73 74 140 73 74 140 73 74 140 73 74 140 73 74 140 73 74 140 73 74 140 73 74 140 73 74 140 73 74 140 73 74 140 73 74 140 73 74 140 73 74 140 73 74 140 73 74 140 73 74 140 73 74 140 73 74 140 73 74 140 73 74 140 73 74 140 73 74 140 73 74 140 73 74 140 73 74 140 73 74 140 73 74 140 73 74 140 73 74 140 73 74 140 73 74 49 48 49 49 48 49 49 48 49 49 48 49 49 48 49 49 48 49 49 48 49 49 48 49 49 48 49 49 48 49 49 48 49 49 48 49 49 48 49 49 48 49 49 48 49 49 48 49 49 48 49 49 48 49 49 48 49 49 48 49 49 48 49 49 48 49 49 48 49 49 48 49 49 48 49 49 48 49 49 48 49 49 48 49 49 48 49
49 48 49 49 48 49 49 48 49 49 48 49 49 48 49 49 48 49 49 48 49 49 48 49 49 48 49 49 48 49 49 48 49 49 48 49 49 48 49 49 48 49 49 48 49 49 48 49 49 48 49 49 48 49 49 48 49 49 48 49 49 48 49 49 48 49 49 48 49 49 48 49 49 48 49 49 48 49 49 48 49 49 48 49 49 48 49 49 48 49 49 48 49 49 48 49 49 48 49 140 73 74 140 73 74 140 73 74 140 73 74 140 73 74 140 73 74 140 73 74 140 73 74 140 73 74 140 73 74 140 73 74 140 73 74 140 73 74 140 73 74 140 73 74 140 73 74 140 73 74 140 73 74 140 73 74 140 73 74 140 73 74 140 73 74 140 73 74 140 73 74 140 73 74 140 73 74 140 73 74 140 73 74 140 73 74 140 73 74 140 73 74 140 73 74 140 73 74 140 73 74 140 73 74 140 73 74 140 73 74 140 73 74 140 73 74 140 73 74 140 73 74 140 73 74 140 73 74 140 73 74 140 73 74 140 73 74 140 73 74 140 73 74 140 73 74 140 73 74 140 73 74 140 73 74 140 73 74 140 73 74 140 73 74 140 73 74 140 73 74 140 73 74 140 73 74 140 73 74 140 73 74 140 73 74 140 73 74 140 73 74 140 73 74 140 73 74 49 48 49 49 48 49 49 48 49 49 48 49 49 48 49 49 48 49 49 48 49 49 48 49 49 48 49 49 48 49 49 48 49 49 48 49 49 48 49 49 48 49 49 48 49 49 48 49 49 48 49 49 48 49 49 48 49 49 48 49 49 48 49 49 48 49 49 48 49 49 48 49 49 48 49 49 48 49 49 48 49 49 48 49 49 48 49
49 48 49 49 48 49 49 48 49 49 48 49 49 48 49 49 48 49 49 48 49 49 48 49 49 48 49 49 48 49 49 48 49 49 48 49 49 48 49 49 48 49 49 48 49 49 48 49 49 48 49 49 48 49 49 48 49 49 48 49 49 48 49 49 48 49 49 48 49 49 48 49 49 48 49 49 48 49 49 48 49 49 48 49 49 48 49 49 48 49 49 48 49 49 48 49 49 48 49 140 73 74 140 73 74 140 73 74 140 73 74 140 73 74 140 73 74 140 73 74 140 73 74 140 73 74 140 73 74 140 73 74 140 73 74 140 73 74 140 73 74 140 73 74 140 73 74 140 73 74 140 73 74 140 73 74 140 73 74 140 73 74 140 73 74 140 73 74 140 73 74 140 73 74 140 73 74 140 73 74 140 73 74 140 73 74 140 73 74 140 73 74 140 73 74 140 73 74 140 73 74 140 73 74 140 73 74 140 73 74 140 73 74 140 73 74 140 73 74 140 73 74 140 73 74 140 73 74 140 73 74 140 73 74 140 73 74 140 73 74 140 73 74 140 73 74 140 73 74 140 73 74 140 73 74 140 73 74 140 73 74 140 73 74 140 73 74 140 73 74 140 73 74 140 73 74 140 73 74 140 73 74 140 73 74 140 73 74 140 73 74 140 73 74 140 73 74 49 48 49 49 48 49 49 48 49 49 48 49 49 48 49 49 48 49 49 48 49 49 48 49 49 48 49 49 48 49 49 48 49 49 48 49 49 48 49 49 48 49 49 48 49 49 48 49 49 48 49 49 48 49 49 48 49 49 48 49 49 48 49 49 48 49 49 48 49 49 48 49 49 48 49 49 48 49 49 48 49 49 48 49 49 48 49
49 48 49 49 48 49 49 48 49 49 48 49 49 48 49 49 48 49 49 48 49 49 48 49 49 48 49 49 48 49 49 48 49 49 48 49 49 48 49 49 48 49 49 48 49 49 48 49 49 48 49 49 48 49 49 48 49 49 48 49 49 48 49 49 48 49 49 48 49 49 48 49 49 48 49 49 48 49 49 48 49 49 48 49 49 48 49 49 48 49 49 48 49 49 48 49 49 48 49 140 73 74 140 73 74 140 73 74 140 73 74 140 73 74 140 73 74 140 73 74 140 73 74 140 73 74 140 73 74 140 73 74 140 73 74 140 73 74 140 73 74 140 73 74 140 73 74 140 73 74 140 73 74 140 73 74 140 73 74 140 73 74 140 73 74 140 73 74 140 73 74 140 73 74 140 73 74 140 73 74 140 73 74 140 73 74 140 73 74 140 73 74 140 73 74 140 73 74 140 73 74 140 73 74 140 73 74 140 73 74 140 73 74 140 73 74 140 73 74 140 73 74 140 73 74 140 73 74 140 73 74 140 73 74 140 73 74 140 73 74 140 73 74 140 73 74 140 73 74 140 73 74 140 73 74 140 73 74 140 73 74 140 73 74 140 73 74 140 73 74 140 73 74 140 73 74 140 73 74 140 73 74 140 73 74 140 73 74 140 73 74 140 73 74 140 73 74 49 48 49 49 48 49 49 48 49 49 48 49 49 48 49 49 48 49 49 48 49 49 48 49 49 48 49 49 48 49 49 48 49 49 48 49 49 48 49 49 48 49 49 48 49 49 48 49 49 48 49 49 48 49 49 48 49 49 48 49 49 48 49 49 48 49 49 48 49 49 48 49 49 48 49 49 48 49 49 48 49 49 48 49 49 48 49
49 48 49 49 48 49 49 48 49 49 48 49 49 48 49 49 48 49 49 48 49 49 48 49 49 48 49 49 48 49 49 48 49 49 48 49 49 48 49 49 48 49 49 48 49 49 48 49 49 48 49 49 48 49 49 48 49 49 48 49 49 48 49 49 48 49 49 48 49 49 48 49 49 48 49 49 48 49 49 48 49 49 48 49 49 48 49 49 48 49 49 48 49 49 48 49 49 48 49 140 73 74 140 73 74 140 73 74 140 73 74 140 73 74 140 73 74 140 73 74 140 73 74 140 73 74 140 73 74 140 73 74 140 73 74 140 73 74 140 73 74 140 73 74 140 73 74 140 73 74 140 73 74 140 73 74 140 73 74 140 73 74 140 73 74 140 73 74 140 73 74 140 73 74 140 73 74 140 73 74 140 73 74 140 73 74 140 73 74 140 73 74 140 73 74 140 73 74 140 73 74 140 73 74 140 73 74 140 73 74 140 73 74 140 73 74 140 73 74 140 73 74 140 73 74 140 73 74 140 73 74 140 73 74 140 73 74 140 73 74 140 73 74 140 73 74 140 73 74 140 73 74 140 73 74 140 73 74 140 73 74 140 73 74 140 73 74 140 73 74 140 73 74 140 73 74 140 73 74 140 73 74 140 73 74 140 73 74 140 73 74 140 73 74 49 48 49 49 48 49 49 48 49 49 48 49 49 48 49 49 48 49 49 48 49 49 48 49 49 48 49 49 48 49 49 48 49 49 48 49 49 48 49 49 48 49 49 48 49 49 48 49 49 48 49 49 48 49 49 48 49 49 48 49 49 48 49 49 48 49 49 48 49 49 48 49 49 48 49 49 48 49 49 48 49 49 48 49 49 48 49 49 48 49
49 48 49 49 48 49 49 48 49 49 48 49 49 48 49 49 48 49 49 48 49 49 48 49 49 48 49 49 48 49 49 48 49 49 48 49 49 48 49 49 48 49 49 48 49 49 48 49 49 48 49 49 48 49 49 48 49 49 48 49 49 48 49 49 48 49 49 48 49 49 48 49 49 48 49 49 48 49 49 48 49 49 48 49 49 48 49 49 48 49 49 48 49 49 48 49 49 48 49 140 73 74 140 73 74 140 73 74 140 73 74 140 73 74 140 73 74 140 73 74 140 73 74 140 73 74 140 73 74 140 73 74 140 73 74 140 73 74 140 73 74 140 73 74 140 73 74 140 73 74 140 73 74 140 73 74 140 73 74 140 73 74 140 73 74 140 73 74 140 73 74 140 73 74 140 73 74 140 73 74 140 73 74 140 73 74 140 73 74 140 73 74 140 73 74 140 73 74 140 73 74 140 73 74 140 73 74 140 73 74 140 73 74 140 73 74 140 73 74 140 73 74 140 73 74 140 73 74 140 73 74 140 73 74 140 73 74 140 73 74 140 73 74 140 73 74 140 73 74 140 73 74 140 73 74 140 73 74 140 73 74 140 73 74 140 73 74 140 73 74 140 73 74 140 73 74 140 73 74 140 73 74 140 73 74 140 73 74 140 73 74 140 73 74 49 48 49 49 48 49 49 48 49 49 48 49 49 48 49 49 48 49 49 48 49 49 48 49 49 48 49 49 48 49 49 48 49 49 48 49 49 48 49 49 48 49 49 48 49 49 48 49 49 48 49 49 48 49 49 48 49 49 48 49 49 48 49 49 48 49 49 48 49 49 48 49 49 48 49 49 48 49 49 48 49 49 48 49 49 48 49 49 48 49
49 48 49 49 48 49 49 48 49 49 48 49 49 48 49 49 48 49 49 48 49 49 48 49 49 48 49 49 48 49 49 48 49 49 48 49 49 48 49 49 48 49 49 48 49 49 48 49 49 48 49 49 48 49 49 48 49 49 48 49 49 48 49 49 48 49 49 48 49 49 48 49 49 48 49 49 48 49 49 48 49 49 48 49 49 48 49 49 48 49 49 48 49 49 48 49 49 48 49 140 73 74 140 73 74 140 73 74 140 73 74 140 73 74 140 73 74 140 73 74 140 73 74 140 73 74 140 73 74 140 73 74 140 73 74 140 73 74 140 73 74 140 73 74 140 73 74 140 73 74 140 73 74 140 73 74 140 73 74 140 73 74 140 73 74 140 73 74 140 73 74 140 73 74 140 73 74 140 73 74 140 73 74 140 73 74 140 73 74 140 73 74 140 73 74 140 73 74 123 73 74 132 73 74 132 73 74 148 73 74 140 73 74 132 73 74 132 73 74 132 73 74 132 73 74 132 73 74 132 73 74 132 73 74 123 73 74 123 73 74 123 73 74 123 69 74 123 69 74 123 69 66 123 69 66 123 69 66 123 69 66 123 69 66 41 60 66 41 60 66 41 60 57 41 60 57 57 60 57 132 73 74 140 73 74 140 73 74 140 73 74 140 73 74 49 48 49 49 48 49 49 48 49 49 48 49 49 48 49 49 48 49 49 48 49 49 48 49 49 48 49 49 48 49 49 48 49 49 48 49 49 48 49 49 48 49 49 48 49 49 48 49 49 48 49 49 48 49 49 48 49 49 48 49 49 48 49 49 48 49 49 48 49 49 48 49 49 48 49 49 48 49 49 48 49 49 48 49 49 48 49 49 48 49
49 48 49 49 48 49 49 48 49 49 48 49 49 48 49 49 48 49 49 48 49 49 48 49 49 48 49 49 48 49 49 48 49 49 48 49 49 48 49 49 48 49 49 48 49 49 48 49 49 48 49 49 48 49 49 48 49 49 48 49 49 48 49 49 48 49 49 48 49 49 48 49 49 48 49 49 48 49 49 48 49 49 48 49 49 48 49 49 48 49 49 48 49 49 48 49 49 48 49 140 73 74 140 73 74 140 73 74 140 73 74 140 73 74 140 73 74 140 73 74 123 69 74 123 69 74 123 69 74 123 69 74 123 69 74 123 69 74 123 69 74 123 69 74 123 69 74 123 69 74 123 69 74 123 69 74 123 69 74 123 69 74 123 69 74 123 69 74 123 69 74 123 69 74 123 69 74 123 73 74 123 73 74 123 73 74 24 65 66 16 65 66 16 60 66 16 60 66 16 60 57 16 60 57 16 60 57 132 73 74 123 77 74 99 73 74 90 73 74 90 73 74 90 73 74 82 69 74 74 69 74 74 69 66 66 69 66 66 69 66 57 69 66 57 65 66 57 65 66 49 65 66 49 65 66 49 65 66 49 65 66 41 65 66 41 60 66 41 60 66 41 60 57 41 60 57 41 60 57 123 69 66 140 73 74 140 73 74 140 73 74 140 73 74 49 48 49 49 48 49 49 48 49 49 48 49 49 48 49 49 48 49 49 48 49 49 48 49 49 48 49 49 48 49 49 48 49 49 48 49 49 48 49 49 48 49 49 48 49 49 48 49 49 48 49 49 48 49 49 48 49 49 48 49 49 48 49 49 48 49 49 48 49 49 48 49 49 48 49 49 48 49 49 48 49 49 48 49 49 48 49 49 48 49
49 48 49 49 48 49 49 48 49 49 48 49 49 48 49 49 48 49 49 48 49 49 48 49 49 48 49 49 48 49 49 48 49 49 48 49 49 48 49 49 48 49 49 48 49 49 48 49 49 48 49 49 48 49 49 48 49 49 48 49 49 48 49 49 48 49 49 48 49 49 48 49 49 48 49 49 48 49 49 48 49 49 48 49 49 48 49 49 48 49 49 48 49 49 48 49 49 48 49 49 48 49 140 73 74 140 73 74 140 73 74 140 73 74 132 73 74 41 69 66 24 69 66 24 69 66 24 69 66 24 69 66 24 69 66 24 69 66 24 69 66 24 69 66 24 69 66 24 69 66 24 69 66 24 69 66 24 69 66 24 69 66 24 65 66 24 65 66 24 65 66 24 65 66 24 65 66 24 65 66 24 65 66 24 65 66 24 65 66 16 65 66 16 60 66 16 60 66 16 60 57 16 60 57 16 60 57 16 56 57 156 77 74 123 77 74 107 73 74 99 73 74 99 73 74 90 73 74 82 69 74 82 69 74 74 69 66 66 69 66 66 69 66 57 69 66 57 65 66 57 65 66 49 65 66 49 65 66 49 65 66 41 65 66 41 60 66 41 60 66 41 60 57 41 60 57 41 60 57 123 69 66 140 73 74 140 73 74 140 73 74 140 73 74 49 48 49 49 48 49 49 48 49 49 48 49 49 48 49 49 48 49 49 48 49 49 48 49 49 48 49 49 48 49 49 48 49 49 48 49 49 48 49 49 48 49 49 48 49 49 48 49 49 48 49 49 48 49 49 48 49 49 48 49 49 48 49 49 48 49 49 48 49 49 48 49 49 48 49 49 48 49 49 48 49 49 48 49 49 48 49 49 48 49
49 48 49 49 48 49 49 48 49 49 48 49 49 48 49 49 48 49 49 48 49 49 48 49 49 48 49 49 48 49 49 48 49 49 48 49 49 48 49 49 48 49 49 48 49 49 48 49 49 48 49 49 48 49 49 48 49 49 48 49 49 48 49 49 48 49 49 48 49 49 48 49 49 48 49 49 48 49 49 48 49 49 48 49 49 48 49 49 48 49 49 48 49 49 48 49 49 48 49 49 48 49 140 73 74 140 73 74 140 73 74 140 73 74 123 69 74 24 69 66 24 69 66 24 69 66 24 69 66 24 69 66 24 69 66 24 69 66 24 69 66 24 69 66 24 69 66 24 69 66 24 69 66 24 69 66 24 69 66 24 69 66 24 65 66 24 65 66 24 65 66 24 65 66 24 65 66 24 65 66 24 65 66 24 65 66 24 65 66 16 65 66 16 60 66 16 60 66 16 60 57 16 60 57 16 60 57 16 56 57 49 60 57 173 81 82 115 73 74 107 73 74 107 73 74 99 73 74 99 73 74 90 73 74 82 69 74 82 69 66 74 69 66 74 69 66 82 69 66 66 65 66 49 65 66 49 65 66 49 65 66 41 65 66 41 60 66 41 60 66 41 60 57 41 60 57 41 60 57 123 69 66 140 73 74 140 73 74 140 73 74 140 73 74 49 48 49 49 48 49 49 48 49 49 48 49 49 48 49 49 48 49 49 48 49 49 48 49 49 48 49 49 48 49 49 48 49 49 48 49 49 48 49 49 48 49 49 48 49 49 48 49 49 48 49 49 48 49 49 48 49 49 48 49 49 48 49 49 48 49 49 48 49 49 48 49 49 48 49 49 48 49 49 48 49 49 48 49 49 48 49 49 48 49
49 48 49 49 48 49 49 48 49 49 48 49 49 48 49 49 48 49 49 48 49 49 48 49 49 48 49 49 48 49 49 48 49 49 48 49 49 48 49 49 48 49 49 48 49 49 48 49 49 48 49 49 48 49 49 48 49 49 48 49 49 48 49 49 48 49 49 48 49 49 48 49 49 48 49 49 48 49 49 48 49 49 48 49 49 48 49 49 48 49 49 48 49 49 48 49 49 48 49 49 48 49 140 73 74 140 73 74 140 73 74 140 73 74 123 69 74 24 69 66 24 69 66 24 69 66 24 69 66 24 69 66 24 69 66 24 69 66 24 69 66 24 69 66 24 69 66 24 69 66 24 69 66 24 69 66 24 69 66 24 69 66 24 65 66 24 65 66 24 65 66 24 65 66 24 65 66 24 65 66 24 65 66 24 65 66 24 65 66 16 65 66 16 60 66 16 60 66 16 60 57 16 60 57 16 60 57 16 56 57 8 56 57 16 52 57 173 81 82 140 77 74 123 77 74 115 73 74 107 73 74 99 73 74 115 73 74 156 81 82 181 85 82 198 85 82 198 85 82 189 85 82 181 85 82 148 77 74 82 69 66 41 65 66 41 60 66 41 60 66 41 60 57 41 60 57 41 60 57 123 69 66 140 73 74 140 73 74 140 73 74 140 73 74 49 48 49 49 48 49 49 48 49 49 48 49 49 48 49 49 48 49 49 48 49 49 48 49 49 48 49 49 48 49 49 48 49 49 48 49 49 48 49 49 48 49 49 48 49 49 48 49 49 48 49 49 48 49 49 48 49 49 48 49 49 48 49 49 48 49 49 48 49 49 48 49 49 48 49 49 48 49 49 48 49 49 48 49 49 48 49 49 48 49
49 48 49 49 48 49 49 48 49 49 48 49 49 48 49 49 48 49 49 48 49 49 48 49 49 48 49 49 48 49 49 48 49 49 48 49 49 48 49 49 48 49 49 48 49 49 48 49 49 48 49 49 48 49 49 48 49 49 48 49 49 48 49 49 48 49 49 48 49 49 48 49 49 48 49 49 48 49 49 48 49 49 48 49 49 48 49 49 48 49 49 48 49 49 48 49 49 48 49 49 48 49 140 73 74 140 73 74 140 73 74 140 73 74 123 69 74 24 69 66 24 69 66 24 69 66 24 69 66 24 69 66 24 69 66 24 69 66 24 69 66 24 69 66 24 69 66 24 69 66 24 69 66 24 69 66 24 69 66 24 69 66 24 65 66 24 65 66 24 65 66 24 65 66 24 65 66 24 65 66 24 65 66 24 65 66 24 65 66 16 65 66 16 60 66 16 60 66 16 60 57 16 60 57 16 60 57 16 56 57 8 56 57 8 52 57 115 69 66 173 81 82 132 77 74 123 77 74 115 73 74 156 81 82 189 85 82 198 85 82 198 85 82 198 85 82 189 85 82 189 85 82 198 85 82 198 85 82 189 85 82 198 85 82 156 77 74 41 60 66 41 60 57 41 60 57 41 60 57 123 69 66 140 73 74 140 73 74 140 73 74 49 48 49 49 48 49 49 48 49 49 48 49 49 48 49 49 48 49 49 48 49 49 48 49 49 48 49 49 48 49 49 48 49 49 48 49 49 48 49 49 48 49 49 48 49 49 48 49 49 48 49 49 48 49 49 48 49 49 48 49 49 48 49 49 48 49 49 48 49 49 48 49 49 48 49 49 48 49 49 48 49 49 48 49 49 48 49 49 48 49 49 48 49
49 48 49 49 48 49 49 48 49 49 48 49 49 48 49 49 48 49 49 48 49 49 48 49 49 48 49 49 48 49 49 48 49 49 48 49 49 48 49 49 48 49 49 48 49 49 48 49 49 48 49 49 48 49 49 48 49 49 48 49 49 48 49 49 48 49 49 48 49 49 48 49 49 48 49 49 48 49 49 48 49 49 48 49 49 48 49 49 48 49 49 48 49 49 48 49 49 48 49 49 48 49 140 73 74 140 73 74 140 73 74 140 73 74 123 69 74 24 69 66 24 69 66 24 69 66 24 69 66 24 69 66 24 69 66 24 69 66 24 69 66 24 69 66 24 69 66 24 69 66 24 69 66 24 69 66 24 69 66 24 69 66 24 65 66 24 65 66 24 65 66 24 65 66 24 65 66 24 65 66 24 65 66 24 65 66 24 65 66 16 65 66 16 60 66 16 60 66 16 60 57 16 60 57 16 60 57 16 56 57 8 56 57 8 52 57 33 52 57 189 85 82 140 77 74 132 77 74 173 81 82 198 85 82 198 85 82 173 81 82 123 73 74 82 69 66 66 69 66 66 65 66 57 65 66 57 65 66 115 73 74 189 85 82 165 81 82 41 60 66 41 60 57 41 60 57 41 60 57 140 73 74 140 73 74 140 73 74 140 73 74 49 48 49 49 48 49 49 48 49 49 48 49 49 48 49 49 48 49 49 48 49 49 48 49 49 48 49 49 48 49 49 48 49 49 48 49 49 48 49 49 48 49 49 48 49 49 48 49 49 48 49 49 48 49 49 48 49 49 48 49 49 48 49 49 48 49 49 48 49 49 48 49 49 48 49 49 48 49 49 48 49 49 48 49 49 48 49 49 48 49 49 48 49
49 48 49 49 48 49 49 48 49 49 48 49 49 48 49 49 48 49 49 48 49 49 48 49 49 48 49 49 48 49 49 48 49 49 48 49 49 48 49 49 48 49 49 48 49 49 48 49 49 48 49 49 48 49 49 48 49 49 48 49 49 48 49 49 48 49 49 48 49 49 48 49 49 48 49 49 48 49 49 48 49 49 48 49 49 48 49 49 48 49 49 48 49 49 48 49 49 48 49 49 48 49 140 73 74 140 73 74 140 73 74 140 73 74 123 69 74 24 69 66 24 69 66 24 69 66 24 69 66 24 69 66 24 69 66 24 69 66 24 69 66 24 69 66 24 69 66 24 69 66 24 69 66 24 69 66 24 69 66 24 69 66 24 65 66 24 65 66 24 65 66 24 65 66 24 65 66 24 65 66 24 65 66 24 65 66 24 65 66 16 65 66 16 60 66 16 60 66 16 60 57 16 60 57 16 60 57 16 56 57 8 56 57 8 52 57 8 52 49 156 77 74 165 81 82 173 81 82 198 85 82 189 85 82 115 73 74 99 73 74 90 69 74 82 69 66 74 69 66 66 65 66 57 65 66 57 65 66 49 65 66 107 69 74 165 81 82 41 60 66 41 60 57 41 60 57 123 69 66 140 73 74 140 73 74 140 73 74 140 73 74 49 48 49 49 48 49 49 48 49 49 48 49 49 48 49 49 48 49 49 48 49 49 48 49 49 48 49 49 48 49 49 48 49 49 48 49 49 48 49 49 48 49 49 48 49 49 48 49 49 48 49 49 48 49 49 48 49 49 48 49 49 48 49 49 48 49 49 48 49 49 48 49 49 48 49 49 48 49 49 48 49 49 48 49 49 48 49 49 48 49 49 48 49
49 48 49 49 48 49 49 48 49 49 48 49 49 48 49 49 48 49 49 48 49 49 48 49 49 48 49 49 48 49 49 48 49 49 48 49 49 48 49 49 48 49 49 48 49 49 48 49 49 48 49 49 48 49 49 48 49 49 48 49 49 48 49 49 48 49 49 48 49 49 48 49 49 48 49 49 48 49 49 48 49 49 48 49 49 48 49 49 48 49 49 48 49 49 48 49 49 48 49 49 48 49 140 73 74 140 73 74 140 73 74 140 73 74 123 69 74 24 69 66 24 69 66 24 69 66 24 69 66 24 69 66 24 69 66 24 69 66 24 69 66 24 69 66 24 69 66 24 69 66 24 69 66 24 69 66 24 69 66 24 69 66 24 65 66 24 65 66 24 65 66 24 65 66 24 65 66 24 65 66 24 65 66 24 65 66 24 65 66 16 65 66 16 60 66 16 60 66 16 60 57 16 60 57 16 60 57 16 56 57 8 56 57 8 52 57 8 52 49 82 60 57 198 85 82 198 85 82 173 81 82 123 77 74 115 73 74 107 73 74 90 69 74 82 69 66 74 69 66 66 65 66 57 65 66 57 65 66 49 65 66 41 65 66 41 60 66 41 60 57 41 60 57 41 60 57 123 69 66 140 73 74 140 73 74 140 73 74 140 73 74 49 48 49 49 48 49 49 48 49 49 48 49 49 48 49 49 48 49 49 48 49 49 48 49 49 48 49 49 48 49 49 48 49 49 48 49 49 48 49 49 48 49 49 48 49 49 48 49 49 48 49 49 48 49 49 48 49 49 48 49 49 48 49 49 48 49 49 48 49 49 48 49 49 48 49 49 48 49 49 48 49 49 48 49 49 48 49 49 48 49 49 48 49
49 48 49 49 48 49 49 48 49 49 48 49 49 48 49 49 48 49 49 48 49 49 48 49 49 48 49 49 48 49 49 48 49 49 48 49 49 48 49 49 48 49 49 48 49 49 48 49 49 48 49 49 48 49 49 48 49 49 48 49 49 48 49 49 48 49 49 48 49 49 48 49 49 48 49 49 48 49 49 48 49 49 48 49 49 48 49 49 48 49 49 48 49 49 48 49 49 48 49 49 48 49 140 73 74 140 73 74 140 73 74 140 73 74 123 69 74 24 69 66 24 69 66 24 69 66 24 69 66 24 69 66 24 69 66 24 69 66 24 69 66 24 69 66 24 69 66 24 69 66 24 69 66 24 69 66 24 69 66 24 69 66 24 65 66 24 65 66 24 65 66 24 65 66 24 65 66 24 65 66 24 65 66 24 65 66 24 65 66 16 65 66 16 60 66 16 60 66 16 60 57 16 60 57 132 73 74 123 73 74 57 60 57 8 52 57 8 52 49 33 52 49 189 85 82 198 85 82 148 77 82 132 77 74 115 73 74 107 73 74 99 73 74 90 69 66 74 69 66 66 69 66 57 65 66 57 65 66 41 65 66 41 60 66 41 60 66 41 60 57 41 60 57 41 60 57 123 69 66 140 73 74 140 73 74 140 73 74 140 73 74 49 48 49 49 48 49 49 48 49 49 48 49 49 48 49 49 48 49 49 48 49 49 48 49 49 48 49 49 48 49 49 48 49 49 48 49 49 48 49 49 48 49 49 48 49 49 48 49 49 48 49 49 48 49 49 48 49 49 48 49 49 48 49 49 48 49 49 48 49 49 48 49 49 48 49 49 48 49 49 48 49 49 48 49 49 48 49 49 48 49 49 48 49
49 48 49 49 48 49 49 48 49 49 48 49 49 48 49 49 48 49 49 48 49 49 48 49 49 48 49 49 48 49 49 48 49 49 48 49 49 48 49 49 48 49 49 48 49 49 48 49 49 48 49 49 48 49 49 48 49 49 48 49 49 48 49 49 48 49 49 48 49 49 48 49 49 48 49 49 48 49 49 48 49 49 48 49 49 48 49 49 48 49 49 48 49 49 48 49 49 48 49 49 48 49 49 48 49 140 73 74 140 73 74 140 73 74 140 73 74 123 69 74 24 69 66 24 69 66 24 69 66 24 69 66 99 73 74 24 69 66 24 69 66 24 69 66 99 73 74 24 69 66 49 69 66 90 73 74 24 69 66 24 69 66 57 69 66 49 69 66 24 65 66 82 69 74 49 69 66 24 65 66 24 65 66 24 65 66 49 65 66 132 73 74 16 60 66 16 60 66 16 60 57 99 69 66 115 69 74 74 65 66 148 77 74 8 52 57 8 52 49 0 48 49 189 85 82 189 85 82 140 77 74 132 77 74 123 73 74 107 73 74 99 73 74 90 69 74 82 69 66 74 69 66 57 65 66 49 65 66 41 65 66 41 60 66 41 60 66 41 60 57 41 60 57 41 60 57 123 69 66 140 73 74 140 73 74 140 73 74 140 73 74 49 48 49 49 48 49 49 48 49 49 48 49 49 48 49 49 48 49 49 48 49 49 48 49 49 48 49 49 48 49 49 48 49 49 48 49 49 48 49 49 48 49 49 48 49 49 48 49 49 48 49 49 48 49 49 48 49 49 48 49 49 48 49 49 48 49 49 48 49 49 48 49 49 48 49 49 48 49 49 48 49 49 48 49 49 48 49 49 48 49 49 48 49
49 48 49 49 48 49 49 48 49 49 48 49 49 48 49 49 48 49 49 48 49 49 48 49 49 48 49 49 48 49 49 48 49 49 48 49 49 48 49 49 48 49 49 48 49 49 48 49 49 48 49 49 48 49 49 48 49 49 48 49 49 48 49 49 48 49 49 48 49 49 48 49 49 48 49 49 48 49 49 48 49 49 48 49 49 48 49 49 48 49 49 48 49 49 48 49 49 48 49 49 48 49 49 48 49 140 73 74 140 73 74 140 73 74 140 73 74 123 69 74 24 69 66 24 69 66 24 69 66 24 69 66 140 77 74 24 69 66 24 69 66 24 69 66 24 69 66 148 77 74 24 69 66 74 69 74 132 77 74 24 69 66 90 73 74 165 81 82 33 65 66 123 77 74 74 69 66 24 65 66 24 65 66 24 65 66 148 77 74 148 77 74 24 60 66 16 60 66 16 60 57 99 69 66 123 73 74 123 73 74 132 73 74 8 52 57 8 52 49 0 48 49 181 81 82 189 85 82 140 77 74 132 77 74 123 73 74 107 73 74 99 73 74 90 69 74 74 69 66 57 65 66 57 65 66 49 65 66 41 65 66 41 60 66 41 60 66 41 60 57 41 60 57 41 60 57 123 69 66 140 73 74 140 73 74 140 73 74 140 73 74 49 48 49 49 48 49 49 48 49 49 48 49 49 48 49 49 48 49 49 48 49 49 48 49 49 48 49 49 48 49 49 48 49 49 48 49 49 48 49 49 48 49 49 48 49 49 48 49 49 48 49 49 48 49 49 48 49 49 48 49 49 48 49 49 48 49 49 48 49 49 48 49 49 48 49 49 48 49 49 48 49 49 48 49 49 48 49 49 48 49 49 48 49
49 48 49 49 48 49 49 48 49 49 48 49 49 48 49 49 48 49 49 48 49 49 48 49 49 48 49 49 48 49 49 48 49 49 48 49 49 48 49 49 48 49 49 48 49 49 48 49 49 48 49 49 48 49 49 48 49 49 48 49 49 48 49 49 48 49 49 48 49 49 48 49 49 48 49 49 48 49 49 48 49 49 48 49 49 48 49 49 48 49 49 48 49 49 48 49 49 48 49 49 48 49 49 48 49 140 73 74 140 73 74 140 73 74 140 73 74 123 69 74 24 69 66 24 69 66 24 69 66 24 69 66 140 77 74 24 69 66 24 69 66 24 69 66 24 69 66 148 77 74 24 69 66 74 69 74 132 77 74 24 69 66 24 69 66 115 73 74 99 73 74 173 81 82 74 69 66 24 65 66 24 65 66 99 69 74 115 73 74 115 73 74 107 69 74 16 60 66 16 60 57 99 69 66 115 69 66 156 77 74 49 60 57 24 56 57 8 52 49 16 52 49 189 85 82 198 85 82 148 77 74 132 77 74 123 73 74 107 73 74 99 73 74 82 69 66 74 69 66 57 65 66 57 65 66 90 69 66 115 73 74 99 69 66 41 60 66 41 60 57 41 60 57 41 60 57 123 69 66 140 73 74 140 73 74 140 73 74 140 73 74 49 48 49 49 48 49 49 48 49 49 48 49 49 48 49 49 48 49 49 48 49 49 48 49 49 48 49 49 48 49 49 48 49 49 48 49 49 48 49 49 48 49 49 48 49 49 48 49 49 48 49 49 48 49 49 48 49 49 48 49 49 48 49 49 48 49 49 48 49 49 48 49 49 48 49 49 48 49 49 48 49 49 48 49 49 48 49 49 48 49 49 48 49
49 48 49 49 48 49 49 48 49 49 48 49 49 48 49 49 48 49 49 48 49 49 48 49 49 48 49 49 48 49 49 48 49 49 48 49 49 48 49 49 48 49 49 48 49 49 48 49 49 48 49 49 48 49 49 48 49 49 48 49 49 48 49 49 48 49 49 48 49 49 48 49 49 48 49 49 48 49 49 48 49 49 48 49 49 48 49 49 48 49 49 48 49 49 48 49 49 48 49 49 48 49 49 48 49 140 73 74 140 73 74 140 73 74 140 73 74 123 69 74 24 69 66 24 69 66 24 69 66 24 69 66 140 77 74 24 69 66 24 69 66 24 69 66 24 69 66 115 73 74 148 77 82 148 77 82 66 69 66 24 69 66 24 69 66 90 73 74 24 65 66 115 73 74 74 69 66 24 65 66 24 65 66 140 77 74 41 65 66 33 65 66 140 77 74 16 60 66 16 60 57 16 60 57 16 60 57 16 56 57 8 56 57 8 52 57 8 52 49 57 56 57 198 85 82 198 85 82 165 81 82 132 77 74 115 73 74 99 73 74 90 69 66 74 69 66 66 69 66 57 65 66 57 65 66 140 77 74 198 85 82 165 81 82 41 60 66 41 60 57 41 60 57 41 60 57 123 69 66 140 73 74 140 73 74 140 73 74 49 48 49 49 48 49 49 48 49 49 48 49 49 48 49 49 48 49 49 48 49 49 48 49 49 48 49 49 48 49 49 48 49 49 48 49 49 48 49 49 48 49 49 48 49 49 48 49 49 48 49 49 48 49 49 48 49 49 48 49 49 48 49 49 48 49 49 48 49 49 48 49 49 48 49 49 48 49 49 48 49 49 48 49 49 48 49 49 48 49 49 48 49 49 48 49
49 48 49 49 48 49 49 48 49 49 48 49 49 48 49 49 48 49 49 48 49 49 48 49 49 48 49 49 48 49 49 48 49 49 48 49 49 48 49 49 48 49 49 48 49 49 48 49 49 48 49 49 48 49 49 48 49 49 48 49 49 48 49 49 48 49 49 48 49 49 48 49 49 48 49 49 48 49 49 48 49 49 48 49 49 48 49 49 48 49 49 48 49 49 48 49 49 48 49 49 48 49 49 48 49 140 73 74 140 73 74 140 73 74 140 73 74 123 69 74 24 69 66 24 69 66 24 69 66 24 69 66 24 69 66 24 69 66 24 69 66 24 69 66 24 69 66 24 69 66 24 69 66 24 69 66 24 69 66 24 69 66 24 69 66 24 65 66 24 65 66 24 65 66 24 65 66 24 65 66 24 65 66 24 65 66 24 65 66 16 65 66 16 60 66 16 60 66 16 60 57 16 60 57 16 60 57 16 56 57 8 56 57 8 52 57 8 52 49 107 65 66 198 85 82 198 85 82 189 85 82 132 77 74 99 73 74 90 69 74 82 69 66 74 69 66 66 65 66 57 65 66 57 65 66 140 77 74 198 85 82 165 81 82 41 60 66 41 60 57 41 60 57 41 60 57 123 69 66 140 73 74 140 73 74 140 73 74 49 48 49 49 48 49 49 48 49 49 48 49 49 48 49 49 48 49 49 48 49 49 48 49 49 48 49 49 48 49 49 48 49 49 48 49 49 48 49 49 48 49 49 48 49 49 48 49 49 48 49 49 48 49 49 48 49 49 48 49 49 48 49 49 48 49 49 48 49 49 48 49 49 48 49 49 48 49 49 48 49 49 48 49 49 48 49 49 48 49 49 48 49 49 48 49
49 48 49 49 48 49 49 48 49 49 48 49 49 48 49 49 48 49 49 48 49 49 48 49 49 48 49 49 48 49 49 48 49 49 48 49 49 48 49 49 48 49 49 48 49 49 48 49 49 48 49 49 48 49 49 48 49 49 48 49 49 48 49 49 48 49 49 48 49 49 48 49 49 48 49 49 48 49 49 48 49 49 48 49 49 48 49 49 48 49 49 48 49 49 48 49 49 48 49 49 48 49 49 48 49 140 73 74 140 73 74 140 73 74 140 73 74 123 69 74 24 69 66 24 69 66 24 69 66 24 69 66 24 69 66 24 69 66 24 69 66 24 69 66 24 69 66 24 69 66 24 69 66 24 69 66 24 69 66 24 69 66 24 69 66 24 65 66 24 65 66 24 65 66 24 65 66 24 65 66 24 65 66 24 65 66 24 65 66 16 65 66 16 60 66 16 60 66 16 60 57 16 60 57 16 60 57 16 56 57 8 56 57 8 52 57 8 52 49 173 81 82 156 81 82 148 77 82 189 85 82 181 85 82 132 77 74 90 69 74 82 69 66 74 69 66 66 65 66 57 65 66 107 73 74 181 85 82 198 85 82 165 81 82 41 60 66 41 60 57 41 60 57 123 69 66 140 73 74 140 73 74 140 73 74 140 73 74 49 48 49 49 48 49 49 48 49 49 48 49 49 48 49 49 48 49 49 48 49 49 48 49 49 48 49 49 48 49 49 48 49 49 48 49 49 48 49 49 48 49 49 48 49 49 48 49 49 48 49 49 48 49 49 48 49 49 48 49 49 48 49 49 48 49 49 48 49 49 48 49 49 48 49 49 48 49 49 48 49 49 48 49 49 48 49 49 48 49 49 48 49 49 48 49
49 48 49 49 48 49 49 48 49 49 48 49 49 48 49 49 48 49 49 48 49 49 48 49 49 48 49 49 48 49 49 48 49 49 48 49 49 48 49 49 48 49 49 48 49 49 48 49 49 48 49 49 48 49 49 48 49 49 48 49 49 48 49 49 48 49 49 48 49 49 48 49 49 48 49 49 48 49 49 48 49 49 48 49 49 48 49 49 48 49 49 48 49 49 48 49 49 48 49 49 48 49 49 48 49 140 73 74 140 73 74 140 73 74 140 73 74 123 69 74 24 69 66 24 69 66 24 69 66 24 69 66 24 69 66 24 69 66 24 69 66 24 69 66 24 69 66 24 69 66 24 69 66 24 69 66 24 69 66 24 69 66 24 69 66 24 65 66 24 65 66 24 65 66 24 65 66 24 65 66 24 65 66 24 65 66 24 65 66 16 65 66 16 60 66 16 60 66 16 60 57 16 60 57 16 60 57 16 56 57 8 56 57 8 52 57 82 65 66 181 85 82 132 77 74 132 77 74 189 85 82 198 85 82 198 85 82 181 85 82 156 81 82 148 77 74 156 81 82 181 81 82 189 85 82 148 77 74 57 65 66 41 60 66 41 60 66 41 60 57 41 60 57 123 69 66 140 73 74 140 73 74 140 73 74 140 73 74 49 48 49 49 48 49 49 48 49 49 48 49 49 48 49 49 48 49 49 48 49 49 48 49 49 48 49 49 48 49 49 48 49 49 48 49 49 48 49 49 48 49 49 48 49 49 48 49 49 48 49 49 48 49 49 48 49 49 48 49 49 48 49 49 48 49 49 48 49 49 48 49 49 48 49 49 48 49 49 48 49 49 48 49 49 48 49 49 48 49 49 48 49 49 48 49
49 48 49 49 48 49 49 48 49 49 48 49 49 48 49 49 48 49 49 48 49 49 48 49 49 48 49 49 48 49 49 48 49 49 48 49 49 48 49 49 48 49 49 48 49 49 48 49 49 48 49 49 48 49 49 48 49 49 48 49 49 48 49 49 48 49 49 48 49 49 48 49 49 48 49 49 48 49 49 48 49 49 48 49 49 48 49 49 48 49 49 48 49 49 48 49 49 48 49 49 48 49 49 48 49 140 73 74 140 73 74 140 73 74 140 73 74 123 69 74 24 69 66 24 69 66 24 69 66 24 69 66 24 69 66 24 69 66 24 69 66 24 69 66 24 69 66 24 69 66 24 69 66 24 69 66 24 69 66 24 69 66 24 69 66 24 65 66 24 65 66 24 65 66 24 65 66 24 65 66 24 65 66 24 65 66 24 65 66 16 65 66 16 60 66 16 60 66 16 60 57 16 60 57 16 60 57 16 56 57 8 56 57 8 52 57 156 77 74 156 81 82 132 77 74 123 73 74 107 73 74 156 81 82 90 69 74 123 73 74 140 77 74 148 77 74 140 77 74 115 73 74 57 65 66 49 65 66 41 65 66 41 60 66 41 60 57 41 60 57 41 60 57 123 69 66 140 73 74 140 73 74 140 73 74 140 73 74 49 48 49 49 48 49 49 48 49 49 48 49 49 48 49 49 48 49 49 48 49 49 48 49 49 48 49 49 48 49 49 48 49 49 48 49 49 48 49 49 48 49 49 48 49 49 48 49 49 48 49 49 48 49 49 48 49 49 48 49 49 48 49 49 48 49 49 48 49 49 48 49 49 48 49 49 48 49 49 48 49 49 48 49 49 48 49 49 48 49 49 48 49 49 48 49
49 48 49 49 48 49 49 48 49 49 48 49 49 48 49 49 48 49 49 48 49 49 48 49 49 48 49 49 48 49 49 48 49 49 48 49 49 48 49 49 48 49 49 48 49 49 48 49 49 48 49 49 48 49 49 48 49 49 48 49 49 48 49 49 48 49 49 48 49 49 48 49 49 48 49 49 48 49 49 48 49 49 48 49 49 48 49 49 48 49 49 48 49 49 48 49 49 48 49 49 48 49 49 48 49 140 73 74 140 73 74 140 73 74 140 73 74 123 69 74 24 69 66 24 69 66 24 69 66 24 69 66 24 69 66 24 69 66 24 69 66 24 69 66 24 69 66 24 69 66 24 69 66 24 69 66 24 69 66 24 69 66 24 69 66 24 65 66 24 65 66 24 65 66 24 65 66 24 65 66 24 65 66 24 65 66 24 65 66 16 65 66 16 60 66 16 60 66 16 60 57 16 60 57 16 60 57 16 56 57 8 56 57 74 60 57 140 77 74 115 73 74 115 73 74 99 73 74 90 73 74 82 69 74 74 69 66 74 69 66 66 69 66 57 65 66 57 65 66 49 65 66 49 65 66 49 65 66 41 65 66 41 60 66 41 60 57 41 60 57 41 60 57 123 69 66 140 73 74 140 73 74 140 73 74 140 73 74 49 48 49 49 48 49 49 48 49 49 48 49 49 48 49 49 48 49 49 48 49 49 48 49 49 48 49 49 48 49 49 48 49 49 48 49 49 48 49 49 48 49 49 48 49 49 48 49 49 48 49 49 48 49 49 48 49 49 48 49 49 48 49 49 48 49 49 48 49 49 48 49 49 48 49 49 48 49 49 48 49 49 48 49 49 48 49 49 48 49 49 48 49 49 48 49
49 48 49 49 48 49 49 48 49 49 48 49 49 48 49 49 48 49 49 48 49 49 48 49 49 48 49 49 48 49 49 48 49 49 48 49 49 48 49 49 48 49 49 48 49 49 48 49 49 48 49 49 48 49 49 48 49 49 48 49 49 48 49 49 48 49 49 48 49 49 48 49 49 48 49 49 48 49 49 48 49 49 48 49 49 48 49 49 48 49 49 48 49 49 48 49 49 48 49 49 48 49 49 48 49 49 48 49 140 73 74 140 73 74 140 73 74 123 69 74 24 69 66 24 69 66 24 69 66 24 69 66 24 69 66 24 69 66 24 69 66 24 69 66 24 69 66 24 69 66 24 69 66 24 69 66 24 69 66 24 69 66 24 69 66 24 65 66 24 65 66 24 65 66 24 65 66 24 65 66 24 65 66 24 65 66 24 65 66 16 65 66 16 60 66 16 60 66 16 60 57 16 60 57 16 60 57 16 56 57 123 73 74 148 81 82 115 73 74 107 73 74 99 73 74 90 73 74 82 69 74 82 69 74 74 69 66 66 69 66 57 69 66 57 65 66 49 65 66 49 65 66 49 65 66 49 65 66 41 60 66 41 60 66 41 60 57 41 60 57 41 60 57 123 69 66 140 73 74 140 73 74 140 73 74 140 73 74 49 48 49 49 48 49 49 48 49 49 48 49 49 48 49 49 48 49 49 48 49 49 48 49 49 48 49 49 48 49 49 48 49 49 48 49 49 48 49 49 48 49 49 48 49 49 48 49 49 48 49 49 48 49 49 48 49 49 48 49 49 48 49 49 48 49 49 48 49 49 48 49 49 48 49 49 48 49 49 48 49 49 48 49 49 48 49 49 48 49 49 48 49 49 48 49
49 48 49 49 48 49 49 48 49 49 48 49 49 48 49 49 48 49 49 48 49 49 48 49 49 48 49 49 48 49 49 48 49 49 48 49 49 48 49 49 48 49 49 48 49 49 48 49 49 48 49 49 48 49 49 48 49 49 48 49 49 48 49 49 48 49 49 48 49 49 48 49 49 48 49 49 48 49 49 48 49 49 48 49 49 48 49 49 48 49 49 48 49 49 48 49 49 48 49 49 48 49 49 48 49 49 48 49 140 73 74 140 73 74 140 73 74 140 73 74 123 69 74 24 69 66 24 69 66 24 69 66 24 69 66 24 69 66 24 69 66 24 69 66 24 69 66 24 69 66 24 69 66 24 69 66 24 69 66 24 69 66 24 69 66 24 65 66 24 65 66 24 65 66 24 65 66 24 65 66 24 65 66 24 65 66 24 65 66 16 65 66 16 60 66 16 60 66 16 60 57 16 60 57 16 60 57 90 65 66 156 81 82 107 73 74 99 73 74 99 73 74 90 73 74 82 69 74 107 69 74 99 69 74 99 69 66 99 69 66 99 69 66 99 69 66 90 69 66 90 69 66 90 69 66 90 65 66 90 65 66 90 65 66 90 65 66 90 65 66 107 69 66 140 73 74 140 73 74 140 73 74 140 73 74 49 48 49 49 48 49 49 48 49 49 48 49 49 48 49 49 48 49 49 48 49 49 48 49 49 48 49 49 48 49 49 48 49 49 48 49 49 48 49 49 48 49 49 48 49 49 48 49 49 48 49 49 48 49 49 48 49 49 48 49 49 48 49 49 48 49 49 48 49 49 48 49 49 48 49 49 48 49 49 48 49 49 48 49 49 48 49 49 48 49 49 48 49 49 48 49 49 48 49
49 48 49 49 48 49 49 48 49 49 48 49 49 48 49 49 48 49 49 48 49 49 48 49 49 48 49 49 48 49 49 48 49 49 48 49 49 48 49 49 48 49 49 48 49 49 48 49 49 48 49 49 48 49 49 48 49 49 48 49 49 48 49 49 48 49 49 48 49 49 48 49 49 48 49 49 48 49 49 48 49 49 48 49 49 48 49 49 48 49 49 48 49 49 48 49 49 48 49 49 48 49 49 48 49 49 48 49 140 73 74 140 73 74 140 73 74 140 73 74 123 73 74 24 69 66 24 69 66 24 69 66 24 69 66 24 69 66 24 69 66 24 69 66 24 69 66 24 69 66 24 69 66 24 69 66 24 69 66 24 69 66 82 69 66 82 69 66 82 69 66 82 69 66 82 69 66 82 69 66 82 69 66 90 69 66 90 69 66 90 69 66 90 69 66 90 69 66 90 65 66 90 65 66 90 65 66 148 77 74 148 73 74 140 73 74 140 73 74 140 73 74 140 73 74 140 73 74 140 73 74 140 73 74 140 73 74 140 73 74 140 73 74 140 73 74 140 73 74 140 73 74 140 73 74 140 73 74 140 73 74 140 73 74 140 73 74 140 73 74 140 73 74 140 73 74 140 73 74 140 73 74 140 73 74 49 48 49 49 48 49 49 48 49 49 48 49 49 48 49 49 48 49 49 48 49 49 48 49 49 48 49 49 48 49 49 48 49 49 48 49 49 48 49 49 48 49 49 48 49 49 48 49 49 48 49 49 48 49 49 48 49 49 48 49 49 48 49 49 48 49 49 48 49 49 48 49 49 48 49 49 48 49 49 48 49 49 48 49 49 48 49 49 48 49 49 48 49 49 48 49 49 48 49
49 48 49 49 48 49 49 48 49 49 48 49 49 48 49 49 48 49 49 48 49 49 48 49 49 48 49 49 48 49 49 48 49 49 48 49 49 48 49 49 48 49 49 48 49 49 48 49 49 48 49 49 48 49 49 48 49 49 48 49 49 48 49 49 48 49 49 48 49 49 48 49 49 48 49 49 48 49 49 48 49 49 48 49 49 48 49 49 48 49 49 48 49 49 48 49 49 48 49 49 48 49 49 48 49 49 48 49 140 73 74 140 73 74 140 73 74 140 73 74 140 73 74 107 69 74 82 69 66 82 69 66 82 69 66 82 69 66 82 69 66 82 69 66 140 73 74 140 73 74 140 73 74 140 73 74 140 73 74 140 73 74 140 73 74 140 73 74 140 73 74 140 73 74 140 73 74 140 73 74 140 73 74 140 73 74 140 73 74 140 73 74 140 73 74 140 73 74 140 73 74 140 73 74 140 73 74 140 73 74 140 73 74 140 73 74 140 73 74 140 73 74 140 73 74 140 73 74 140 73 74 140 73 74 140 73 74 140 73 74 140 73 74 140 73 74 140 73 74 140 73 74 140 73 74 140 73 74 140 73 74 140 73 74 140 73 74 140 73 74 140 73 74 140 73 74 140 73 74 140 73 74 140 73 74 49 48 49 49 48 49 49 48 49 49 48 49 49 48 49 49 48 49 49 48 49 49 48 49 49 48 49 49 48 49 49 48 49 49 48 49 49 48 49 49 48 49 49 48 49 49 48 49 49 48 49 49 48 49 49 48 49 49 48 49 49 48 49 49 48 49 49 48 49 49 48 49 49 48 49 49 48 49 49 48 49 49 48 49 49 48 49 49 48 49 49 48 49 49 48 49 49 48 49
49 48 49 49 48 49 49 48 49 49 48 49 49 48 49 49 48 49 49 48 49 49 48 49 49 48 49 49 48 49 49 48 49 49 48 49 49 48 49 49 48 49 49 48 49 49 48 49 49 48 49 49 48 49 49 48 49 49 48 49 49 48 49 49 48 49 49 48 49 49 48 49 49 48 49 49 48 49 49 48 49 49 48 49 49 48 49 49 48 49 49 48 49 49 48 49 49 48 49 49 48 49 49 48 49 49 48 49 140 73 74 140 73 74 140 73 74 140 73 74 140 73 74 140 73 74 140 73 74 140 73 74 140 73 74 140 73 74 140 73 74 140 73 74 140 73 74 140 73 74 140 73 74 140 73 74 140 73 74 140 73 74 140 73 74 140 73 74 140 73 74 140 73 74 140 73 74 140 73 74 140 73 74 140 73 74 140 73 74 140 73 74 140 73 74 140 73 74 140 73 74 140 73 74 140 73 74 140 73 74 140 73 74 140 73 74 140 73 74 140 73 74 140 73 74 140 73 74 140 73 74 140 73 74 140 73 74 140 73 74 140 73 74 140 73 74 140 73 74 140 73 74 140 73 74 140 73 74 140 73 74 140 73 74 140 73 74 140 73 74 140 73 74 140 73 74 140 73 74 140 73 74 140 73 74 49 48 49 49 48 49 49 48 49 49 48 49 49 48 49 49 48 49 49 48 49 49 48 49 49 48 49 49 48 49 49 48 49 49 48 49 49 48 49 49 48 49 49 48 49 49 48 49 49 48 49 49 48 49 49 48 49 49 48 49 49 48 49 49 48 49 49 48 49 49 48 49 49 48 49 49 48 49 49 48 49 49 48 49 49 48 49 49 48 49 49 48 49 49 48 49 49 48 49
49 48 49 49 48 49 49 48 49 49 48 49 49 48 49 49 48 49 49 48 49 49 48 49 49 48 49 49 48 49 49 48 49 49 48 49 49 48 49 49 48 49 49 48 49 49 48 49 49 48 49 49 48 49 49 48 49 49 48 49 49 48 49 49 48 49 49 48 49 49 48 49 49 48 49 49 48 49 49 48 49 49 48 49 49 48 49 49 48 49 49 48 49 49 48 49 49 48 49 49 48 49 49 48 49 49 48 49 140 73 74 140 73 74 140 73 74 140 73 74 140 73 74 140 73 74 140 73 74 140 73 74 140 73 74 140 73 74 140 73 74 140 73 74 140 73 74 140 73 74 140 73 74 140 73 74 140 73 74 140 73 74 140 73 74 140 73 74 140 73 74 140 73 74 140 73 74 140 73 74 140 73 74 140 73 74 140 73 74 140 73 74 140 73 74 140 73 74 140 73 74 140 73 74 140 73 74 140 73 74 140 73 74 140 73 74 140 73 74 140 73 74 140 73 74 140 73 74 140 73 74 140 73 74 140 73 74 140 73 74 140 73 74 140 73 74 140 73 74 140 73 74 140 73 74 140 73 74 140 73 74 140 73 74 140 73 74 140 73 74 140 73 74 140 73 74 140 73 74 140 73 74 140 73 74 49 48 49 49 48 49 49 48 49 49 48 49 49 48 49 49 48 49 49 48 49 49 48 49 49 48 49 49 48 49 49 48 49 49 48 49 49 48 49 49 48 49 49 48 49 49 48 49 49 48 49 49 48 49 49 48 49 49 48 49 49 48 49 49 48 49 49 48 49 49 48 49 49 48 49 49 48 49 49 48 49 49 48 49 49 48 49 49 48 49 49 48 49 49 48 49 49 48 49
49 48 49 49 48 49 49 48 49 49 48 49 49 48 49 49 48 49 49 48 49 49 48 49 49 48 49 49 48 49 49 48 49 49 48 49 49 48 49 49 48 49 49 48 49 49 48 49 49 48 49 49 48 49 49 48 49 49 48 49 49 48 49 49 48 49 49 48 49 49 48 49 49 48 49 49 48 49 49 48 49 49 48 49 49 48 49 49 48 49 49 48 49 49 48 49 49 48 49 49 48 49 49 48 49 49 48 49 140 73 74 140 73 74 140 73 74 140 73 74 140 73 74 140 73 74 140 73 74 140 73 74 140 73 74 140 73 74 140 73 74 140 73 74 140 73 74 140 73 74 140 73 74 140 73 74 140 73 74 140 73 74 140 73 74 140 73 74 140 73 74 140 73 74 140 73 74 140 73 74 140 73 74 140 73 74 140 73 74 140 73 74 140 73 74 140 73 74 140 73 74 140 73 74 140 73 74 140 73 74 140 73 74 140 73 74 140 73 74 140 73 74 140 73 74 140 73 74 140 73 74 140 73 74 140 73 74 140 73 74 140 73 74 140 73 74 140 73 74 140 73 74 140 73 74 140 73 74 140 73 74 140 73 74 140 73 74 140 73 74 140 73 74 140 73 74 140 73 74 140 73 74 140 73 74 49 48 49 49 48 49 49 48 49 49 48 49 49 48 49 49 48 49 49 48 49 49 48 49 49 48 49 49 48 49 49 48 49 49 48 49 49 48 49 49 48 49 49 48 49 49 48 49 49 48 49 49 48 49 49 48 49 49 48 49 49 48 49 49 48 49 49 48 49 49 48 49 49 48 49 49 48 49 49 48 49 49 48 49 49 48 49 49 48 49 49 48 49 49 48 49 49 48 49
49 48 49 49 48 49 49 48 49 49 48 49 49 48 49 49 48 49 49 48 49 49 48 49 49 48 49 49 48 49 49 48 49 49 48 49 49 48 49 49 48 49 49 48 49 49 48 49 49 48 49 49 48 49 49 48 49 49 48 49 49 48 49 49 48 49 49 48 49 49 48 49 49 48 49 49 48 49 49 48 49 49 48 49 49 48 49 49 48 49 49 48 49 49 48 49 49 48 49 49 48 49 49 48 49 49 48 49 140 73 74 140 73 74 140 73 74 140 73 74 140 73 74 140 73 74 140 73 74 140 73 74 140 73 74 140 73 74 140 73 74 140 73 74 140 73 74 140 73 74 140 73 74 140 73 74 140 73 74 140 73 74 140 73 74 140 73 74 140 73 74 140 73 74 140 73 74 140 73 74 140 73 74 140 73 74 140 73 74 140 73 74 140 73 74 140 73 74 140 73 74 140 73 74 140 73 74 140 73 74 140 73 74 140 73 74 140 73 74 140 73 74 140 73 74 140 73 74 140 73 74 140 73 74 140 73 74 140 73 74 140 73 74 140 73 74 140 73 74 140 73 74 140 73 74 140 73 74 140 73 74 140 73 74 140 73 74 140 73 74 140 73 74 140 73 74 140 73 74 140 73 74 140 73 74 49 48 49 49 48 49 49 48 49 49 48 49 49 48 49 49 48 49 49 48 49 49 48 49 49 48 49 49 48 49 49 48 49 49 48 49 49 48 49 49 48 49 49 48 49 49 48 49 49 48 49 49 48 49 49 48 49 49 48 49 49 48 49 49 48 49 49 48 49 49 48 49 49 48 49 49 48 49 49 48 49 49 48 49 49 48 49 49 48 49 49 48 49 49 48 49 49 48 49
49 48 49 49 48 49 49 48 49 49 48 49 49 48 49 49 48 49 49 48 49 49 48 49 49 48 49 49 48 49 49 48 49 49 48 49 49 48 49 49 48 49 49 48 49 49 48 49 49 48 49 49 48 49 49 48 49 49 48 49 49 48 49 49 48 49 49 48 49 49 48 49 49 48 49 49 48 49 49 48 49 49 48 49 49 48 49 49 48 49 49 48 49 49 48 49 49 48 49 49 48 49 49 48 49 49 48 49 49 48 49 140 73 74 140 73 74 140 73 74 140 73 74 140 73 74 140 73 74 140 73 74 140 73 74 140 73 74 140 73 74 140 73 74 140 73 74 140 73 74 140 73 74 140 73 74 140 73 74 140 73 74 140 73 74 140 73 74 140 73 74 140 73 74 140 73 74 140 73 74 140 73 74 140 73 74 140 73 74 140 73 74 140 73 74 140 73 74 140 73 74 140 73 74 140 73 74 140 73 74 140 73 74 140 73 74 140 73 74 140 73 74 140 73 74 140 73 74 140 73 74 140 73 74 140 73 74 140 73 74 140 73 74 140 73 74 140 73 74 140 73 74 140 73 74 140 73 74 140 73 74 140 73 74 140 73 74 140 73 74 140 73 74 140 73 74 140 73 74 140 73 74 49 48 49 49 48 49 49 48 49 49 48 49 49 48 49 49 48 49 49 48 49 49 48 49 49 48 49 49 48 49 49 48 49 49 48 49 49 48 49 49 48 49 49 48 49 49 48 49 49 48 49 49 48 49 49 48 49 49 48 49 49 48 49 49 48 49 49 48 49 49 48 49 49 48 49 49 48 49 49 48 49 49 48 49 49 48 49 49 48 49 49 48 49 49 48 49 49 48 49 49 48 49
49 48 49 49 48 49 49 48 49 49 48 49 49 48 49 49 48 49 49 48 49 49 48 49 49 48 49 49 48 49 49 48 49 49 48 49 49 48 49 49 48 49 49 48 49 49 48 49 49 48 49 49 48 49 49 48 49 49 48 49 49 48 49 49 48 49 49 48 49 49 48 49 49 48 49 49 48 49 49 48 49 49 48 49 49 48 49 49 48 49 49 48 49 49 48 49 49 48 49 49 48 49 49 48 49 49 48 49 49 48 49 140 73 74 140 73 74 140 73 74 140 73 74 140 73 74 140 73 74 140 73 74 140 73 74 140 73 74 140 73 74 140 73 74 140 73 74 140 73 74 140 73 74 140 73 74 140 73 74 140 73 74 140 73 74 140 73 74 140 73 74 140 73 74 140 73 74 140 73 74 140 73 74 140 73 74 140 73 74 140 73 74 140 73 74 140 73 74 140 73 74 140 73 74 140 73 74 140 73 74 140 73 74 140 73 74 140 73 74 140 73 74 140 73 74 140 73 74 140 73 74 140 73 74 140 73 74 140 73 74 140 73 74 140 73 74 140 73 74 140 73 74 140 73 74 140 73 74 140 73 74 140 73 74 140 73 74 140 73 74 140 73 74 140 73 74 140 73 74 140 73 74 49 48 49 49 48 49 49 48 49 49 48 49 49 48 49 49 48 49 49 48 49 49 48 49 49 48 49 49 48 49 49 48 49 49 48 49 49 48 49 49 48 49 49 48 49 49 48 49 49 48 49 49 48 49 49 48 49 49 48 49 49 48 49 49 48 49 49 48 49 49 48 49 49 48 49 49 48 49 49 48 49 49 48 49 49 48 49 49 48 49 49 48 49 49 48 49 49 48 49 49 48 49
49 48 49 49 48 49 49 48 49 49 48 49 49 48 49 49 48 49 49 48 49 49 48 49 49 48 49 49 48 49 49 48 49 49 48 49 49 48 49 49 48 49 49 48 49 49 48 49 49 48 49 49 48 49 49 48 49 49 48 49 49 48 49 49 48 49 49 48 49 49 48 49 49 48 49 49 48 49 49 48 49 49 48 49 49 48 49 49 48 49 49 48 49 49 48 49 49 48 49 49 48 49 49 48 49 49 48 49 49 48 49 140 73 74 140 73 74 140 73 74 140 73 74 140 73 74 140 73 74 140 73 74 140 73 74 140 73 74 140 73 74 140 73 74 140 73 74 140 73 74 140 73 74 140 73 74 140 73 74 140 73 74 140 73 74 140 73 74 140 73 74 140 73 74 140 73 74 140 73 74 140 73 74 140 73 74 140 73 74 140 73 74 140 73 74 140 73 74 140 73 74 140 73 74 140 73 74 140 73 74 140 73 74 140 73 74 140 73 74 140 73 74 140 73 74 140 73 74 140 73 74 140 73 74 140 73 74 140 73 74 140 73 74 140 73 74 140 73 74 140 73 74 140 73 74 140 73 74 140 73 74 140 73 74 140 73 74 140 73 74 140 73 74 140 73 74 140 73 74 140 73 74 49 48 49 49 48 49 49 48 49 49 48 49 49 48 49 49 48 49 49 48 49 49 48 49 49 48 49 49 48 49 49 48 49 49 48 49 49 48 49 49 48 49 49 48 49 49 48 49 49 48 49 49 48 49 49 48 49 49 48 49 49 48 49 49 48 49 49 48 49 49 48 49 49 48 49 49 48 49 49 48 49 49 48 49 49 48 49 49 48 49 49 48 49 49 48 49 49 48 49 49 48 49
49 48 49 49 48 49 49 48 49 49 48 49 49 48 49 49 48 49 49 48 49 49 48 49 49 48 49 49 48 49 49 48 49 49 48 49 49 48 49 49 48 49 49 48 49 49 48 49 49 48 49 49 48 49 49 48 49 49 48 49 49 48 49 49 48 49 49 48 49 49 48 49 49 48 49 49 48 49 49 48 49 49 48 49 49 48 49 49 48 49 49 48 49 49 48 49 49 48 49 49 48 49 49 48 49 49 48 49 49 48 49 140 73 74 140 73 74 140 73 74 140 73 74 140 73 74 140 73 74 140 73 74 140 73 74 140 73 74 140 73 74 140 73 74 140 73 74 140 73 74 140 73 74 140 73 74 140 73 74 140 73 74 140 73 74 140 73 74 140 73 74 140 73 74 140 73 74 140 73 74 140 73 74 140 73 74 140 73 74 140 73 74 140 73 74 140 73 74 140 73 74 140 73 74 140 73 74 140 73 74 140 73 74 140 73 74 140 73 74 140 73 74 140 73 74 140 73 74 140 73 74 140 73 74 140 73 74 140 73 74 140 73 74 140 73 74 140 73 74 140 73 74 140 73 74 140 73 74 140 73 74 140 73 74 140 73 74 140 73 74 140 73 74 140 73 74 140 73 74 140 73 74 49 48 49 49 48 49 49 48 49 49 48 49 49 48 49 49 48 49 49 48 49 49 48 49 49 48 49 49 48 49 49 48 49 49 48 49 49 48 49 49 48 49 49 48 49 49 48 49 49 48 49 49 48 49 49 48 49 49 48 49 49 48 49 49 48 49 49 48 49 49 48 49 49 48 49 49 48 49 49 48 49 49 48 49 49 48 49 49 48 49 49 48 49 49 48 49 49 48 49 49 48 49
49 48 49 49 48 49 49 48 49 49 48 49 49 48 49 49 48 49 49 48 49 49 48 49 49 48 49 49 48 49 49 48 49 49 48 49 49 48 49 49 48 49 49 48 49 49 48 49 49 48 49 49 48 49 49 48 49 49 48 49 49 48 49 49 48 49 49 48 49 49 48 49 49 48 49 49 48 49 49 48 49 49 48 49 49 48 49 49 48 49 49 48 49 49 48 49 49 48 49 49 48 49 49 48 49 49 48 49 49 48 49 140 73 74 140 73 74 140 73 74 140 73 74 140 73 74 140 73 74 140 73 74 140 73 74 140 73 74 140 73 74 140 73 74 140 73 74 140 73 74 140 73 74 140 73 74 140 73 74 140 73 74 140 73 74 140 73 74 140 73 74 140 73 74 140 73 74 140 73 74 140 73 74 140 73 74 140 73 74 140 73 74 140 73 74 140 73 74 140 73 74 140 73 74 140 73 74 140 73 74 140 73 74 140 73 74 140 73 74 140 73 74 140 73 74 140 73 74 140 73 74 140 73 74 140 73 74 140 73 74 140 73 74 140 73 74 140 73 74 140 73 74 140 73 74 140 73 74 140 73 74 140 73 74 140 73 74 140 73 74 140 73 74 140 73 74 140 73 74 140 73 74 49 48 49 49 48 49 49 48 49 49 48 49 49 48 49 49 48 49 49 48 49 49 48 49 49 48 49 49 48 49 49 48 49 49 48 49 49 48 49 49 48 49 49 48 49 49 48 49 49 48 49 49 48 49 49 48 49 49 48 49 49 48 49 49 48 49 49 48 49 49 48 49 49 48 49 49 48 49 49 48 49 49 48 49 49 48 49 49 48 49 49 48 49 49 48 49 49 48 49 49 48 49
49 48 49 49 48 49 49 48 49 49 48 49 49 48 49 49 48 49 49 48 49 49 48 49 49 48 49 49 48 49 49 48 49 49 48 49 49 48 49 49 48 49 49 48 49 49 48 49 49 48 49 49 48 49 49 48 49 49 48 49 49 48 49 49 48 49 49 48 49 49 48 49 49 48 49 49 48 49 49 48 49 49 48 49 49 48 49 49 48 49 49 48 49 49 48 49 49 48 49 49 48 49 49 48 49 49 48 49 49 48 49 140 73 74 140 73 74 140 73 74 140 73 74 140 73 74 140 73 74 140 73 74 140 73 74 140 73 74 140 73 74 140 73 74 140 73 74 140 73 74 140 73 74 140 73 74 140 73 74 140 73 74 140 73 74 140 73 74 140 73 74 140 73 74 140 73 74 140 73 74 140 73 74 140 73 74 140 73 74 140 73 74 140 73 74 140 73 74 140 73 74 140 73 74 140 73 74 140 73 74 140 73 74 140 73 74 140 73 74 140 73 74 140 73 74 140 73 74 140 73 74 140 73 74 140 73 74 140 73 74 140 73 74 140 73 74 140 73 74 140 73 74 140 73 74 140 73 74 140 73 74 140 73 74 140 73 74 140 73 74 140 73 74 140 73 74 140 73 74 140 73 74 49 48 49 49 48 49 49 48 49 49 48 49 49 48 49 49 48 49 49 48 49 49 48 49 49 48 49 49 48 49 49 48 49 49 48 49 49 48 49 49 48 49 49 48 49 49 48 49 49 48 49 49 48 49 49 48 49 49 48 49 49 48 49 49 48 49 49 48 49 49 48 49 49 48 49 49 48 49 49 48 49 49 48 49 49 48 49 49 48 49 49 48 49 49 48 49 49 48 49 49 48 49
49 48 49 49 48 49 49 48 49 49 48 49 49 48 49 49 48 49 49 48 49 49 48 49 49 48 49 49 48 49 49 48 49 49 48 49 49 48 49 49 48 49 49 48 49 49 48 49 49 48 49 49 48 49 49 48 49 49 48 49 49 48 49 49 48 49 49 48 49 49 48 49 49 48 49 49 48 49 49 48 49 49 48 49 49 48 49 49 48 49 49 48 49 49 48 49 49 48 49 49 48 49 49 48 49 49 48 49 49 48 49 140 73 74 140 73 74 140 73 74 140 73 74 140 73 74 140 73 74 140 73 74 140 73 74 140 73 74 140 73 74 140 73 74 140 73 74 140 73 74 140 73 74 140 73 74 140 73 74 140 73 74 140 73 74 140 73 74 140 73 74 140 73 74 140 73 74 140 73 74 140 73 74 140 73 74 140 73 74 140 73 74 140 73 74 140 73 74 140 73 74 140 73 74 140 73 74 140 73 74 140 73 74 140 73 74 140 73 74 140 73 74 140 73 74 140 73 74 140 73 74 140 73 74 140 73 74 140 73 74 140 73 74 140 73 74 140 73 74 140 73 74 140 73 74 140 73 74 140 73 74 49 48 49 49 48 49 49 48 49 49 48 49 49 48 49 49 48 49 49 48 49 49 48 49 49 48 49 49 48 49 49 48 49 49 48 49 49 48 49 49 48 49 49 48 49 49 48 49 49 48 49 49 48 49 49 48 49 49 48 49 49 48 49 49 48 49 49 48 49 49 48 49 49 48 49 49 48 49 49 48 49 49 48 49 49 48 49 49 48 49 49 48 49 49 48 49 49 48 49 49 48 49 49 48 49 49 48 49 49 48 49 49 48 49 49 48 49 49 48 49 49 48 49
49 48 49 49 48 49 49 48 49 49 48 49 49 48 49 49 48 49 49 48 49 49 48 49 49 48 49 49 48 49 49 48 49 49 48 49 49 48 49 49 48 49 49 48 49 49 48 49 49 48 49 49 48 49 49 48 49 49 48 49 49 48 49 49 48 49 49 48 49 49 48 49 49 48 49 49 48 49 49 48 49 49 48 49 49 48 49 49 48 49 49 48 49 49 48 49 49 48 49 49 48 49 49 48 49 49 48 49 49 48 49 140 73 74 140 73 74 140 73 74 140 73 74 140 73 74 140 73 74 140 73 74 140 73 74 140 73 74 140 73 74 140 73 74 140 73 74 140 73 74 140 73 74 140 73 74 140 73 74 140 73 74 140 73 74 140 73 74 140 73 74 140 73 74 140 73 74 140 73 74 140 73 74 140 73 74 140 73 74 140 73 74 140 73 74 140 73 74 140 73 74 49 48 49 49 48 49 49 48 49 49 48 49 49 48 49 49 48 49 49 48 49 49 48 49 49 48 49 49 48 49 49 48 49 49 48 49 49 48 49 49 48 49 49 48 49 49 48 49 49 48 49 49 48 49 49 48 49 49 48 49 49 48 49 49 48 49 49 48 49 49 48 49 49 48 49 49 48 49 49 48 49 49 48 49 49 48 49 49 48 49 49 48 49 49 48 49 49 48 49 49 48 49 49 48 49 49 48 49 49 48 49 49 48 49 49 48 49 49 48 49 49 48 49 49 48 49 49 48 49 49 48 49 49 48 49 49 48 49 49 48 49 49 48 49 49 48 49 49 48 49 49 48 49 49 48 49 49 48 49 49 48 49 49 48 49 49 48 49 49 48 49 49 48 49 49 48 49 49 48 49 49 48 49
49 48 49 49 48 49 49 48 49 49 48 49 49 48 49 49 48 49 49 48 49 49 48 49 49 48 49 49 48 49 49 48 49 49 48 49 49 48 49 49 48 49 49 48 49 49 48 49 49 48 49 49 48 49 49 48 49 49 48 49 49 48 49 49 48 49 49 48 49 49 48 49 49 48 49 49 48 49 49 48 49 49 48 49 49 48 49 49 48 49 49 48 49 49 48 49 49 48 49 49 48 49 49 48 49 49 48 49 49 48 49 49 48 49 140 73 74 140 73 74 140 73 74 140 73 74 140 73 74 140 73 74 140 73 74 140 73 74 140 73 74 140 73 74 49 48 49 49 48 49 49 48 49 49 48 49 49 48 49 49 48 49 49 48 49 49 48 49 49 48 49 49 48 49 49 48 49 49 48 49 49 48 49 49 48 49 49 48 49 49 48 49 49 48 49 49 48 49 49 48 49 49 48 49 49 48 49 49 48 49 49 48 49 49 48 49 49 48 49 49 48 49 49 48 49 49 48 49 49 48 49 49 48 49 49 48 49 49 48 49 49 48 49 49 48 49 49 48 49 49 48 49 49 48 49 49 48 49 49 48 49 49 48 49 49 48 49 49 48 49 49 48 49 49 48 49 49 48 49 49 48 49 49 48 49 49 48 49 49 48 49 49 48 49 49 48 49 49 48 49 49 48 49 49 48 49 49 48 49 49 48 49 49 48 49 49 48 49 49 48 49 49 48 49 49 48 49 49 48 49 49 48 49 49 48 49 49 48 49 49 48 49 49 48 49 49 48 49 49 48 49 49 48 49 49 48 49 49 48 49 49 48 49 49 48 49 49 48 49 49 48 49 49 48 49 49 48 49 49 48 49 49 48 49
49 48 49 49 48 49 49 48 49 49 48 49 49 48 49 49 48 49 49 48 49 49 48 49 49 48 49 49 48 49 49 48 49 49 48 49 49 48 49 49 48 49 49 48 49 49 48 49 49 48 49 49 48 49 49 48 49 49 48 49 49 48 49 49 48 49 49 48 49 49 48 49 49 48 49 49 48 49 49 48 49 49 48 49 49 48 49 49 48 49 49 48 49 49 48 49 49 48 49 49 48 49 49 48 49 49 48 49 49 48 49 49 48 49 49 48 49 49 48 49 49 48 49 49 48 49 49 48 49 49 48 49 49 48 49 49 48 49 49 48 49 49 48 49 49 48 49 49 48 49 49 48 49 49 48 49 49 48 49 49 48 49 49 48 49 49 48 49 49 48 49 49 48 49 49 48 49 49 48 49 49 48 49 49 48 49 49 48 49 49 48 49 49 48 49 49 48 49 49 48 49 49 48 49 49 48 49 49 48 49 49 48 49 49 48 49 49 48 49 49 48 49 49 48 49 49 48 49 49 48 49 49 48 49 49 48 49 49 48 49 49 48 49 49 48 49 49 48 49 49 48 49 49 48 49 49 48 49 49 48 49 49 48 49 49 48 49 49 48 49 49 48 49 49 48 49 49 48 49 49 48 49 49 48 49 49 48 49 49 48 49 49 48 49 49 48 49 49 48 49 49 48 49 49 48 49 49 48 49 49 48 49 49 48 49 49 48 49 49 48 49 49 48 49 49 48 49 49 48 49 49 48 49 49 48 49 49 48 49 49 48 49 49 48 49 49 48 49 49 48 49 49 48 49 49 48 49 49 48 49 49 48 49 49 48 49 49 48 49 49 48 49 49 48 49 49 48 49 49 48 49 49 48 49
49 48 49 49 48 49 49 48 49 49 48 49 49 48 49 49 48 49 49 48 49 49 48 49 49 48 49 49 48 49 49 48 49 49 48 49 49 48 49 49 48 49 49 48 49 49 48 49 49 48 49 49 48 49 49 48 49 49 48 49 49 48 49 49 48 49 49 48 49 49 48 49 49 48 49 49 48 49 49 48 49 49 48 49 49 48 49 49 48 49 49 48 49 49 48 49 49 48 49 49 48 49 49 48 49 49 48 49 49 48 49 49 48 49 49 48 49 49 48 49 49 48 49 49 48 49 49 48 49 49 48 49 49 48 49 49 48 49 49 48 49 49 48 49 49 48 49 49 48 49 49 48 49 49 48 49 49 48 49 49 48 49 49 48 49 49 48 49 49 48 49 49 48 49 49 48 49 49 48 49 49 48 49 49 48 49 49 48 49 49 48 49 49 48 49 49 48 49 49 48 49 49 48 49 49 48 49 49 48 49 49 48 49 49 48 49 49 48 49 49 48 49 49 48 49 49 48 49 49 48 49 49 48 49 49 48 49 49 48 49 49 48 49 49 48 49 49 48 49 49 48 49 49 48 49 49 48 49 49 48 49 49 48 49 49 48 49 49 48 49 49 48 49 49 48 49 49 48 49 49 48 49 49 48 49 49 48 49 49 48 49 49 48 49 49 48 49 49 48 49 49 48 49 49 48 49 49 48 49 49 48 49 49 48 49 49 48 49 49 48 49 49 48 49 49 48 49 49 48 49 49 48 49 49 48 49 49 48 49 49 48 49 49 48 49 49 48 49 49 48 49 49 48 49 49 48 49 49 48 49 49 48 49 49 48 49 49 48 49 49 48 49 49 48 49 49 48 49 49 48 49 49 48 49
49 48 49 49 48 49 49 48 49 49 48 49 49 48 49 49 48 49 49 48 49 49 48 49 49 48 49 49 48 49 49 48 49 49 48 49 49 48 49 49 48 49 49 48 49 49 48 49 49 48 49 49 48 49 49 48 49 49 48 49 49 48 49 49 48 49 49 48 49 49 48 49 49 48 49 49 48 49 49 48 49 49 48 49 49 48 49 49 48 49 49 48 49 49 48 49 49 48 49 49 48 49 49 48 49 49 48 49 49 48 49 49 48 49 49 48 49 49 48 49 49 48 49 49 48 49 49 48 49 49 48 49 49 48 49 49 48 49 49 48 49 49 48 49 49 48 49 49 48 49 49 48 49 49 48 49 49 48 49 49 48 49 49 48 49 49 48 49 49 48 49 49 48 49 49 48 49 49 48 49 49 48 49 49 48 49 49 48 49 49 48 49 49 48 49 49 48 49 49 48 49 49 48 49 49 48 49 49 48 49 49 48 49 49 48 49 49 48 49 49 48 49 49 48 49 49 48 49 49 48 49 49 48 49 49 48 49 49 48 49 49 48 49 49 48 49 49 48 49 49 48 49 49 48 49 49 48 49 49 48 49 49 48 49 49 48 49 49 48 49 49 48 49 49 48 49 49 48 49 49 48 49 49 48 49 49 48 49 49 48 49 49 48 49 49 48 49 49 48 49 49 48 49 49 48 49 49 48 49 49 48 49 49 48 49 49 48 49 49 48 49 49 48 49 49 48 49 49 48 49 49 48 49 49 48 49 49 48 49 49 48 49 49 48 49 49 48 49 49 48 49 49 48 49 49 48 49 49 48 49 49 48 49 49 48 49 49 48 49 49 48 49 49 48 49 49 48 49 49 48 49 49 48 49
49 48 49 49 48 49 49 48 49 49 48 49 49 48 49 49 48 49 49 48 49 49 48 49 49 48 49 49 48 49 49 48 49 49 48 49 49 48 49 49 48 49 49 48 49 49 48 49 49 48 49 49 48 49 49 48 49 49 48 49 49 48 49 49 48 49 49 48 49 49 48 49 49 48 49 49 48 49 49 48 49 49 48 49 49 48 49 49 48 49 49 48 49 49 48 49 49 48 49 49 48 49 49 48 49 49 48 49 49 48 49 49 48 49 49 48 49 49 48 49 49 48 49 49 48 49 49 48 49 49 48 49 49 48 49 49 48 49 49 48 49 49 48 49 49 48 49 49 48 49 49 48 49 49 48 49 49 48 49 49 48 49 49 48 49 49 48 49 49 48 49 49 48 49 49 48 49 49 48 49 49 48 49 49 48 49 49 48 49 49 48 49 49 48 49 49 48 49 49 48 49 49 48 49 49 48 49 49 48 49 49 48 49 49 48 49 49 48 49 49 48 49 49 48 49 49 48 49 49 48 49 49 48 49 49 48 49 49 48 49 49 48 49 49 48 49 49 48 49 49 48 49 49 48 49 49 48 49 49 48 49 49 48 49 49 48 49 49 48 49 49 48 49 49 48 49 49 48 49 49 48 49 49 48 49 49 48 49 49 48 49 49 48 49 49 48 49 49 48 49 49 48 49 49 48 49 49 48 49 49 48 49 49 48 49 49 48 49 49 48 49 49 48 49 49 48 49 49 48 49 49 48 49 49 48 49 49 48 49 49 48 49 49 48 49 49 48 49 49 48 49 49 48 49 49 48 49 49 48 49 49 48 49 49 48 49 49 48 49 49 48 49 49 48 49 49 48 49 49 48 49 49 48 49
49 48 49 49 48 49 49 48 49 49 48 49 49 48 49 49 48 49 49 48 49 49 48 49 49 48 49 49 48 49 49 48 49 49 48 49 49 48 49 49 48 49 49 48 49 49 48 49 49 48 49 49 48 49 49 48 49 49 48 49 49 48 49 49 48 49 49 48 49 49 48 49 49 48 49 49 48 49 49 48 49 49 48 49 49 48 49 49 48 49 49 48 49 49 48 49 49 48 49 49 48 49 49 48 49 49 48 49 49 48 49 49 48 49 49 48 49 49 48 49 49 48 49 49 48 49 49 48 49 49 48 49 49 48 49 49 48 49 49 48 49 49 48 49 49 48 49 49 48 49 49 48 49 49 48 49 49 48 49 49 48 49 49 48 49 49 48 49 49 48 49 49 48 49 49 48 49 49 48 49 49 48 49 49 48 49 49 48 49 49 48 49 49 48 49 49 48 49 49 48 49 49 48 49 49 48 49 49 48 49 49 48 49 49 48 49 49 48 49 49 48 49 49 48 49 49 48 49 49 48 49 49 48 49 49 48 49 49 48 49 49 48 49 49 48 49 49 48 49 49 48 49 49 48 49 49 48 49 49 48 49 49 48 49 49 48 49 49 48 49 49 48 49 49 48 49 49 48 49 49 48 49 49 48 49 49 48 49 49 48 49 49 48 49 49 48 49 49 48 49 49 48 49 49 48 49 49 48 49 49 48 49 49 48 49 49 48 49 49 48 49 49 48 49 49 48 49 49 48 49 49 48 49 49 48 49 49 48 49 49 48 49 49 48 49 49 48 49 49 48 49 49 48 49 49 48 49 49 48 49 49 48 49 49 48 49 49 48 49 49 48 49 49 48 49 49 48 49 49 48 49 49 48 49
49 48 49 49 48 49 49 48 49 49 48 49 49 48 49 49 48 49 49 48 49 49 48 49 49 48 49 49 48 49 49 48 49 49 48 49 49 48 49 49 48 49 49 48 49 49 48 49 49 48 49 49 48 49 49 48 49 49 48 49 49 48 49 49 48 49 49 48 49 49 48 49 49 48 49 49 48 49 49 48 49 49 48 49 49 48 49 49 48 49 49 48 49 49 48 49 49 48 49 49 48 49 49 48 49 49 48 49 49 48 49 49 48 49 49 48 49 49 48 49 49 48 49 49 48 49 49 48 49 49 48 49 49 48 49 49 48 49 49 48 49 49 48 49 49 48 49 49 48 49 49 48 49 49 48 49 49 48 49 49 48 49 49 48 49 49 48 49 49 48 49 49 48 49 49 48 49 49 48 49 49 48 49 49 48 49 49 48 49 49 48 49 49 48 49 49 48 49 49 48 49 49 48 49 49 48 49 49 48 49 49 48 49 49 48 49 49 48 49 49 48 49 49 48 49 49 48 49 49 48 49 49 48 49 49 48 49 49 48 49 49 48 49 49 48 49 49 48 49 49 48 49 49 48 49 49 48 49 49 48 49 49 48 49 49 48 49 49 48 49 49 48 49 49 48 49 49 48 49 49 48 49 49 48 49 49 48 49 49 48 49 49 48 49 49 48 49 49 48 49 49 48 49 49 48 49 49 48 49 49 48 49 49 48 49 49 48 49 49 48 49 49 48 49 49 48 49 49 48 49 49 48 49 49 48 49 49 48 49 49 48 49 49 48 49 49 48 49 49 48 49 49 48 49 49 48 49 49 48 49 49 48 49 49 48 49 49 48 49 49 48 49 49 48 49 49 48 49 49 48 49 49 48 49
49 48 49 49 48 49 49 48 49 49 48 49 49 48 49 49 48 49 49 48 49 49 48 49 49 48 49 49 48 49 49 48 49 49 48 49 49 48 49 49 48 49 49 48 49 49 48 49 49 48 49 49 48 49 49 48 49 49 48 49 49 48 49 49 48 49 49 48 49 49 48 49 49 48 49 49 48 49 49 48 49 49 48 49 49 48 49 49 48 49 49 48 49 49 48 49 49 48 49 49 48 49 49 48 49 49 48 49 49 48 49 49 48 49 49 48 49 49 48 49 49 48 49 49 48 49 49 48 49 49 48 49 49 48 49 49 48 49 49 48 49 49 48 49 49 48 49 49 48 49 49 48 49 49 48 49 49 48 49 49 48 49 49 48 49 49 48 49 49 48 49 49 48 49 49 48 49 49 48 49 49 48 49 49 48 49 49 48 49 49 48 49 49 48 49 49 48 49 49 48 49 49 48 49 49 48 49 49 48 49 49 48 49 49 48 49 49 48 49 49 48 49 49 48 49 49 48 49 49 48 49 49 48 49 49 48 49 49 48 49 49 48 49 49 48 49 49 48 49 49 48 49 49 48 49 49 48 49 49 48 49 49 48 49 49 48 49 49 48 49 49 48 49 49 48 49 49 48 49 49 48 49 49 48 49 49 48 49 49 48 49 49 48 49 49 48 49 49 48 49 49 48 49 49 48 49 49 48 49 49 48 49 49 48 49 49 48 49 49 48 49 49 48 49 49 48 49 49 48 49 49 48 49 49 48 49 49 48 49 49 48 49 49 48 49 49 48 49 49 48 49 49 48 49 49 48 49 49 48 49 49 48 49 49 48 49 49 48 49 49 48 49 49 48 49 49 48 49 49 48 49 49 48 49
49 48 49 49 48 49 49 48 49 49 48 49 49 48 49 49 48 49 49 48 49 49 48 49 49 48 49 49 48 49 49 48 49 49 48 49 49 48 49 49 48 49 49 48 49 49 48 49 49 48 49 49 48 49 49 48 49 49 48 49 49 48 49 49 48 49 49 48 49 49 48 49 49 48 49 49 48 49 49 48 49 49 48 49 49 48 49 49 48 49 49 48 49 49 48 49 49 48 49 49 48 49 49 48 49 49 48 49 49 48 49 49 48 49 49 48 49 49 48 49 49 48 49 49 48 49 49 48 49 49 48 49 49 48 49 49 48 49 49 48 49 49 48 49 49 48 49 49 48 49 49 48 49 49 48 49 49 48 49 49 48 49 49 48 49 49 48 49 49 48 49 49 48 49 49 48 49 49 48 49 49 48 49 49 48 49 49 48 49 49 48 49 49 48 49 49 48 49 49 48 49 49 48 49 49 48 49 49 48 49 49 48 49 49 48 49 49 48 49 49 48 49 49 48 49 49 48 49 49 48 49 49 48 49 49 48 49 49 48 49 49 48 49 49 48 49 49 48 49 49 48 49 49 48 49 49 48 49 49 48 49 49 48 49 49 48 49 49 48 49 49 48 49 49 48 49 49 48 49 49 48 49 49 48 49 49 48 49 49 48 49 49 48 49 49 48 49 49 48 49 49 48 49 49 48 49 49 48 49 49 48 49 49 48 49 49 48 49 49 48 49 49 48 49 49 48 49 49 48 49 49 48 49 49 48 49 49 48 49 49 48 49 49 48 49 49 48 49 49 48 49 49 48 49 49 48 49 49 48 49 49 48 49 49 48 49 49 48 49 49 48 49 49 48 49 49 48 49 49 48 49 49 48 49
49 48 49 49 48 49 49 48 49 49 48 49 49 48 49 49 48 49 49 48 49 49 48 49 49 48 49 49 48 49 49 48 49 49 48 49 49 48 49 49 48 49 49 48 49 49 48 49 49 48 49 49 48 49 49 48 49 49 48 49 49 48 49 49 48 49 49 48 49 49 48 49 49 48 49 49 48 49 49 48 49 49 48 49 49 48 49 49 48 49 49 48 49 49 48 49 49 48 49 49 48 49 49 48 49 49 48 49 49 48 49 49 48 49 49 48 49 49 48 49 49 48 49 49 48 49 49 48 49 49 48 49 49 48 49 49 48 49 49 48 49 49 48 49 49 48 49 49 48 49 49 48 49 49 48 49 49 48 49 49 48 49 49 48 49 49 48 49 49 48 49 49 48 49 49 48 49 49 48 49 49 48 49 49 48 49 49 48 49 49 48 49 49 48 49 49 48 49 49 48 49 49 48 49 49 48 49 49 48 49 49 48 49 49 48 49 49 48 49 49 48 49 49 48 49 49 48 49 49 48 49 49 48 49 49 48 49 49 48 49 49 48 49 49 48 49 49 48 49 49 48 49 49 48 49 49 48 49 49 48 49 49 48 49 49 48 49 49 48 49 49 48 49 49 48 49 49 48 49 49 48 49 49 48 49 49 48 49 49 48 49 49 48 49 49 48 49 49 48 49 49 48 49 49 48 49 49 48 49 49 48 49 49 48 49 49 48 49 49 48 49 49 48 49 49 48 49 49 48 49 49 48 49 49 48 49 49 48 49 49 48 49 49 48 49 49 48 49 49 48 49 49 48 49 49 48 49 49 48 49 49 48 49 49 48 49 49 48 49 49 48 49 49 48 49 49 48 49 49 48 49 49 48 49
49 48 49 49 48 49 49 48 49 49 48 49 49 48 49 49 48 49 49 48 49 49 48 49 49 48 49 49 48 49 49 48 49 49 48 49 49 48 49 49 48 49 49 48 49 49 48 49 49 48 49 49 48 49 49 48 49 49 48 49 49 48 49 49 48 49 49 48 49 49 48 49 49 48 49 49 48 49 49 48 49 49 48 49 49 48 49 49 48 49 49 48 49 49 48 49 49 48 49 49 48 49 49 48 49 49 48 49 49 48 49 49 48 49 49 48 49 49 48 49 49 48 49 49 48 49 49 48 49 49 48 49 49 48 49 49 48 49 49 48 49 49 48 49 49 48 49 49 48 49 49 48 49 49 48 49 49 48 49 49 48 49 49 48 49 49 48 49 49 48 49 49 48 49 49 48 49 49 48 49 49 48 49 49 48 49 49 48 49 49 48 49 49 48 49 49 48 49 49 48 49 49 48 49 49 48 49 49 48 49 49 48 49 49 48 49 49 48 49 49 48 49 49 48 49 49 48 49 49 48 49 49 48 49 49 48 49 49 48 49 49 48 49 49 48 49 49 48 49 49 48 49 49 48 49 49 48 49 49 48 49 49 48 49 49 48 49 49 48 49 49 48 49 49 48 49 49 48 49 49 48 49 49 48 49 49 48 49 49 48 49 49 48 49 49 48 49 49 48 49 49 48 49 49 48 49 49 48 49 49 48 49 49 48 49 49 48 49 49 48 49 49 48 49 49 48 49 49 48 49 49 48 49 49 48 49 49 48 49 49 48 49 49 48 49 49 48 49 49 48 49 49 48 49 49 48 49 49 48 49 49 48 49 49 48 49 49 48 49 49 48 49 49 48 49 49 48 49 49 48 49 49 48 49
49 48 49 49 48 49 49 48 49 49 48 49 49 48 49 49 48 49 49 48 49 49 48 49 49 48 49 49 48 49 49 48 49 49 48 49 49 48 49 49 48 49 49 48 49 49 48 49 49 48 49 49 48 49 49 48 49 49 48 49 49 48 49 49 48 49 49 48 49 49 48 49 49 48 49 49 48 49 49 48 49 49 48 49 49 48 49 49 48 49 49 48 49 49 48 49 49 48 49 49 48 49 49 48 49 49 48 49 49 48 49 49 48 49 49 48 49 49 48 49 49 48 49 49 48 49 49 48 49 49 48 49 49 48 49 49 48 49 49 48 49 49 48 49 49 48 49 49 48 49 49 48 49 49 48 49 49 48 49 49 48 49 49 48 49 49 48 49 49 48 49 49 48 49 49 48 49 49 48 49 49 48 49 49 48 49 49 48 49 49 48 49 49 48 49 49 48 49 49 48 49 49 48 49 49 48 49 49 48 49 49 48 49 49 48 49 49 48 49 49 48 49 49 48 49 49 48 49 49 48 49 49 48 49 49 48 49 49 48 49 49 48 49 49 48 49 49 48 49 49 48 49 49 48 49 49 48 49 49 48 49 49 48 49 49 48 49 49 48 49 49 48 49 49 48 49 49 48 49 49 48 49 49 48 49 49 48 49 49 48 49 49 48 49 49 48 49 49 48 49 49 48 49 49 48 49 49 48 49 49 48 49 49 48 49 49 48 49 49 48 49 49 48 49 49 48 49 49 48 49 49 48 49 49 48 49 49 48 49 49 48 49 49 48 49 49 48 49 49 48 49 49 48 49 49 48 49 49 48 49 49 48 49 49 48 49 49 48 49 49 48 49 49 48 49 49 48 49 49 48 49 49 48 49
49 48 49 49 48 49 49 48 49 49 48 49 49 48 49 49 48 49 49 48 49 49 48 49 49 48 49 49 48 49 49 48 49 49 48 49 49 48 49 49 48 49 49 48 49 49 48 49 49 48 49 49 48 49 49 48 49 49 48 49 49 48 49 49 48 49 49 48 49 49 48 49 49 48 49 49 48 49 49 48 49 49 48 49 49 48 49 49 48 49 49 48 49 49 48 49 49 48 49 49 48 49 49 48 49 49 48 49 49 48 49 49 48 49 49 48 49 49 48 49 49 48 49 49 48 49 49 48 49 49 48 49 49 48 49 49 48 49 49 48 49 49 48 49 49 48 49 49 48 49 49 48 49 49 48 49 49 48 49 49 48 49 49 48 49 49 48 49 49 48 49 49 48 49 49 48 49 49 48 49 49 48 49 49 48 49 49 48 49 49 48 49 49 48 49 49 48 49 49 48 49 49 48 49 49 48 49 49 48 49 49 48 49 49 48 49 49 48 49 49 48 49 49 48 49 49 48 49 49 48 49 49 48 49 49 48 49 49 48 49 49 48 49 49 48 49 49 48 49 49 48 49 49 48 49 49 48 49 49 48 49 49 48 49 49 48 49 49 48 49 49 48 49 49 48 49 49 48 49 49 48 49 49 48 49 49 48 49 49 48 49 49 48 49 49 48 49 49 48 49 49 48 49 49 48 49 49 48 49 49 48 49 49 48 49 49 48 49 49 48 49 49 48 49 49 48 49 49 48 49 49 48 49 49 48 49 49 48 49 49 48 49 49 48 49 49 48 49 49 48 49 49 48 49 49 48 49 49 48 49 49 48 49 49 48 49 49 48 49 49 48 49 49 48 49 49 48 49 49 48 49 49 48 49
49 48 49 49 48 49 49 48 49 49 48 49 49 48 49 49 48 49 49 48 49 49 48 49 49 48 49 49 48 49 49 48 49 49 48 49 49 48 49 49 48 49 49 48 49 49 48 49 49 48 49 49 48 49 49 48 49 49 48 49 49 48 49 49 48 49 49 48 49 49 48 49 49 48 49 49 48 49 49 48 49 49 48 49 49 48 49 49 48 49 49 48 49 49 48 49 49 48 49 49 48 49 49 48 49 49 48 49 49 48 49 49 48 49 49 48 49 49 48 49 49 48 49 49 48 49 49 48 49 49 48 49 49 48 49 49 48 49 49 48 49 49 48 49 49 48 49 49 48 49 49 48 49 49 48 49 49 48 49 49 48 49 49 48 49 49 48 49 49 48 49 49 48 49 49 48 49 49 48 49 49 48 49 49 48 49 49 48 49 49 48 49 49 48 49 49 48 49 49 48 49 49 48 49 49 48 49 49 48 49 49 48 49 49 48 49 49 48 49 49 48 49 49 48 49 49 48 49 49 48 49 49 48 49 49 48 49 49 48 49 49 48 49 49 48 49 49 48 49 49 48 49 49 48 49 49 48 49 49 48 49 49 48 49 49 48 49 49 48 49 49 48 49 49 48 49 49 48 49 49 48 49 49 48 49 49 48 49 49 48 49 49 48 49 49 48 49 49 48 49 49 48 49 49 48 49 49 48 49 49 48 49 49 48 49 49 48 49 49 48 49 49 48 49 49 48 49 49 48 49 49 48 49 49 48 49 49 48 49 49 48 49 49 48 49 49 48 49 49 48 49 49 48 49 49 48 49 49 48 49 49 48 49 49 48 49 49 48 49 49 48 49 49 48 49 49 48 49 49 48 49 49 48 49
49 48 49 49 48 49 49 48 49 49 48 49 49 48 49 49 48 49 49 48 49 49 48 49 49 48 49 49 48 49 49 48 49 49 48 49 49 48 49 49 48 49 49 48 49 49 48 49 49 48 49 49 48 49 49 48 49 49 48 49 49 48 49 49 48 49 49 48 49 49 48 49 49 48 49 49 48 49 49 48 49 49 48 49 49 48 49 49 48 49 49 48 49 49 48 49 49 48 49 49 48 49 49 48 49 49 48 49 49 48 49 49 48 49 49 48 49 49 48 49 49 48 49 49 48 49 49 48 49 49 48 49 49 48 49 49 48 49 49 48 49 49 48 49 49 48 49 49 48 49 49 48 49 49 48 49 49 48 49 49 48 49 49 48 49 49 48 49 49 48 49 49 48 49 49 48 49 49 48 49 49 48 49 49 48 49 49 48 49 49 48 49 49 48 49 49 48 49 49 48 49 49 48 49 49 48 49 49 48 49 49 48 49 49 48 49 49 48 49 49 48 49 49 48 49 49 48 49 49 48 49 49 48 49 49 48 49 49 48 49 49 48 49 49 48 49 49 48 49 49 48 49 49 48 49 49 48 49 49 48 49 49 48 49 49 48 49 49 48 49 49 48 49 49 48 49 49 48 49 49 48 49 49 48 49 49 48 49 49 48 49 49 48 49 49 48 49 49 48 49 49 48 49 49 48 49 49 48 49 49 48 49 49 48 49 49 48 49 49 48 49 49 48 49 49 48 49 49 48 49 49 48 49 49 48 49 49 48 49 49 48 49 49 48 49 49 48 49 49 48 49 49 48 49 49 48 49 49 48 49 49 48 49 49 48 49 49 48 49 49 48 49 49 48 49 49 48 49 49 48 49 49 48 49
49 48 49 49 48 49 49 48 49 49 48 49 49 48 49 49 48 49 49 48 49 49 48 49 49 48 49 49 48 49 49 48 49 49 48 49 49 48 49 49 48 49 49 48 49 49 48 49 49 48 49 49 48 49 49 48 49 49 48 49 49 48 49 49 48 49 49 48 49 49 48 49 49 48 49 49 48 49 49 48 49 49 48 49 49 48 49 49 48 49 49 48 49 49 48 49 49 48 49 49 48 49 49 48 49 49 48 49 49 48 49 49 48 49 49 48 49 49 48 49 49 48 49 49 48 49 49 48 49 49 48 49 49 48 49 49 48 49 49 48 49 49 48 49 49 48 49 49 48 49 49 48 49 49 48 49 49 48 49 49 48 49 49 48 49 49 48 49 49 48 49 49 48 49 49 48 49 49 48 49 49 48 49 49 48 49 49 48 49 49 48 49 49 48 49 49 48 49 49 48 49 49 48 49 49 48 49 49 48 49 49 48 49 49 48 49 49 48 49 49 48 49 49 48 49 49 48 49 49 48 49 49 48 49 49 48 49 49 48 49 49 48 49 49 48 49 49 48 49 49 48 49 49 48 49 49 48 49 49 48 49 49 48 49 49 48 49 49 48 49 49 48 49 49 48 49 49 48 49 49 48 49 49 48 49 49 48 49 49 48 49 49 48 49 49 48 49 49 48 49 49 48 49 49 48 49 49 48 49 49 48 49 49 48 49 49 48 49 49 48 49 49 48 49 49 48 49 49 48 49 49 48 49 49 48 49 49 48 49 49 48 49 49 48 49 49 48 49 49 48 49 49 48 49 49 48 49 49 48 49 49 48 49 49 48 49 49 48 49 49 48 49 49 48 49 49 48 49 49 48 49 49 48 49
49 48 49 49 48 49 49 48 49 49 48 49 49 48 49 49 48 49 49 48 49 49 48 49 49 48 49 49 48 49 49 48 49 49 48 49 49 48 49 49 48 49 49 48 49 49 48 49 49 48 49 49 48 49 49 48 49 49 48 49 49 48 49 49 48 49 49 48 49 49 48 49 49 48 49 49 48 49 49 48 49 49 48 49 49 48 49 49 48 49 49 48 49 49 48 49 49 48 49 49 48 49 49 48 49 49 48 49 49 48 49 49 48 49 49 48 49 49 48 49 49 48 49 49 48 49 49 48 49 49 48 49 49 48 49 49 48 49 49 48 49 49 48 49 49 48 49 49 48 49 49 48 49 49 48 49 49 48 49 49 48 49 49 48 49 49 48 49 49 48 49 49 48 49 49 48 49 49 48 49 49 48 49 49 48 49 49 48 49 49 48 49 49 48 49 49 48 49 49 48 49 49 48 49 49 48 49 49 48 49 49 48 49 49 48 49 49 48 49 49 48 49 49 48 49 49 48 49 49 48 49 49 48 49 49 48 49 49 48 49 49 48 49 49 48 49 49 48 49 49 48 49 49 48 49 49 48 49 49 48 49 49 48 49 49 48 49 49 48 49 49 48 49 49 48 49 49 48 49 49 48 49 49 48 49 49 48 49 49 48 49 49 48 49 49 48 49 49 48 49 49 48 49 49 48 49 49 48 49 49 48 49 49 48 49 49 48 49 49 48 49 49 48 49 49 48 49 49 48 49 49 48 49 49 48 49 49 48 49 49 48 49 49 48 49 49 48 49 49 48 49 49 48 49 49 48 49 49 48 49 49 48 49 49 48 49 49 48 49 49 48 49 49 48 49 49 48 49 49 48 49 49 48 49
49 48 49 49 48 49 49 48 49 49 48 49 49 48 49 49 48 49 49 48 49 49 48 49 49 48 49 49 48 49 49 48 49 49 48 49 49 48 49 49 48 49 49 48 49 49 48 49 49 48 49 49 48 49 49 48 49 49 48 49 49 48 49 49 48 49 49 48 49 49 48 49 49 48 49 49 48 49 49 48 49 49 48 49 49 48 49 49 48 49 49 48 49 49 48 49 49 48 49 49 48 49 49 48 49 49 48 49 49 48 49 49 48 49 49 48 49 49 48 49 49 48 49 49 48 49 49 48 49 49 48 49 49 48 49 49 48 49 49 48 49 49 48 49 49 48 49 49 48 49 49 48 49 49 48 49 49 48 49 49 48 49 49 48 49 49 48 49 49 48 49 49 48 49 49 48 49 49 48 49 49 48 49 49 48 49 49 48 49 49 48 49 49 48 49 49 48 49 49 48 49 49 48 49 49 48 49 49 48 49 49 48 49 49 48 49 49 48 49 49 48 49 49 48 49 49 48 49 49 48 49 49 48 49 49 48 49 49 48 49 49 48 49 49 48 49 49 48 49 49 48 49 49 48 49 49 48 49 49 48 49 49 48 49 49 48 49 49 48 49 49 48 49 49 48 49 49 48 49 49 48 49 49 48 49 49 48 49 49 48 49 49 48 49 49 48 49 49 48 49 49 48 49 49 48 49 49 48 49 49 48 49 49 48 49 49 48 49 49 48 49 49 48 49 49 48 49 49 48 49 49 48 49 49 48 49 49 48 49 49 48 49 49 48 49 49 48 49 49 48 49 49 48 49 49 48 49 49 48 49 49 48 49 49 48 49 49 48 49 49 48 49 49 48 49 49 48 49 49 48 49 49 48 49
49 48 49 49 48 49 49 48 49 49 48 49 49 48 49 49 48 49 49 48 49 49 48 49 49 48 49 49 48 49 49 48 49 49 48 49 49 48 49 49 48 49 49 48 49 49 48 49 49 48 49 49 48 49 49 48 49 49 48 49 49 48 49 49 48 49 49 48 49 49 48 49 49 48 49 49 48 49 49 48 49 49 48 49 49 48 49 49 48 49 49 48 49 49 48 49 49 48 49 49 48 49 49 48 49 49 48 49 49 48 49 49 48 49 49 48 49 49 48 49 49 48 49 49 48 49 49 48 49 49 48 49 49 48 49 49 48 49 49 48 49 49 48 49 49 48 49 49 48 49 49 48 49 49 48 49 49 48 49 49 48 49 49 48 49 49 48 49 49 48 49 49 48 49 49 48 49 49 48 49 49 48 49 49 48 49 49 48 49 49 48 49 49 48 49 49 48 49 49 48 49 49 48 49 49 48 49 49 48 49 49 48 49 49 48 49 49 48 49 49 48 49 49 48 49 49 48 49 49 48 49 49 48 49 49 48 49 49 48 49 49 48 49 49 48 49 49 48 49 49 48 49 49 48 49 49 48 49 49 48 49 49 48 49 49 48 49 49 48 49 49 48 49 49 48 49 49 48 49 49 48 49 49 48 49 49 48 49 49 48 49 49 48 49 49 48 49 49 48 49 49 48 49 49 48 49 49 48 49 49 48 49 49 48 49 49 48 49 49 48 49 49 48 49 49 48 49 49 48 49 49 48 49 49 48 49 49 48 49 49 48 49 49 48 49 49 48 49 49 48 49 49 48 49 49 48 49 49 48 49 49 48 49 49 48 49 49 48 49 49 48 49 49 48 49 49 48 49 49 48 49 49 48 49
49 48 49 49 48 49 49 48 49 49 48 49 49 48 49 49 48 49 49 48 49 49 48 49 49 48 49 49 48 49 49 48 49 49 48 49 49 48 49 49 48 49 49 48 49 49 48 49 49 48 49 49 48 49 49 48 49 49 48 49 49 48 49 49 48 49 49 48 49 49 48 49 49 48 49 49 48 49 49 48 49 49 48 49 49 48 49 49 48 49 49 48 49 49 48 49 49 48 49 49 48 49 49 48 49 49 48 49 49 48 49 49 48 49 49 48 49 49 48 49 49 48 49 49 48 49 49 48 49 49 48 49 49 48 49 49 48 49 49 48 49 49 48 49 49 48 49 49 48 49 49 48 49 49 48 49 49 48 49 49 48 49 49 48 49 49 48 49 49 48 49 49 48 49 49 48 49 49 48 49 49 48 49 49 48 49 49 48 49 49 48 49 49 48 49 49 48 49 49 48 49 49 48 49 49 48 49 49 48 49 49 48 49 49 48 49 49 48 49 49 48 49 49 48 49 49 48 49 49 48 49 49 48 49 49 48 49 49 48 49 49 48 49 49 48 49 49 48 49 49 48 49 49 48 49 49 48 49 49 48 49 49 48 49 49 48 49 49 48 49 49 48 49 49 48 49 49 48 49 49 48 49 49 48 49 49 48 49 49 48 49 49 48 49 49 48 49 49 48 49 49 48 49 49 48 49 49 48 49 49 48 49 49 48 49 49 48 49 49 48 49 49 48 49 49 48 49 49 48 49 49 48 49 49 48 49 49 48 49 49 48 49 49 48 49 49 48 49 49 48 49 49 48 49 49 48 49 49 48 49 49 48 49 49 48 49 49 48 49 49 48 49 49 48 49 49 48 49 49 48 49 49 48 49
49 48 49 49 48 49 49 48 49 49 48 49 49 48 49 49 48 49 49 48 49 49 48 49 49 48 49 49 48 49 49 48 49 49 48 49 49 48 49 49 48 49 49 48 49 49 48 49 49 48 49 49 48 49 49 48 49 49 48 49 49 48 49 49 48 49 49 48 49 49 48 49 49 48 49 49 48 49 49 48 49 49 48 49 49 48 49 49 48 49 49 48 49 49 48 49 49 48 49 49 48 49 49 48 49 49 48 49 49 48 49 49 48 49 49 48 49 49 48 49 49 48 49 49 48 49 49 48 49 49 48 49 49 48 49 49 48 49 49 48 49 49 48 49 49 48 49 49 48 49 49 48 49 49 48 49 49 48 49 49 48 49 49 48 49 49 48 49 49 48 49 49 48 49 49 48 49 49 48 49 49 48 49 49 48 49 49 48 49 49 48 49 49 48 49 49 48 49 49 48 49 49 48 49 49 48 49 49 48 49 49 48 49 49 48 49 49 48 49 49 48 49 49 48 49 49 48 49 49 48 49 49 48 49 49 48 49 49 48 49 49 48 49 49 48 49 49 48 49 49 48 49 49 48 49 49 48 49 49 48 49 49 48 49 49 48 49 49 48 49 49 48 49 49 48 49 49 48 49 49 48 49 49 48 49 49 48 49 49 48 49 49 48 49 49 48 49 49 48 49 49 48 49 49 48 49 49 48 49 49 48 49 49 48 49 49 48 49 49 48 49 49 48 49 49 48 49 49 48 49 49 48 49 49 48 49 49 48 49 49 48 49 49 48 49 49 48 49 49 48 49 49 48 49 49 48 49 49 48 49 49 48 49 49 48 49 49 48 49 49 48 49 49 48 49 49 48 49 49 48 49 49 48 49
49 48 49 49 48 49 49 48 49 49 48 49 49 48 49 49 48 49 49 48 49 49 48 49 49 48 49 49 48 49 49 48 49 49 48 49 49 48 49 49 48 49 49 48 49 49 48 49 49 48 49 49 48 49 49 48 49 49 48 49 49 48 49 49 48 49 49 48 49 49 48 49 49 48 49 49 48 49 49 48 49 49 48 49 49 48 49 49 48 49 49 48 49 49 48 49 49 48 49 49 48 49 49 48 49 49 48 49 49 48 49 49 48 49 49 48 49 49 48 49 49 48 49 49 48 49 49 48 49 49 48 49 49 48 49 49 48 49 49 48 49 49 48 49 49 48 49 49 48 49 49 48 49 49 48 49 49 48 49 49 48 49 49 48 49 49 48 49 49 48 49 49 48 49 49 48 49 49 48 49 49 48 49 49 48 49 49 48 49 49 48 49 49 48 49 49 48 49 49 48 49 49 48 49 49 48 49 49 48 49 49 48 49 49 48 49 49 48 49 49 48 49 49 48 49 49 48 49 49 48 49 49 48 49 49 48 49 49 48 49 49 48 49 49 48 49 49 48 49 49 48 49 49 48 49 49 48 49 49 48 49 49 48 49 49 48 49 49 48 49 49 48 49 49 48 49 49 48 49 49 48 49 49 48 49 49 48 49 49 48 49 49 48 49 49 48 49 49 48 49 49 48 49 49 48 49 49 48 49 49 48 49 49 48 49 49 48 49 49 48 49 49 48 49 49 48 49 49 48 49 49 48 49 49 48 49 49 48 49 49 48 49 49 48 49 49 48 49 49 48 49 49 48 49 49 48 49 49 48 49 49 48 49 49 48 49 49 48 49 49 48 49 49 48 49 49 48 49 49 48 49 49 48 49
49 48 49 49 48 49 49 48 49 49 48 49 49 48 49 49 48 49 49 48 49 49 48 49 49 48 49 49 48 49 49 48 49 49 48 49 49 48 49 49 48 49 49 48 49 49 48 49 49 48 49 49 48 49 49 48 49 49 48 49 49 48 49 49 48 49 49 48 49 49 48 49 49 48 49 49 48 49 49 48 49 49 48 49 49 48 49 49 48 49 49 48 49 49 48 49 49 48 49 49 48 49 49 48 49 49 48 49 49 48 49 49 48 49 49 48 49 49 48 49 49 48 49 49 48 49 49 48 49 49 48 49 49 48 49 49 48 49 49 48 49 49 48 49 49 48 49 49 48 49 49 48 49 49 48 49 49 48 49 49 48 49 49 48 49 49 48 49 49 48 49 49 48 49 49 48 49 49 48 49 49 48 49 49 48 49 49 48 49 49 48 49 49 48 49 49 48 49 49 48 49 49 48 49 49 48 49 49 48 49 49 48 49 49 48 49 49 48 49 49 48 49 49 48 49 49 48 49 49 48 49 49 48 49 49 48 49 49 48 49 49 48 49 49 48 49 49 48 49 49 48 49 49 48 49 49 48 49 49 48 49 49 48 49 49 48 49 49 48 49 49 48 49 49 48 49 49 48 49 49 48 49 49 48 49 49 48 49 49 48 49 49 48 49 49 48 49 49 48 49 49 48 49 49 48 49 49 48 49 49 48 49 49 48 49 49 48 49 49 48 49 49 48 49 49 48 49 49 48 49 49 48 49 49 48 49 49 48 49 49 48 49 49 48 49 49 48 49 49 48 49 49 48 49 49 48 49 49 48 49 49 48 49 49 48 49 49 48 49 49 48 49 49 48 49 49 48 49 49 48 49 49 48 49
49 48 49 49 48 49 49 48 49 49 48 49 49 48 49 49 48 49 49 48 49 49 48 49 49 48 49 49 48 49 49 48 49 49 48 49 49 48 49 49 48 49 49 48 49 49 48 49 49 48 49 49 48 49 49 48 49 49 48 49 49 48 49 49 48 49 49 48 49 49 48 49 49 48 49 49 48 49 49 48 49 49 48 49 49 48 49 49 48 49 49 48 49 49 48 49 49 48 49 49 48 49 49 48 49 49 48 49 49 48 49 49 48 49 49 48 49 49 48 49 49 48 49 49 48 49 49 48 49 49 48 49 49 48 49 49 48 49 49 48 49 49 48 49 49 48 49 49 48 49 49 48 49 49 48 49 49 48 49 49 48 49 49 48 49 49 48 49 49 48 49 49 48 49 49 48 49 49 48 49 49 48 49 49 48 49 49 48 49 49 48 49 49 48 49 49 48 49 49 48 49 49 48 49 49 48 49 49 48 49 49 48 49 49 48 49 49 48 49 49 48 49 49 48 49 49 48 49 49 48 49 49 48 49 49 48 49 49 48 49 49 48 49 49 48 49 49 48 49 49 48 49 49 48 49 49 48 49 49 48 49 49 48 49 49 48 49 49 48 49 49 48 49 49 48 49 49 48 49 49 48 49 49 48 49 49 48 49 49 48 49 49 48 49 49 48 49 49 48 49 49 48 49 49 48 49 49 48 49 49 48 49 49 48 49 49 48 49 49 48 49 49 48 49 49 48 49 49 48 49 49 48 49 49 48 49 49 48 49 49 48 49 49 48 49 49 48 49 49 48 49 49 48 49 49 48 49 49 48 49 49 48 49 49 48 49 49 48 49 49 48 49 49 48 49 49 48 49 49 48 49 49 48 49
49 48 49 49 48 49 49 48 49 49 48 49 49 48 49 49 48 49 49 48 49 49 48 49 49 48 49 49 48 49 49 48 49 49 48 49 49 48 49 49 48 49 49 48 49 49 48 49 49 48 49 49 48 49 49 48 49 49 48 49 49 48 49 49 48 49 49 48 49 49 48 49 49 48 49 49 48 49 49 48 49 49 48 49 49 48 49 49 48 49 49 48 49 49 48 49 49 48 49 49 48 49 49 48 49 49 48 49 49 48 49 49 48 49 49 48 49 49 48 49 49 48 49 49 48 49 49 48 49 49 48 49 49 48 49 49 48 49 49 48 49 49 48 49 49 48 49 49 48 49 49 48 49 49 48 49 49 48 49 49 48 49 49 48 49 49 48 49 49 48 49 49 48 49 49 48 49 49 48 49 49 48 49 49 48 49 49 48 49 49 48 49 49 48 49 49 48 49 49 48 49 49 48 49 49 48 49 49 48 49 49 48 49 49 48 49 49 48 49 49 48 49 49 48 49 49 48 49 49 48 49 49 48 49 49 48 49 49 48 49 49 48 49 49 48 49 49 48 49 49 48 49 49 48 49 49 48 49 49 48 49 49 48 49 49 48 49 49 48 49 49 48 49 49 48 49 49 48 49 49 48 49 49 48 49 49 48 49 49 48 49 49 48 49 49 48 49 49 48 49 49 48 49 49 48 49 49 48 49 49 48 49 49 48 49 49 48 49 49 48 49 49 48 49 49 48 49 49 48 49 49 48 49 49 48 49 49 48 49 49 48 49 49 48 49 49 48 49 49 48 49 49 48 49 49 48 49 49 48 49 49 48 49 49 48 49 49 48 49 49 48 49 49 48 49 49 48 49 49 48 49 49 48 49
