P3
128 128
255
49 48 49 49 48 49 49 48 49 49 48 49 49 48 49 49 48 49 49 48 49 49 48 49 49 48 49 49 48 49 49 48 49 49 48 49 49 48 49 49 48 49 49 48 49 49 48 49 49 48 49 49 48 49 49 48 49 49 48 49 49 48 49 49 48 49 49 48 49 49 48 49 49 48 49 49 48 49 49 48 49 49 48 49 49 48 49 49 48 49 49 48 49 49 48 49 49 48 49 49 48 49 49 48 49 49 48 49 49 48 49 49 48 49 49 48 49 49 48 49 49 48 49 49 48 49 49 48 49 49 48 49 49 48 49 49 48 49 49 48 49 49 48 49 49 48 49 49 48 49 49 48 49 49 48 49 49 48 49 49 48 49 49 48 49 49 48 49 49 48 49 49 48 49 49 48 49 49 48 49 49 48 49 49 48 49 49 48 49 49 48 49 49 48 49 49 48 49 49 48 49 49 48 49 49 48 49 49 48 49 49 48 49 49 48 49 49 48 49 49 48 49 49 48 49 49 48 49 49 48 49 49 48 49 49 48 49 49 48 49 49 48 49 49 48 49 49 48 49 49 48 49 49 48 49 49 48 49 49 48 49 49 48 49 49 48 49 49 48 49 49 48 49 49 48 49 49 48 49 49 48 49 49 48 49 49 48 49 49 48 49 49 48 49 49 48 49 49 48 49 49 48 49 49 48 49 49 48 49 49 48 49 49 48 49 49 48 49 49 48 49 49 48 49 49 48 49 49 48 49 49 48 49 49 48 49 49 48 49 49 48 49 49 48 49 49 48 49 49 48 49 49 48 49 49 48 49 49 48 49 49 48 49 49 48 49 49 48 49 49 48 49 49 48 49 49 48 49 49 48 49 49 48 49
49 48 49 49 48 49 49 48 49 49 48 49 49 48 49 49 48 49 49 48 49 49 48 49 49 48 49 49 48 49 49 48 49 49 48 49 49 48 49 49 48 49 49 48 49 49 48 49 49 48 49 49 48 49 49 48 49 49 48 49 49 48 49 49 48 49 49 48 49 49 48 49 49 48 49 49 48 49 49 48 49 49 48 49 49 48 49 49 48 49 49 48 49 49 48 49 49 48 49 49 48 49 49 48 49 49 48 49 49 48 49 49 48 49 49 48 49 49 48 49 49 48 49 49 48 49 49 48 49 49 48 49 49 48 49 49 48 49 49 48 49 49 48 49 49 48 49 49 48 49 49 48 49 49 48 49 49 48 49 49 48 49 49 48 49 49 48 49 49 48 49 49 48 49 49 48 49 49 48 49 49 48 49 49 48 49 49 48 49 49 48 49 49 48 49 49 48 49 49 48 49 49 48 49 49 48 49 49 48 49 49 48 49 49 48 49 49 48 49 49 48 49 49 48 49 49 48 49 49 48 49 49 48 49 49 48 49 49 48 49 49 48 49 49 48 49 49 48 49 49 48 49 49 48 49 49 48 49 49 48 49 49 48 49 49 48 49 49 48 49 49 48 49 49 48 49 49 48 49 49 48 49 49 48 49 49 48 49 49 48 49 49 48 49 49 48 49 49 48 49 49 48 49 49 48 49 49 48 49 49 48 49 49 48 49 49 48 49 49 48 49 49 48 49 49 48 49 49 48 49 49 48 49 49 48 49 49 48 49 49 48 49 49 48 49 49 48 49 49 48 49 49 48 49 49 48 49 49 48 49 49 48 49 49 48 49 49 48 49 49 48 49 49 48 49 49 48 49 49 48 49 49 48 49
49 48 49 49 48 49 49 48 49 49 48 49 49 48 49 49 48 49 49 48 49 49 48 49 49 48 49 49 48 49 49 48 49 49 48 49 49 48 49 49 48 49 49 48 49 49 48 49 49 48 49 49 48 49 49 48 49 49 48 49 49 48 49 49 48 49 49 48 49 49 48 49 49 48 49 49 48 49 49 48 49 49 48 49 49 48 49 49 48 49 49 48 49 49 48 49 49 48 49 49 48 49 49 48 49 49 48 49 49 48 49 49 48 49 49 48 49 49 48 49 49 48 49 49 48 49 49 48 49 49 48 49 49 48 49 49 48 49 49 48 49 49 48 49 49 48 49 49 48 49 49 48 49 49 48 49 49 48 49 49 48 49 49 48 49 49 48 49 49 48 49 49 48 49 49 48 49 49 48 49 49 48 49 49 48 49 49 48 49 49 48 49 49 48 49 49 48 49 49 48 49 49 48 49 49 48 49 49 48 49 49 48 49 49 48 49 49 48 49 49 48 49 49 48 49 49 48 49 49 48 49 49 48 49 49 48 49 49 48 49 49 48 49 49 48 49 49 48 49 49 48 49 49 48 49 49 48 49 49 48 49 49 48 49 49 48 49 49 48 49 49 48 49 49 48 49 49 48 49 49 48 49 49 48 49 49 48 49 49 48 49 49 48 49 49 48 49 49 48 49 49 48 49 49 48 49 49 48 49 49 48 49 49 48 49 49 48 49 49 48 49 49 48 49 49 48 49 49 48 49 49 48 49 49 48 49 49 48 49 49 48 49 49 48 49 49 48 49 49 48 49 49 48 49 49 48 49 49 48 49 49 48 49 49 48 49 49 48 49 49 48 49 49 48 49 49 48 49 49 48 49 49 48 49
49 48 49 49 48 49 49 48 49 49 48 49 49 48 49 49 48 49 49 48 49 49 48 49 49 48 49 49 48 49 49 48 49 49 48 49 49 48 49 49 48 49 49 48 49 49 48 49 49 48 49 49 48 49 49 48 49 49 48 49 49 48 49 49 48 49 49 48 49 49 48 49 49 48 49 49 48 49 49 48 49 49 48 49 49 48 49 49 48 49 49 48 49 49 48 49 49 48 49 49 48 49 49 48 49 49 48 49 49 48 49 49 48 49 49 48 49 49 48 49 49 48 49 49 48 49 49 48 49 49 48 49 49 48 49 49 48 49 49 48 49 49 48 49 49 48 49 49 48 49 49 48 49 49 48 49 49 48 49 49 48 49 49 48 49 49 48 49 49 48 49 49 48 49 49 48 49 49 48 49 49 48 49 49 48 49 49 48 49 49 48 49 49 48 49 49 48 49 49 48 49 49 48 49 49 48 49 49 48 49 49 48 49 49 48 49 49 48 49 49 48 49 49 48 49 49 48 49 49 48 49 49 48 49 49 48 49 49 48 49 49 48 49 49 48 49 49 48 49 49 48 49 49 48 49 49 48 49 49 48 49 49 48 49 49 48 49 49 48 49 49 48 49 49 48 49 49 48 49 49 48 49 49 48 49 49 48 49 49 48 49 49 48 49 49 48 49 49 48 49 49 48 49 49 48 49 49 48 49 49 48 49 49 48 49 49 48 49 49 48 49 49 48 49 49 48 49 49 48 49 49 48 49 49 48 49 49 48 49 49 48 49 49 48 49 49 48 49 49 48 49 49 48 49 49 48 49 49 48 49 49 48 49 49 48 49 49 48 49 49 48 49 49 48 49 49 48 49 49 48 49 49 48 49
49 48 49 49 48 49 49 48 49 49 48 49 49 48 49 49 48 49 49 48 49 49 48 49 49 48 49 49 48 49 49 48 49 49 48 49 49 48 49 49 48 49 49 48 49 49 48 49 49 48 49 49 48 49 49 48 49 49 48 49 49 48 49 49 48 49 49 48 49 49 48 49 49 48 49 49 48 49 49 48 49 49 48 49 49 48 49 49 48 49 49 48 49 49 48 49 49 48 49 49 48 49 49 48 49 49 48 49 49 48 49 49 48 49 49 48 49 49 48 49 49 48 49 49 48 49 49 48 49 49 48 49 49 48 49 49 48 49 49 48 49 49 48 49 49 48 49 49 48 49 49 48 49 49 48 49 49 48 49 49 48 49 49 48 49 49 48 49 49 48 49 49 48 49 49 48 49 49 48 49 49 48 49 49 48 49 49 48 49 49 48 49 49 48 49 49 48 49 49 48 49 49 48 49 49 48 49 49 48 49 49 48 49 49 48 49 49 48 49 49 48 49 49 48 49 49 48 49 49 48 49 49 48 49 49 48 49 49 48 49 49 48 49 49 48 49 49 48 49 49 48 49 49 48 49 49 48 49 49 48 49 49 48 49 49 48 49 49 48 49 49 48 49 49 48 49 49 48 49 49 48 49 49 48 49 49 48 49 49 48 49 49 48 49 49 48 49 49 48 49 49 48 49 49 48 49 49 48 49 49 48 49 49 48 49 49 48 49 49 48 49 49 48 49 49 48 49 49 48 49 49 48 49 49 48 49 49 48 49 49 48 49 49 48 49 49 48 49 49 48 49 49 48 49 49 48 49 49 48 49 49 48 49 49 48 49 49 48 49 49 48 49 49 48 49 49 48 49 49 48 49 49 48 49
49 48 49 49 48 49 49 48 49 49 48 49 49 48 49 49 48 49 49 48 49 49 48 49 49 48 49 49 48 49 49 48 49 49 48 49 49 48 49 49 48 49 49 48 49 49 48 49 49 48 49 49 48 49 49 48 49 49 48 49 49 48 49 49 48 49 49 48 49 49 48 49 49 48 49 49 48 49 49 48 49 49 48 49 49 48 49 49 48 49 49 48 49 49 48 49 49 48 49 49 48 49 49 48 49 49 48 49 49 48 49 49 48 49 49 48 49 49 48 49 49 48 49 49 48 49 49 48 49 49 48 49 49 48 49 49 48 49 49 48 49 49 48 49 49 48 49 49 48 49 49 48 49 49 48 49 49 48 49 49 48 49 49 48 49 49 48 49 49 48 49 49 48 49 49 48 49 49 48 49 49 48 49 49 48 49 49 48 49 49 48 49 49 48 49 49 48 49 49 48 49 49 48 49 49 48 49 49 48 49 49 48 49 49 48 49 49 48 49 49 48 49 49 48 49 49 48 49 49 48 49 49 48 49 49 48 49 49 48 49 49 48 49 49 48 49 49 48 49 49 48 49 49 48 49 49 48 49 49 48 49 49 48 49 49 48 49 49 48 49 49 48 49 49 48 49 49 48 49 49 48 49 49 48 49 49 48 49 49 48 49 49 48 49 49 48 49 49 48 49 49 48 49 49 48 49 49 48 49 49 48 49 49 48 49 49 48 49 49 48 49 49 48 49 49 48 49 49 48 49 49 48 49 49 48 49 49 48 49 49 48 49 49 48 49 49 48 49 49 48 49 49 48 49 49 48 49 49 48 49 49 48 49 49 48 49 49 48 49 49 48 49 49 48 49 49 48 49 49 48 49 49 48 49
49 48 49 49 48 49 49 48 49 49 48 49 49 48 49 49 48 49 49 48 49 49 48 49 49 48 49 49 48 49 49 48 49 49 48 49 49 48 49 49 48 49 49 48 49 49 48 49 49 48 49 49 48 49 49 48 49 49 48 49 49 48 49 49 48 49 49 48 49 49 48 49 49 48 49 49 48 49 49 48 49 49 48 49 49 48 49 49 48 49 49 48 49 49 48 49 49 48 49 49 48 49 49 48 49 49 48 49 49 48 49 49 48 49 49 48 49 49 48 49 49 48 49 49 48 49 49 48 49 49 48 49 49 48 49 49 48 49 49 48 49 49 48 49 49 48 49 49 48 49 49 48 49 49 48 49 49 48 49 49 48 49 49 48 49 49 48 49 49 48 49 49 48 49 49 48 49 49 48 49 49 48 49 49 48 49 49 48 49 49 48 49 49 48 49 49 48 49 49 48 49 49 48 49 49 48 49 49 48 49 49 48 49 49 48 49 49 48 49 49 48 49 49 48 49 49 48 49 49 48 49 49 48 49 49 48 49 49 48 49 49 48 49 49 48 49 49 48 49 49 48 49 49 48 49 49 48 49 49 48 49 49 48 49 49 48 49 49 48 49 49 48 49 49 48 49 49 48 49 49 48 49 49 48 49 49 48 49 49 48 49 49 48 49 49 48 49 49 48 49 49 48 49 49 48 49 49 48 49 49 48 49 49 48 49 49 48 49 49 48 49 49 48 49 49 48 49 49 48 49 49 48 49 49 48 49 49 48 49 49 48 49 49 48 49 49 48 49 49 48 49 49 48 49 49 48 49 49 48 49 49 48 49 49 48 49 49 48 49 49 48 49 49 48 49 49 48 49 49 48 49 49 48 49
49 48 49 49 48 49 49 48 49 49 48 49 49 48 49 49 48 49 49 48 49 49 48 49 49 48 49 49 48 49 49 48 49 49 48 49 49 48 49 49 48 49 49 48 49 49 48 49 49 48 49 49 48 49 49 48 49 49 48 49 49 48 49 49 48 49 49 48 49 49 48 49 49 48 49 49 48 49 49 48 49 49 48 49 49 48 49 49 48 49 49 48 49 49 48 49 49 48 49 49 48 49 49 48 49 49 48 49 49 48 49 49 48 49 49 48 49 49 48 49 49 48 49 49 48 49 49 48 49 49 48 49 49 48 49 49 48 49 49 48 49 49 48 49 49 48 49 49 48 49 49 48 49 49 48 49 49 48 49 49 48 49 49 48 49 49 48 49 49 48 49 49 48 49 49 48 49 49 48 49 49 48 49 49 48 49 49 48 49 49 48 49 49 48 49 49 48 49 49 48 49 49 48 49 49 48 49 49 48 49 49 48 49 49 48 49 49 48 49 49 48 49 49 48 49 49 48 49 49 48 49 49 48 49 49 48 49 49 48 49 49 48 49 49 48 49 49 48 49 49 48 49 49 48 49 49 48 49 49 48 49 49 48 49 49 48 49 49 48 49 49 48 49 49 48 49 49 48 49 49 48 49 49 48 49 49 48 49 49 48 49 49 48 49 49 48 49 49 48 49 49 48 49 49 48 49 49 48 49 49 48 49 49 48 49 49 48 49 49 48 49 49 48 49 49 48 49 49 48 49 49 48 49 49 48 49 49 48 49 49 48 49 49 48 49 49 48 49 49 48 49 49 48 49 49 48 49 49 48 49 49 48 49 49 48 49 49 48 49 49 48 49 49 48 49 49 48 49 49 48 49 49 48 49
49 48 49 49 48 49 49 48 49 49 48 49 49 48 49 49 48 49 49 48 49 49 48 49 49 48 49 49 48 49 49 48 49 49 48 49 49 48 49 49 48 49 49 48 49 49 48 49 49 48 49 49 48 49 49 48 49 49 48 49 49 48 49 49 48 49 49 48 49 49 48 49 49 48 49 49 48 49 49 48 49 49 48 49 49 48 49 49 48 49 49 48 49 49 48 49 49 48 49 49 48 49 49 48 49 49 48 49 49 48 49 49 48 49 49 48 49 49 48 49 49 48 49 49 48 49 49 48 49 49 48 49 49 48 49 49 48 49 49 48 49 49 48 49 49 48 49 49 48 49 49 48 49 49 48 49 49 48 49 49 48 49 49 48 49 49 48 49 49 48 49 49 48 49 49 48 49 49 48 49 49 48 49 49 48 49 49 48 49 49 48 49 49 48 49 49 48 49 49 48 49 49 48 49 49 48 49 49 48 49 49 48 49 49 48 49 49 48 49 49 48 49 49 48 49 49 48 49 49 48 49 49 48 49 49 48 49 49 48 49 49 48 49 49 48 49 49 48 49 49 48 49 49 48 49 49 48 49 49 48 49 49 48 49 49 48 49 49 48 49 49 48 49 49 48 49 49 48 49 49 48 49 49 48 49 49 48 49 49 48 49 49 48 49 49 48 49 49 48 49 49 48 49 49 48 49 49 48 49 49 48 49 49 48 49 49 48 49 49 48 49 49 48 49 49 48 49 49 48 49 49 48 49 49 48 49 49 48 49 49 48 49 49 48 49 49 48 49 49 48 49 49 48 49 49 48 49 49 48 49 49 48 49 49 48 49 49 48 49 49 48 49 49 48 49 49 48 49 49 48 49 49 48 49
49 48 49 49 48 49 49 48 49 49 48 49 49 48 49 49 48 49 49 48 49 49 48 49 49 48 49 49 48 49 49 48 49 49 48 49 49 48 49 49 48 49 49 48 49 49 48 49 49 48 49 49 48 49 49 48 49 49 48 49 49 48 49 49 48 49 49 48 49 49 48 49 49 48 49 49 48 49 49 48 49 49 48 49 49 48 49 49 48 49 49 48 49 49 48 49 49 48 49 49 48 49 49 48 49 49 48 49 49 48 49 49 48 49 49 48 49 49 48 49 49 48 49 49 48 49 49 48 49 49 48 49 49 48 49 49 48 49 49 48 49 49 48 49 49 48 49 49 48 49 49 48 49 49 48 49 49 48 49 49 48 49 49 48 49 49 48 49 49 48 49 49 48 49 49 48 49 49 48 49 49 48 49 49 48 49 49 48 49 49 48 49 49 48 49 49 48 49 49 48 49 49 48 49 49 48 49 49 48 49 49 48 49 49 48 49 49 48 49 49 48 49 49 48 49 49 48 49 49 48 49 49 48 49 49 48 49 49 48 49 49 48 49 49 48 49 49 48 49 49 48 49 49 48 49 49 48 49 49 48 49 49 48 49 49 48 49 49 48 49 49 48 49 49 48 49 49 48 49 49 48 49 49 48 49 49 48 49 49 48 49 49 48 49 49 48 49 49 48 49 49 48 49 49 48 49 49 48 49 49 48 49 49 48 49 49 48 49 49 48 49 49 48 49 49 48 49 49 48 49 49 48 49 49 48 49 49 48 49 49 48 49 49 48 49 49 48 49 49 48 49 49 48 49 49 48 49 49 48 49 49 48 49 49 48 49 49 48 49 49 48 49 49 48 49 49 48 49 49 48 49 49 48 49
49 48 49 49 48 49 49 48 49 49 48 49 49 48 49 49 48 49 49 48 49 49 48 49 49 48 49 49 48 49 49 48 49 49 48 49 49 48 49 49 48 49 49 48 49 49 48 49 49 48 49 49 48 49 49 48 49 49 48 49 49 48 49 49 48 49 49 48 49 49 48 49 49 48 49 49 48 49 49 48 49 49 48 49 49 48 49 49 48 49 49 48 49 49 48 49 49 48 49 49 48 49 49 48 49 49 48 49 49 48 49 49 48 49 49 48 49 49 48 49 49 48 49 49 48 49 49 48 49 49 48 49 49 48 49 49 48 49 49 48 49 49 48 49 49 48 49 49 48 49 49 48 49 49 48 49 49 48 49 49 48 49 49 48 49 49 48 49 49 48 49 49 48 49 49 48 49 49 48 49 49 48 49 49 48 49 49 48 49 49 48 49 49 48 49 49 48 49 49 48 49 49 48 49 49 48 49 49 48 49 49 48 49 49 48 49 49 48 49 49 48 49 49 48 49 49 48 49 49 48 49 49 48 49 49 48 49 49 48 49 49 48 49 49 48 49 49 48 49 49 48 49 49 48 49 49 48 49 49 48 49 49 48 49 49 48 49 49 48 49 49 48 49 49 48 49 49 48 49 49 48 49 49 48 49 49 48 49 49 48 49 49 48 49 49 48 49 49 48 49 49 48 49 49 48 49 49 48 49 49 48 49 49 48 49 49 48 49 49 48 49 49 48 49 49 48 49 49 48 49 49 48 49 49 48 49 49 48 49 49 48 49 49 48 49 49 48 49 49 48 49 49 48 49 49 48 49 49 48 49 49 48 49 49 48 49 49 48 49 49 48 49 49 48 49 49 48 49 49 48 49 49 48 49
49 48 49 49 48 49 49 48 49 49 48 49 49 48 49 49 48 49 49 48 49 49 48 49 49 48 49 49 48 49 49 48 49 49 48 49 49 48 49 49 48 49 49 48 49 49 48 49 49 48 49 49 48 49 49 48 49 49 48 49 49 48 49 49 48 49 49 48 49 49 48 49 49 48 49 49 48 49 49 48 49 49 48 49 49 48 49 49 48 49 49 48 49 49 48 49 49 48 49 49 48 49 49 48 49 49 48 49 49 48 49 49 48 49 49 48 49 49 48 49 49 48 49 49 48 49 49 48 49 49 48 49 49 48 49 49 48 49 49 48 49 49 48 49 49 48 49 49 48 49 49 48 49 49 48 49 49 48 49 49 48 49 49 48 49 49 48 49 49 48 49 49 48 49 49 48 49 49 48 49 49 48 49 49 48 49 49 48 49 49 48 49 49 48 49 49 48 49 49 48 49 49 48 49 49 48 49 49 48 49 49 48 49 49 48 49 49 48 49 49 48 49 49 48 49 49 48 49 49 48 49 49 48 49 49 48 49 49 48 49 49 48 49 49 48 49 49 48 49 49 48 49 49 48 49 49 48 49 49 48 49 49 48 49 49 48 49 49 48 49 49 48 49 49 48 49 49 48 49 49 48 49 49 48 49 49 48 49 49 48 49 49 48 49 49 48 49 49 48 49 49 48 49 49 48 49 49 48 49 49 48 49 49 48 49 49 48 49 49 48 49 49 48 49 49 48 49 49 48 49 49 48 49 49 48 49 49 48 49 49 48 49 49 48 49 49 48 49 49 48 49 49 48 49 49 48 49 49 48 49 49 48 49 49 48 49 49 48 49 49 48 49 49 48 49 49 48 49 49 48 49 49 48 49
49 48 49 49 48 49 49 48 49 49 48 49 49 48 49 49 48 49 49 48 49 49 48 49 49 48 49 49 48 49 49 48 49 49 48 49 49 48 49 49 48 49 49 48 49 49 48 49 49 48 49 49 48 49 49 48 49 49 48 49 49 48 49 49 48 49 49 48 49 49 48 49 49 48 49 49 48 49 49 48 49 49 48 49 49 48 49 49 48 49 49 48 49 49 48 49 49 48 49 49 48 49 49 48 49 49 48 49 49 48 49 49 48 49 49 48 49 49 48 49 49 48 49 49 48 49 49 48 49 49 48 49 49 48 49 49 48 49 49 48 49 49 48 49 49 48 49 49 48 49 49 48 49 49 48 49 49 48 49 49 48 49 49 48 49 49 48 49 49 48 49 49 48 49 49 48 49 49 48 49 49 48 49 49 48 49 49 48 49 49 48 49 49 48 49 49 48 49 49 48 49 49 48 49 49 48 49 49 48 49 49 48 49 49 48 49 49 48 49 49 48 49 49 48 49 49 48 49 49 48 49 49 48 49 49 48 49 49 48 49 49 48 49 49 48 49 49 48 49 49 48 49 49 48 49 49 48 49 49 48 49 49 48 49 49 48 49 49 48 49 49 48 49 49 48 49 49 48 49 49 48 49 49 48 49 49 48 49 49 48 49 49 48 49 49 48 49 49 48 49 49 48 49 49 48 49 49 48 49 49 48 49 49 48 49 49 48 49 49 48 49 49 48 49 49 48 49 49 48 49 49 48 49 49 48 49 49 48 49 49 48 49 49 48 49 49 48 49 49 48 49 49 48 49 49 48 49 49 48 49 49 48 49 49 48 49 49 48 49 49 48 49 49 48 49 49 48 49 49 48 49 49 48 49
49 48 49 49 48 49 49 48 49 49 48 49 49 48 49 49 48 49 49 48 49 49 48 49 49 48 49 49 48 49 49 48 49 49 48 49 49 48 49 49 48 49 49 48 49 49 48 49 49 48 49 49 48 49 49 48 49 49 48 49 49 48 49 49 48 49 49 48 49 49 48 49 49 48 49 49 48 49 49 48 49 49 48 49 49 48 49 49 48 49 49 48 49 49 48 49 49 48 49 49 48 49 49 48 49 49 48 49 49 48 49 49 48 49 49 48 49 49 48 49 49 48 49 49 48 49 49 48 49 49 48 49 49 48 49 49 48 49 49 48 49 49 48 49 49 48 49 49 48 49 49 48 49 49 48 49 49 48 49 49 48 49 49 48 49 49 48 49 49 48 49 49 48 49 49 48 49 49 48 49 49 48 49 49 48 49 49 48 49 49 48 49 49 48 49 49 48 49 49 48 49 49 48 49 49 48 49 49 48 49 49 48 49 49 48 49 49 48 49 49 48 49 49 48 49 49 48 49 49 48 49 49 48 49 49 48 49 49 48 49 49 48 49 49 48 49 49 48 49 49 48 49 49 48 49 49 48 49 49 48 49 49 48 49 49 48 49 49 48 49 49 48 49 49 48 49 49 48 49 49 48 49 49 48 49 49 48 49 49 48 49 49 48 49 49 48 49 49 48 49 49 48 49 49 48 49 49 48 49 49 48 49 49 48 49 49 48 49 49 48 49 49 48 49 49 48 49 49 48 49 49 48 49 49 48 49 49 48 49 49 48 49 49 48 49 49 48 49 49 48 49 49 48 49 49 48 49 49 48 49 49 48 49 49 48 49 49 48 49 49 48 49 49 48 49 49 48 49 49 48 49 49 48 49
49 48 49 49 48 49 49 48 49 49 48 49 49 48 49 49 48 49 49 48 49 49 48 49 49 48 49 49 48 49 49 48 49 49 48 49 49 48 49 49 48 49 49 48 49 49 48 49 49 48 49 49 48 49 49 48 49 49 48 49 49 48 49 49 48 49 49 48 49 49 48 49 49 48 49 49 48 49 49 48 49 49 48 49 49 48 49 49 48 49 49 48 49 49 48 49 49 48 49 49 48 49 49 48 49 49 48 49 49 48 49 49 48 49 49 48 49 49 48 49 49 48 49 49 48 49 49 48 49 49 48 49 49 48 49 49 48 49 49 48 49 49 48 49 49 48 49 49 48 49 49 48 49 49 48 49 49 48 49 49 48 49 49 48 49 49 48 49 49 48 49 49 48 49 49 48 49 49 48 49 49 48 49 49 48 49 49 48 49 49 48 49 49 48 49 49 48 49 49 48 49 49 48 49 49 48 49 49 48 49 49 48 49 49 48 49 49 48 49 49 48 49 49 48 49 49 48 49 49 48 49 49 48 49 49 48 49 49 48 49 49 48 49 49 48 49 49 48 49 49 48 49 49 48 49 49 48 49 49 48 49 49 48 49 49 48 49 49 48 49 49 48 49 49 48 49 49 48 49 49 48 49 49 48 49 49 48 49 49 48 49 49 48 49 49 48 49 49 48 49 49 48 49 49 48 49 49 48 49 49 48 49 49 48 49 49 48 49 49 48 49 49 48 49 49 48 49 49 48 49 49 48 49 49 48 49 49 48 49 49 48 49 49 48 49 49 48 49 49 48 49 49 48 49 49 48 49 49 48 49 49 48 49 49 48 49 49 48 49 49 48 49 49 48 49 49 48 49 49 48 49 49 48 49
49 48 49 49 48 49 49 48 49 49 48 49 49 48 49 49 48 49 49 48 49 49 48 49 49 48 49 49 48 49 49 48 49 49 48 49 49 48 49 49 48 49 49 48 49 49 48 49 49 48 49 49 48 49 49 48 49 49 48 49 49 48 49 49 48 49 49 48 49 49 48 49 49 48 49 49 48 49 49 48 49 49 48 49 49 48 49 49 48 49 49 48 49 49 48 49 49 48 49 49 48 49 49 48 49 49 48 49 49 48 49 49 48 49 49 48 49 49 48 49 49 48 49 49 48 49 49 48 49 49 48 49 49 48 49 49 48 49 49 48 49 49 48 49 49 48 49 49 48 49 49 48 49 49 48 49 49 48 49 49 48 49 49 48 49 49 48 49 49 48 49 49 48 49 49 48 49 49 48 49 49 48 49 49 48 49 49 48 49 49 48 49 49 48 49 49 48 49 49 48 49 49 48 49 49 48 49 49 48 49 49 48 49 49 48 49 49 48 49 49 48 49 49 48 49 49 48 49 49 48 49 49 48 49 49 48 49 49 48 49 49 48 49 49 48 49 49 48 49 49 48 49 49 48 49 49 48 49 49 48 49 49 48 49 49 48 49 49 48 49 49 48 49 49 48 49 49 48 49 49 48 49 49 48 49 49 48 49 49 48 49 49 48 49 49 48 49 49 48 49 49 48 49 49 48 49 49 48 49 49 48 49 49 48 49 49 48 49 49 48 49 49 48 49 49 48 49 49 48 49 49 48 49 49 48 49 49 48 49 49 48 49 49 48 49 49 48 49 49 48 49 49 48 49 49 48 49 49 48 49 49 48 49 49 48 49 49 48 49 49 48 49 49 48 49 49 48 49 49 48 49 49 48 49
49 48 49 49 48 49 49 48 49 49 48 49 49 48 49 49 48 49 49 48 49 49 48 49 49 48 49 49 48 49 49 48 49 49 48 49 49 48 49 49 48 49 49 48 49 49 48 49 49 48 49 49 48 49 49 48 49 49 48 49 49 48 49 49 48 49 49 48 49 49 48 49 49 48 49 49 48 49 49 48 49 49 48 49 49 48 49 49 48 49 49 48 49 49 48 49 49 48 49 49 48 49 49 48 49 49 48 49 49 48 49 49 48 49 49 48 49 49 48 49 49 48 49 49 48 49 49 48 49 49 48 49 49 48 49 49 48 49 49 48 49 49 48 49 49 48 49 49 48 49 49 48 49 49 48 49 49 48 49 49 48 49 49 48 49 49 48 49 49 48 49 49 48 49 49 48 49 49 48 49 49 48 49 49 48 49 49 48 49 49 48 49 49 48 49 49 48 49 49 48 49 49 48 49 49 48 49 49 48 49 49 48 49 49 48 49 49 48 49 49 48 49 49 48 49 49 48 49 49 48 49 49 48 49 49 48 49 49 48 49 49 48 49 49 48 49 49 48 49 49 48 49 49 48 49 49 48 49 49 48 49 49 48 49 49 48 49 49 48 49 49 48 49 49 48 49 49 48 49 49 48 49 49 48 49 49 48 49 49 48 49 49 48 49 49 48 49 49 48 49 49 48 49 49 48 49 49 48 49 49 48 49 49 48 49 49 48 49 49 48 49 49 48 49 49 48 49 49 48 49 49 48 49 49 48 49 49 48 49 49 48 49 49 48 49 49 48 49 49 48 49 49 48 49 49 48 49 49 48 49 49 48 49 49 48 49 49 48 49 49 48 49 49 48 49 49 48 49 49 48 49 49 48 49
49 48 49 49 48 49 49 48 49 49 48 49 49 48 49 49 48 49 49 48 49 49 48 49 49 48 49 49 48 49 49 48 49 49 48 49 49 48 49 49 48 49 49 48 49 49 48 49 49 48 49 49 48 49 49 48 49 49 48 49 49 48 49 49 48 49 49 48 49 49 48 49 49 48 49 49 48 49 49 48 49 49 48 49 49 48 49 49 48 49 49 48 49 49 48 49 49 48 49 49 48 49 49 48 49 49 48 49 49 48 49 49 48 49 49 48 49 49 48 49 49 48 49 49 48 49 49 48 49 49 48 49 49 48 49 49 48 49 49 48 49 49 48 49 49 48 49 49 48 49 49 48 49 49 48 49 49 48 49 49 48 49 49 48 49 49 48 49 49 48 49 49 48 49 49 48 49 49 48 49 49 48 49 49 48 49 49 48 49 49 48 49 49 48 49 49 48 49 49 48 49 49 48 49 49 48 49 49 48 49 49 48 49 49 48 49 49 48 49 49 48 49 49 48 49 49 48 49 49 48 49 49 48 49 49 48 49 49 48 49 49 48 49 49 48 49 49 48 49 49 48 49 49 48 49 49 48 49 49 48 49 49 48 49 49 48 49 49 48 49 49 48 49 49 48 49 49 48 49 49 48 49 49 48 49 49 48 49 49 48 49 49 48 49 49 48 49 49 48 49 49 48 49 49 48 49 49 48 49 49 48 49 49 48 49 49 48 49 49 48 49 49 48 49 49 48 49 49 48 49 49 48 49 49 48 49 49 48 49 49 48 49 49 48 49 49 48 49 49 48 49 49 48 49 49 48 49 49 48 49 49 48 49 49 48 49 49 48 49 49 48 49 49 48 49 49 48 49 49 48 49 49 48 49
49 48 49 49 48 49 49 48 49 49 48 49 49 48 49 49 48 49 49 48 49 49 48 49 49 48 49 49 48 49 49 48 49 49 48 49 49 48 49 49 48 49 49 48 49 49 48 49 49 48 49 49 48 49 49 48 49 49 48 49 49 48 49 49 48 49 49 48 49 49 48 49 49 48 49 49 48 49 49 48 49 49 48 49 49 48 49 49 48 49 49 48 49 49 48 49 49 48 49 49 48 49 49 48 49 49 48 49 49 48 49 49 48 49 49 48 49 49 48 49 49 48 49 49 48 49 49 48 49 49 48 49 49 48 49 49 48 49 49 48 49 49 48 49 49 48 49 49 48 49 49 48 49 49 48 49 49 48 49 49 48 49 49 48 49 49 48 49 49 48 49 49 48 49 49 48 49 49 48 49 49 48 49 49 48 49 49 48 49 49 48 49 49 48 49 49 48 49 49 48 49 49 48 49 49 48 49 49 48 49 49 48 49 49 48 49 49 48 49 49 48 49 49 48 49 49 48 49 49 48 49 49 48 49 49 48 49 49 48 49 49 48 49 49 48 49 49 48 49 49 48 49 49 48 49 49 48 49 49 48 49 49 48 49 49 48 49 49 48 49 49 48 49 49 48 49 49 48 49 49 48 49 49 48 49 49 48 49 49 48 49 49 48 49 49 48 49 49 48 49 49 48 49 49 48 49 49 48 49 49 48 49 49 48 49 49 48 49 49 48 49 49 48 49 49 48 49 49 48 49 49 48 49 49 48 49 49 48 49 49 48 49 49 48 49 49 48 49 49 48 49 49 48 49 49 48 49 49 48 49 49 48 49 49 48 49 49 48 49 49 48 49 49 48 49 49 48 49 49 48 49 49 48 49
49 48 49 49 48 49 49 48 49 49 48 49 49 48 49 49 48 49 49 48 49 49 48 49 49 48 49 49 48 49 49 48 49 49 48 49 49 48 49 49 48 49 49 48 49 49 48 49 49 48 49 49 48 49 49 48 49 49 48 49 49 48 49 49 48 49 49 48 49 49 48 49 49 48 49 49 48 49 49 48 49 49 48 49 49 48 49 49 48 49 49 48 49 49 48 49 49 48 49 49 48 49 49 48 49 49 48 49 49 48 49 49 48 49 49 48 49 49 48 49 49 48 49 49 48 49 49 48 49 49 48 49 49 48 49 49 48 49 49 48 49 49 48 49 49 48 49 49 48 49 49 48 49 49 48 49 49 48 49 49 48 49 49 48 49 49 48 49 49 48 49 49 48 49 49 48 49 49 48 49 49 48 49 49 48 49 49 48 49 49 48 49 49 48 49 49 48 49 49 48 49 49 48 49 49 48 49 49 48 49 49 48 49 49 48 49 49 48 49 49 48 49 49 48 49 49 48 49 49 48 49 49 48 49 49 48 49 49 48 49 49 48 49 49 48 49 49 48 49 49 48 49 49 48 49 49 48 49 49 48 49 49 48 49 49 48 49 49 48 49 49 48 49 49 48 49 49 48 49 49 48 49 49 48 49 49 48 49 49 48 49 49 48 49 49 48 49 49 48 49 49 48 49 49 48 49 49 48 49 49 48 49 49 48 49 49 48 49 49 48 49 49 48 49 49 48 49 49 48 49 49 48 49 49 48 49 49 48 49 49 48 49 49 48 49 49 48 49 49 48 49 49 48 49 49 48 49 49 48 49 49 48 49 49 48 49 49 48 49 49 48 49 49 48 49 49 48 49 49 48 49 49 48 49
49 48 49 49 48 49 49 48 49 49 48 49 49 48 49 49 48 49 49 48 49 49 48 49 49 48 49 49 48 49 49 48 49 49 48 49 49 48 49 49 48 49 49 48 49 49 48 49 49 48 49 49 48 49 49 48 49 49 48 49 49 48 49 49 48 49 49 48 49 49 48 49 49 48 49 49 48 49 49 48 49 49 48 49 49 48 49 49 48 49 49 48 49 49 48 49 49 48 49 49 48 49 49 48 49 49 48 49 49 48 49 49 48 49 49 48 49 49 48 49 49 48 49 49 48 49 49 48 49 49 48 49 49 48 49 49 48 49 49 48 49 49 48 49 49 48 49 49 48 49 49 48 49 49 48 49 49 48 49 49 48 49 49 48 49 49 48 49 49 48 49 49 48 49 49 48 49 49 48 49 49 48 49 49 48 49 49 48 49 49 48 49 49 48 49 49 48 49 49 48 49 49 48 49 49 48 49 49 48 49 49 48 49 49 48 49 49 48 49 49 48 49 49 48 49 49 48 49 49 48 49 49 48 49 49 48 49 49 48 49 49 48 49 49 48 49 49 48 49 49 48 49 49 48 49 49 48 49 49 48 49 49 48 49 49 48 49 49 48 49 49 48 49 49 48 49 49 48 49 49 48 49 49 48 49 49 48 49 49 48 49 49 48 49 49 48 49 49 48 49 49 48 49 49 48 49 49 48 49 49 48 49 49 48 49 49 48 49 49 48 49 49 48 49 49 48 49 49 48 49 49 48 49 49 48 49 49 48 49 49 48 49 49 48 49 49 48 49 49 48 49 49 48 49 49 48 49 49 48 49 49 48 49 49 48 49 49 48 49 49 48 49 49 48 49 49 48 49 49 48 49 49 48 49
49 48 49 49 48 49 49 48 49 49 48 49 49 48 49 49 48 49 49 48 49 49 48 49 49 48 49 49 48 49 49 48 49 49 48 49 49 48 49 49 48 49 49 48 49 49 48 49 49 48 49 49 48 49 49 48 49 49 48 49 49 48 49 49 48 49 49 48 49 49 48 49 49 48 49 49 48 49 49 48 49 49 48 49 49 48 49 49 48 49 49 48 49 49 48 49 49 48 49 49 48 49 49 48 49 49 48 49 49 48 49 49 48 49 49 48 49 49 48 49 49 48 49 49 48 49 49 48 49 49 48 49 49 48 49 49 48 49 49 48 49 49 48 49 49 48 49 49 48 49 49 48 49 49 48 49 49 48 49 49 48 49 49 48 49 49 48 49 49 48 49 49 48 49 49 48 49 49 48 49 49 48 49 49 48 49 49 48 49 49 48 49 49 48 49 49 48 49 49 48 49 49 48 49 49 48 49 49 48 49 49 48 49 49 48 49 49 48 49 49 48 49 49 48 49 49 48 49 49 48 49 49 48 49 49 48 49 49 48 49 49 48 49 49 48 49 49 48 49 49 48 49 49 48 49 49 48 49 49 48 49 49 48 49 49 48 49 49 48 49 49 48 49 49 48 49 49 48 49 49 48 49 49 48 49 49 48 49 49 48 49 49 48 49 49 48 49 49 48 49 49 48 49 49 48 49 49 48 49 49 48 49 49 48 49 49 48 49 49 48 49 49 48 49 49 48 49 49 48 49 49 48 49 49 48 49 49 48 49 49 48 49 49 48 49 49 48 49 49 48 49 49 48 49 49 48 49 49 48 49 49 48 49 49 48 49 49 48 49 49 48 49 49 48 49 49 48 49 49 48 49 49 48 49
49 48 49 49 48 49 49 48 49 49 48 49 49 48 49 49 48 49 49 48 49 49 48 49 49 48 49 49 48 49 49 48 49 49 48 49 49 48 49 49 48 49 49 48 49 49 48 49 49 48 49 49 48 49 49 48 49 49 48 49 49 48 49 49 48 49 49 48 49 49 48 49 49 48 49 49 48 49 49 48 49 49 48 49 49 48 49 49 48 49 49 48 49 49 48 49 49 48 49 49 48 49 49 48 49 49 48 49 49 48 49 49 48 49 49 48 49 49 48 49 49 48 49 49 48 49 49 48 49 49 48 49 49 48 49 49 48 49 49 48 49 49 48 49 49 48 49 49 48 49 49 48 49 49 48 49 49 48 49 49 48 49 49 48 49 49 48 49 49 48 49 49 48 49 49 48 49 49 48 49 49 48 49 49 48 49 49 48 49 49 48 49 49 48 49 49 48 49 49 48 49 49 48 49 49 48 49 49 48 49 49 48 49 49 48 49 49 48 49 49 48 49 49 48 49 49 48 49 49 48 49 49 48 49 49 48 49 49 48 49 49 48 49 49 48 49 49 48 49 49 48 49 49 48 49 49 48 49 49 48 49 49 48 49 49 48 49 49 48 49 49 48 49 49 48 49 49 48 49 49 48 49 49 48 49 49 48 49 49 48 49 49 48 49 49 48 49 49 48 49 49 48 49 49 48 49 49 48 49 49 48 49 49 48 49 49 48 49 49 48 49 49 48 49 49 48 49 49 48 49 49 48 49 49 48 49 49 48 49 49 48 49 49 48 49 49 48 49 49 48 49 49 48 49 49 48 49 49 48 49 49 48 49 49 48 49 49 48 49 49 48 49 49 48 49 49 48 49 49 48 49 49 48 49
49 48 49 49 48 49 49 48 49 49 48 49 49 48 49 49 48 49 49 48 49 49 48 49 49 48 49 49 48 49 49 48 49 49 48 49 49 48 49 49 48 49 49 48 49 49 48 49 49 48 49 49 48 49 49 48 49 49 48 49 49 48 49 49 48 49 49 48 49 49 48 49 49 48 49 49 48 49 49 48 49 49 48 49 49 48 49 49 48 49 49 48 49 49 48 49 49 48 49 49 48 49 49 48 49 49 48 49 49 48 49 49 48 49 49 48 49 49 48 49 49 48 49 49 48 49 49 48 49 49 48 49 49 48 49 49 48 49 49 48 49 49 48 49 49 48 49 49 48 49 49 48 49 49 48 49 49 48 49 49 48 49 49 48 49 49 48 49 49 48 49 49 48 49 49 48 49 49 48 49 49 48 49 49 48 49 49 48 49 49 48 49 49 48 49 49 48 49 49 48 49 49 48 49 49 48 49 49 48 49 49 48 49 49 48 49 49 48 49 49 48 49 49 48 49 49 48 49 49 48 49 49 48 49 49 48 49 49 48 49 49 48 49 49 48 49 49 48 49 49 48 49 49 48 49 49 48 49 49 48 49 49 48 49 49 48 49 49 48 49 49 48 49 49 48 49 49 48 49 49 48 49 49 48 49 49 48 49 49 48 49 49 48 49 49 48 49 49 48 49 49 48 49 49 48 49 49 48 49 49 48 49 49 48 49 49 48 49 49 48 49 49 48 49 49 48 49 49 48 49 49 48 49 49 48 49 49 48 49 49 48 49 49 48 49 49 48 49 49 48 49 49 48 49 49 48 49 49 48 49 49 48 49 49 48 49 49 48 49 49 48 49 49 48 49 49 48 49 49 48 49 49 48 49
49 48 49 49 48 49 49 48 49 49 48 49 49 48 49 49 48 49 49 48 49 49 48 49 49 48 49 49 48 49 49 48 49 49 48 49 49 48 49 49 48 49 49 48 49 49 48 49 49 48 49 49 48 49 49 48 49 49 48 49 49 48 49 49 48 49 49 48 49 49 48 49 49 48 49 49 48 49 49 48 49 49 48 49 49 48 49 49 48 49 49 48 49 49 48 49 49 48 49 49 48 49 49 48 49 49 48 49 49 48 49 49 48 49 49 48 49 49 48 49 49 48 49 49 48 49 49 48 49 49 48 49 49 48 49 49 48 49 49 48 49 49 48 49 49 48 49 49 48 49 49 48 49 49 48 49 49 48 49 49 48 49 49 48 49 49 48 49 49 48 49 49 48 49 49 48 49 49 48 49 49 48 49 49 48 49 49 48 49 49 48 49 49 48 49 49 48 49 49 48 49 49 48 49 49 48 49 49 48 49 49 48 49 49 48 49 49 48 49 49 48 49 49 48 49 49 48 49 49 48 49 49 48 49 49 48 49 49 48 49 49 48 49 49 48 49 49 48 49 49 48 49 49 48 49 49 48 49 49 48 49 49 48 49 49 48 49 49 48 49 49 48 49 49 48 49 49 48 49 49 48 49 49 48 49 49 48 49 49 48 49 49 48 49 49 48 49 49 48 49 49 48 49 49 48 49 49 48 49 49 48 49 49 48 49 49 48 49 49 48 49 49 48 49 49 48 49 49 48 49 49 48 49 49 48 49 49 48 49 49 48 49 49 48 49 49 48 49 49 48 49 49 48 49 49 48 49 49 48 49 49 48 49 49 48 49 49 48 49 49 48 49 49 48 49 49 48 49 49 48 49 49 48 49
49 48 49 49 48 49 49 48 49 49 48 49 49 48 49 49 48 49 49 48 49 49 48 49 49 48 49 49 48 49 49 48 49 49 48 49 49 48 49 49 48 49 49 48 49 49 48 49 49 48 49 49 48 49 49 48 49 49 48 49 49 48 49 49 48 49 49 48 49 49 48 49 49 48 49 49 48 49 49 48 49 49 48 49 49 48 49 49 48 49 49 48 49 49 48 49 49 48 49 49 48 49 49 48 49 49 48 49 49 48 49 49 48 49 49 48 49 49 48 49 49 48 49 49 48 49 49 48 49 49 48 49 49 48 49 49 48 49 49 48 49 49 48 49 49 48 49 49 48 49 49 48 49 49 48 49 49 48 49 49 48 49 49 48 49 49 48 49 49 48 49 49 48 49 49 48 49 49 48 49 49 48 49 49 48 49 49 48 49 49 48 49 49 48 49 49 48 49 49 48 49 49 48 49 49 48 49 49 48 49 49 48 49 49 48 49 49 48 49 49 48 49 49 48 49 49 48 49 49 48 49 49 48 49 49 48 49 49 48 49 49 48 49 49 48 49 49 48 49 49 48 49 49 48 49 49 48 49 49 48 49 49 48 49 49 48 49 49 48 49 49 48 49 49 48 49 49 48 49 49 48 49 49 48 49 49 48 49 49 48 49 49 48 49 49 48 49 49 48 49 49 48 49 49 48 49 49 48 49 49 48 49 49 48 49 49 48 49 49 48 49 49 48 49 49 48 49 49 48 49 49 48 49 49 48 49 49 48 49 49 48 49 49 48 49 49 48 49 49 48 49 49 48 49 49 48 49 49 48 49 49 48 49 49 48 49 49 48 49 49 48 49 49 48 49 49 48 49 49 48 49 49 48 49
49 48 49 49 48 49 49 48 49 49 48 49 49 48 49 49 48 49 49 48 49 49 48 49 49 48 49 49 48 49 49 48 49 49 48 49 49 48 49 49 48 49 49 48 49 49 48 49 49 48 49 49 48 49 49 48 49 49 48 49 49 48 49 49 48 49 49 48 49 49 48 49 49 48 49 49 48 49 49 48 49 49 48 49 49 48 49 49 48 49 49 48 49 49 48 49 49 48 49 49 48 49 49 48 49 49 48 49 49 48 49 49 48 49 49 48 49 49 48 49 49 48 49 49 48 49 49 48 49 49 48 49 49 48 49 49 48 49 49 48 49 49 48 49 49 48 49 49 48 49 49 48 49 49 48 49 49 48 49 49 48 49 49 48 49 49 48 49 49 48 49 49 48 49 49 48 49 49 48 49 49 48 49 49 48 49 49 48 49 49 48 49 49 48 49 49 48 49 49 48 49 49 48 49 49 48 49 49 48 49 49 48 49 49 48 49 49 48 49 49 48 49 49 48 49 49 48 49 49 48 49 49 48 49 49 48 49 49 48 49 49 48 49 49 48 49 49 48 49 49 48 49 49 48 49 49 48 49 49 48 49 49 48 49 49 48 49 49 48 49 49 48 49 49 48 49 49 48 49 49 48 49 49 48 49 49 48 49 49 48 49 49 48 49 49 48 49 49 48 49 49 48 49 49 48 49 49 48 49 49 48 49 49 48 49 49 48 49 49 48 49 49 48 49 49 48 49 49 48 49 49 48 49 49 48 49 49 48 49 49 48 49 49 48 49 49 48 49 49 48 49 49 48 49 49 48 49 49 48 49 49 48 49 49 48 49 49 48 49 49 48 49 49 48 49 49 48 49 49 48 49 49 48 49
49 48 49 49 48 49 49 48 49 49 48 49 49 48 49 49 48 49 49 48 49 49 48 49 49 48 49 49 48 49 49 48 49 49 48 49 49 48 49 49 48 49 49 48 49 49 48 49 49 48 49 49 48 49 49 48 49 49 48 49 49 48 49 49 48 49 49 48 49 49 48 49 49 48 49 49 48 49 49 48 49 49 48 49 49 48 49 49 48 49 49 48 49 49 48 49 49 48 49 49 48 49 49 48 49 49 48 49 49 48 49 49 48 49 49 48 49 49 48 49 49 48 49 49 48 49 49 48 49 49 48 49 49 48 49 49 48 49 49 48 49 49 48 49 49 48 49 49 48 49 49 48 49 49 48 49 49 48 49 49 48 49 49 48 49 49 48 49 49 48 49 49 48 49 49 48 49 49 48 49 49 48 49 49 48 49 49 48 49 49 48 49 49 48 49 49 48 49 49 48 49 49 48 49 49 48 49 49 48 49 49 48 49 49 48 49 49 48 49 49 48 49 49 48 49 49 48 49 49 48 49 49 48 49 49 48 49 49 48 49 49 48 49 49 48 49 49 48 49 49 48 49 49 48 49 49 48 49 49 48 49 49 48 49 49 48 49 49 48 49 49 48 49 49 48 49 49 48 49 49 48 49 49 48 49 49 48 49 49 48 49 49 48 49 49 48 49 49 48 49 49 48 49 49 48 49 49 48 49 49 48 49 49 48 49 49 48 49 49 48 49 49 48 49 49 48 49 49 48 49 49 48 49 49 48 49 49 48 49 49 48 49 49 48 49 49 48 49 49 48 49 49 48 49 49 48 49 49 48 49 49 48 49 49 48 49 49 48 49 49 48 49 49 48 49 49 48 49 49 48 49 49 48 49
49 48 49 49 48 49 49 48 49 49 48 49 49 48 49 49 48 49 49 48 49 49 48 49 49 48 49 49 48 49 49 48 49 49 48 49 49 48 49 49 48 49 49 48 49 49 48 49 49 48 49 49 48 49 49 48 49 49 48 49 49 48 49 49 48 49 49 48 49 49 48 49 49 48 49 49 48 49 49 48 49 49 48 49 49 48 49 49 48 49 49 48 49 49 48 49 49 48 49 49 48 49 49 48 49 49 48 49 49 48 49 49 48 49 49 48 49 49 48 49 49 48 49 49 48 49 49 48 49 49 48 49 49 48 49 49 48 49 49 48 49 49 48 49 49 48 49 49 48 49 49 48 49 49 48 49 49 48 49 49 48 49 49 48 49 49 48 49 49 48 49 49 48 49 49 48 49 49 48 49 49 48 49 49 48 49 49 48 49 49 48 49 49 48 49 49 48 49 49 48 49 49 48 49 49 48 49 49 48 49 49 48 49 49 48 49 49 48 49 49 48 49 49 48 49 49 48 49 49 48 49 49 48 49 49 48 49 49 48 49 49 48 49 49 48 49 49 48 49 49 48 49 49 48 49 49 48 49 49 48 49 49 48 49 49 48 49 49 48 49 49 48 49 49 48 49 49 48 49 49 48 49 49 48 49 49 48 49 49 48 49 49 48 49 49 48 49 49 48 49 49 48 49 49 48 49 49 48 49 49 48 49 49 48 49 49 48 49 49 48 49 49 48 49 49 48 49 49 48 49 49 48 49 49 48 49 49 48 49 49 48 49 49 48 49 49 48 49 49 48 49 49 48 49 49 48 49 49 48 49 49 48 49 49 48 49 49 48 49 49 48 49 49 48 49 49 48 49 49 48 49 49 48 49
49 48 49 49 48 49 49 48 49 49 48 49 49 48 49 49 48 49 49 48 49 49 48 49 49 48 49 49 48 49 49 48 49 49 48 49 49 48 49 49 48 49 49 48 49 49 48 49 49 48 49 49 48 49 49 48 49 49 48 49 49 48 49 49 48 49 49 48 49 49 48 49 49 48 49 49 48 49 49 48 49 49 48 49 49 48 49 49 48 49 49 48 49 49 48 49 49 48 49 49 48 49 49 48 49 49 48 49 49 48 49 49 48 49 49 48 49 49 48 49 49 48 49 49 48 49 49 48 49 49 48 49 49 48 49 49 48 49 49 48 49 49 48 49 49 48 49 49 48 49 49 48 49 49 48 49 49 48 49 49 48 49 49 48 49 49 48 49 49 48 49 49 48 49 49 48 49 49 48 49 49 48 49 49 48 49 49 48 49 49 48 49 49 48 49 49 48 49 49 48 49 49 48 49 49 48 49 49 48 49 140 138 140 140 138 140 140 138 140 140 138 140 140 138 140 140 138 140 140 138 140 140 138 140 140 138 140 140 138 140 140 138 140 140 138 140 140 138 140 140 138 140 140 138 140 140 138 140 140 138 140 49 48 49 49 48 49 49 48 49 49 48 49 49 48 49 49 48 49 49 48 49 49 48 49 49 48 49 49 48 49 49 48 49 49 48 49 49 48 49 49 48 49 49 48 49 49 48 49 49 48 49 49 48 49 49 48 49 49 48 49 49 48 49 49 48 49 49 48 49 49 48 49 49 48 49 49 48 49 49 48 49 49 48 49 49 48 49 49 48 49 49 48 49 49 48 49 49 48 49 49 48 49 49 48 49 49 48 49 49 48 49 49 48 49 49 48 49 49 48 49 49 48 49
49 48 49 49 48 49 49 48 49 49 48 49 49 48 49 49 48 49 49 48 49 49 48 49 49 48 49 49 48 49 49 48 49 49 48 49 49 48 49 49 48 49 49 48 49 49 48 49 49 48 49 49 48 49 49 48 49 49 48 49 49 48 49 49 48 49 49 48 49 49 48 49 49 48 49 49 48 49 49 48 49 49 48 49 49 48 49 49 48 49 49 48 49 49 48 49 49 48 49 49 48 49 49 48 49 49 48 49 49 48 49 140 138 140 140 138 140 140 138 140 140 138 140 140 138 140 140 138 140 140 138 140 140 138 140 140 138 140 140 138 140 140 138 140 140 138 140 140 138 140 140 138 140 140 138 140 140 138 140 140 138 140 140 138 140 140 138 140 140 138 140 140 138 140 140 138 140 140 138 140 140 138 140 140 138 140 140 138 140 140 138 140 140 138 140 140 138 140 140 138 140 140 138 140 140 138 140 140 138 140 140 138 140 140 138 140 140 138 140 140 138 140 140 138 140 140 138 140 140 138 140 140 138 140 140 138 140 140 138 140 140 138 140 140 138 140 140 138 140 140 138 140 140 138 140 140 138 140 140 138 140 132 134 132 49 48 49 49 48 49 49 48 49 49 48 49 49 48 49 49 48 49 49 48 49 49 48 49 49 48 49 49 48 49 49 48 49 49 48 49 49 48 49 49 48 49 49 48 49 49 48 49 49 48 49 49 48 49 49 48 49 49 48 49 49 48 49 49 48 49 49 48 49 49 48 49 49 48 49 49 48 49 49 48 49 49 48 49 49 48 49 49 48 49 49 48 49 49 48 49 49 48 49 49 48 49 49 48 49 49 48 49 49 48 49 49 48 49 49 48 49 49 48 49
49 48 49 49 48 49 49 48 49 49 48 49 49 48 49 49 48 49 49 48 49 49 48 49 49 48 49 49 48 49 49 48 49 49 48 49 49 48 49 49 48 49 49 48 49 49 48 49 49 48 49 49 48 49 49 48 49 49 48 49 49 48 49 49 48 49 49 48 49 49 48 49 49 48 49 49 48 49 49 48 49 49 48 49 49 48 49 49 48 49 49 48 49 49 48 49 49 48 49 49 48 49 49 48 49 49 48 49 49 48 49 140 138 140 140 138 140 140 138 140 140 138 140 140 138 140 140 138 140 140 138 140 140 138 140 140 138 140 140 138 140 140 138 140 140 138 140 140 138 140 140 138 140 140 138 140 140 138 140 140 138 140 140 138 140 140 138 140 140 138 140 140 138 140 140 138 140 140 138 140 140 138 140 140 138 140 140 138 140 140 138 140 140 138 140 140 138 140 140 138 140 140 138 140 140 138 140 140 138 140 140 138 140 140 138 140 140 138 140 140 138 140 140 138 140 140 138 140 140 138 140 140 138 140 140 138 140 140 138 140 140 138 140 140 138 140 140 138 140 140 138 140 140 138 140 140 138 140 140 138 140 132 134 132 49 48 49 49 48 49 49 48 49 49 48 49 49 48 49 49 48 49 49 48 49 49 48 49 49 48 49 49 48 49 49 48 49 49 48 49 49 48 49 49 48 49 49 48 49 49 48 49 49 48 49 49 48 49 49 48 49 49 48 49 49 48 49 49 48 49 49 48 49 49 48 49 49 48 49 49 48 49 49 48 49 49 48 49 49 48 49 49 48 49 49 48 49 49 48 49 49 48 49 49 48 49 49 48 49 49 48 49 49 48 49 49 48 49 49 48 49 49 48 49
49 48 49 49 48 49 49 48 49 49 48 49 49 48 49 49 48 49 49 48 49 49 48 49 49 48 49 49 48 49 49 48 49 49 48 49 49 48 49 49 48 49 49 48 49 49 48 49 49 48 49 49 48 49 49 48 49 49 48 49 49 48 49 49 48 49 49 48 49 49 48 49 49 48 49 49 48 49 49 48 49 49 48 49 49 48 49 49 48 49 49 48 49 49 48 49 49 48 49 49 48 49 49 48 49 49 48 49 0 0 0 140 138 140 140 138 140 140 138 140 140 138 140 140 138 140 140 138 140 140 138 140 140 138 140 140 138 140 140 138 140 140 138 140 140 138 140 140 138 140 140 138 140 140 138 140 140 138 140 140 138 140 140 138 140 140 138 140 140 138 140 140 138 140 140 138 140 140 138 140 140 138 140 140 138 140 140 138 140 140 138 140 140 138 140 140 138 140 140 138 140 140 138 140 140 138 140 140 138 140 140 138 140 140 138 140 140 138 140 140 138 140 140 138 140 140 138 140 140 138 140 140 138 140 140 138 140 140 138 140 140 138 140 140 138 140 140 138 140 140 138 140 140 138 140 140 138 140 140 138 140 132 134 132 132 134 132 49 48 49 49 48 49 49 48 49 49 48 49 49 48 49 49 48 49 49 48 49 49 48 49 49 48 49 49 48 49 49 48 49 49 48 49 49 48 49 49 48 49 49 48 49 49 48 49 49 48 49 49 48 49 49 48 49 49 48 49 49 48 49 49 48 49 49 48 49 49 48 49 49 48 49 49 48 49 49 48 49 49 48 49 49 48 49 49 48 49 49 48 49 49 48 49 49 48 49 49 48 49 49 48 49 49 48 49 49 48 49 49 48 49 49 48 49
49 48 49 49 48 49 49 48 49 49 48 49 49 48 49 49 48 49 49 48 49 49 48 49 49 48 49 49 48 49 49 48 49 49 48 49 49 48 49 49 48 49 49 48 49 49 48 49 49 48 49 49 48 49 49 48 49 49 48 49 49 48 49 49 48 49 49 48 49 49 48 49 49 48 49 49 48 49 49 48 49 49 48 49 49 48 49 49 48 49 49 48 49 49 48 49 49 48 49 49 48 49 49 48 49 49 48 49 0 0 0 140 138 140 140 138 140 140 138 140 140 138 140 140 138 140 140 138 140 140 138 140 140 138 140 140 138 140 140 138 140 140 138 140 140 138 140 140 138 140 140 138 140 140 138 140 140 138 140 140 138 140 140 138 140 140 138 140 140 138 140 140 138 140 140 138 140 140 138 140 140 138 140 140 138 140 140 138 140 140 138 140 140 138 140 140 138 140 140 138 140 140 138 140 140 138 140 140 138 140 140 138 140 140 138 140 140 138 140 140 138 140 140 138 140 140 138 140 140 138 140 140 138 140 140 138 140 140 138 140 140 138 140 140 138 140 140 138 140 140 138 140 140 138 140 140 138 140 140 138 140 132 134 132 132 134 132 132 134 132 49 48 49 49 48 49 49 48 49 49 48 49 49 48 49 49 48 49 49 48 49 49 48 49 49 48 49 49 48 49 49 48 49 49 48 49 49 48 49 49 48 49 49 48 49 49 48 49 49 48 49 49 48 49 49 48 49 49 48 49 49 48 49 49 48 49 49 48 49 49 48 49 49 48 49 49 48 49 49 48 49 49 48 49 49 48 49 49 48 49 49 48 49 49 48 49 49 48 49 49 48 49 49 48 49 49 48 49 49 48 49 49 48 49
49 48 49 49 48 49 49 48 49 49 48 49 49 48 49 49 48 49 49 48 49 49 48 49 49 48 49 49 48 49 49 48 49 49 48 49 49 48 49 49 48 49 49 48 49 49 48 49 49 48 49 49 48 49 49 48 49 49 48 49 49 48 49 49 48 49 49 48 49 49 48 49 49 48 49 49 48 49 49 48 49 49 48 49 49 48 49 49 48 49 49 48 49 49 48 49 49 48 49 49 48 49 49 48 49 49 48 49 0 0 0 140 138 140 140 138 140 140 138 140 140 138 140 140 138 140 140 138 140 140 138 140 140 138 140 140 138 140 140 138 140 140 138 140 140 138 140 140 138 140 140 138 140 140 138 140 140 138 140 140 138 140 140 138 140 140 138 140 140 138 140 140 138 140 140 138 140 140 138 140 140 138 140 140 138 140 140 138 140 140 138 140 140 138 140 140 138 140 140 138 140 140 138 140 140 138 140 140 138 140 140 138 140 140 138 140 140 138 140 140 138 140 140 138 140 140 138 140 140 138 140 140 138 140 140 138 140 140 138 140 140 138 140 140 138 140 140 138 140 140 138 140 140 138 140 140 138 140 140 138 140 132 134 132 132 134 132 132 134 132 49 48 49 49 48 49 49 48 49 49 48 49 49 48 49 49 48 49 49 48 49 49 48 49 49 48 49 49 48 49 49 48 49 49 48 49 49 48 49 49 48 49 49 48 49 49 48 49 49 48 49 49 48 49 49 48 49 49 48 49 49 48 49 49 48 49 49 48 49 49 48 49 49 48 49 49 48 49 49 48 49 49 48 49 49 48 49 49 48 49 49 48 49 49 48 49 49 48 49 49 48 49 49 48 49 49 48 49 49 48 49 49 48 49
49 48 49 49 48 49 49 48 49 49 48 49 49 48 49 49 48 49 49 48 49 49 48 49 49 48 49 49 48 49 49 48 49 49 48 49 49 48 49 49 48 49 49 48 49 49 48 49 49 48 49 49 48 49 49 48 49 49 48 49 49 48 49 49 48 49 49 48 49 49 48 49 49 48 49 49 48 49 49 48 49 49 48 49 49 48 49 49 48 49 49 48 49 49 48 49 49 48 49 49 48 49 49 48 49 49 48 49 0 0 0 0 0 0 140 138 140 140 138 140 140 138 140 140 138 140 140 138 140 140 138 140 140 138 140 140 138 140 140 138 140 140 138 140 140 138 140 140 138 140 140 138 140 140 138 140 140 138 140 140 138 140 140 138 140 140 138 140 140 138 140 140 138 140 140 138 140 140 138 140 140 138 140 140 138 140 140 138 140 140 138 140 140 138 140 140 138 140 140 138 140 140 138 140 140 138 140 140 138 140 140 138 140 140 138 140 140 138 140 140 138 140 140 138 140 140 138 140 140 138 140 140 138 140 140 138 140 140 138 140 140 138 140 140 138 140 140 138 140 140 138 140 140 138 140 140 138 140 140 138 140 132 134 132 132 134 132 132 134 132 132 134 132 49 48 49 49 48 49 49 48 49 49 48 49 49 48 49 49 48 49 49 48 49 49 48 49 49 48 49 49 48 49 49 48 49 49 48 49 49 48 49 49 48 49 49 48 49 49 48 49 49 48 49 49 48 49 49 48 49 49 48 49 49 48 49 49 48 49 49 48 49 49 48 49 49 48 49 49 48 49 49 48 49 49 48 49 49 48 49 49 48 49 49 48 49 49 48 49 49 48 49 49 48 49 49 48 49 49 48 49 49 48 49
49 48 49 49 48 49 49 48 49 49 48 49 49 48 49 49 48 49 49 48 49 49 48 49 49 48 49 49 48 49 49 48 49 49 48 49 49 48 49 49 48 49 49 48 49 49 48 49 49 48 49 49 48 49 49 48 49 49 48 49 49 48 49 49 48 49 49 48 49 49 48 49 49 48 49 49 48 49 49 48 49 49 48 49 49 48 49 49 48 49 49 48 49 49 48 49 49 48 49 49 48 49 49 48 49 0 0 0 0 0 0 0 0 0 140 138 140 140 138 140 140 138 140 140 138 140 140 138 140 140 138 140 140 138 140 140 138 140 140 138 140 140 138 140 140 138 140 140 138 140 140 138 140 140 138 140 140 138 140 140 138 140 140 138 140 140 138 140 140 138 140 140 138 140 140 138 140 140 138 140 140 138 140 140 138 140 140 138 140 140 138 140 140 138 140 140 138 140 140 138 140 140 138 140 140 138 140 140 138 140 140 138 140 140 138 140 140 138 140 140 138 140 140 138 140 140 138 140 140 138 140 140 138 140 140 138 140 140 138 140 140 138 140 140 138 140 140 138 140 140 138 140 140 138 140 140 138 140 132 134 132 132 134 132 132 134 132 132 134 132 132 134 132 132 134 132 49 48 49 49 48 49 49 48 49 49 48 49 49 48 49 49 48 49 49 48 49 49 48 49 49 48 49 49 48 49 49 48 49 49 48 49 49 48 49 49 48 49 49 48 49 49 48 49 49 48 49 49 48 49 49 48 49 49 48 49 49 48 49 49 48 49 49 48 49 49 48 49 49 48 49 49 48 49 49 48 49 49 48 49 49 48 49 49 48 49 49 48 49 49 48 49 49 48 49 49 48 49 49 48 49 49 48 49
49 48 49 49 48 49 49 48 49 49 48 49 49 48 49 49 48 49 49 48 49 49 48 49 49 48 49 49 48 49 49 48 49 49 48 49 49 48 49 49 48 49 49 48 49 49 48 49 49 48 49 49 48 49 49 48 49 49 48 49 49 48 49 49 48 49 49 48 49 49 48 49 49 48 49 49 48 49 49 48 49 49 48 49 49 48 49 49 48 49 49 48 49 49 48 49 49 48 49 49 48 49 49 48 49 0 0 0 0 0 0 0 0 0 140 138 140 140 138 140 140 138 140 140 138 140 140 138 140 140 138 140 140 138 140 140 138 140 140 138 140 140 138 140 140 138 140 140 138 140 140 138 140 140 138 140 140 138 140 140 138 140 140 138 140 140 138 140 140 138 140 140 138 140 140 138 140 140 138 140 140 138 140 140 138 140 140 138 140 140 138 140 140 138 140 140 138 140 140 138 140 140 138 140 140 138 140 140 138 140 140 138 140 140 138 140 140 138 140 140 138 140 140 138 140 140 138 140 140 138 140 140 138 140 140 138 140 140 138 140 140 138 140 140 138 140 140 138 140 140 138 140 140 138 140 140 138 140 132 134 132 132 134 132 132 134 132 132 134 132 132 134 132 132 134 132 49 48 49 49 48 49 49 48 49 49 48 49 49 48 49 49 48 49 49 48 49 49 48 49 49 48 49 49 48 49 49 48 49 49 48 49 49 48 49 49 48 49 49 48 49 49 48 49 49 48 49 49 48 49 49 48 49 49 48 49 49 48 49 49 48 49 49 48 49 49 48 49 49 48 49 49 48 49 49 48 49 49 48 49 49 48 49 49 48 49 49 48 49 49 48 49 49 48 49 49 48 49 49 48 49 49 48 49
49 48 49 49 48 49 49 48 49 49 48 49 49 48 49 49 48 49 49 48 49 49 48 49 49 48 49 49 48 49 49 48 49 49 48 49 49 48 49 49 48 49 49 48 49 49 48 49 49 48 49 49 48 49 49 48 49 49 48 49 49 48 49 49 48 49 49 48 49 49 48 49 49 48 49 49 48 49 49 48 49 49 48 49 49 48 49 49 48 49 49 48 49 49 48 49 49 48 49 49 48 49 49 48 49 0 0 0 0 0 0 0 0 0 140 138 140 140 138 140 140 138 140 140 138 140 140 138 140 140 138 140 140 138 140 140 138 140 140 138 140 140 138 140 140 138 140 140 138 140 140 138 140 140 138 140 140 138 140 140 138 140 140 138 140 140 138 140 140 138 140 140 138 140 140 138 140 140 138 140 140 138 140 140 138 140 140 138 140 140 138 140 140 138 140 140 138 140 140 138 140 140 138 140 140 138 140 140 138 140 140 138 140 140 138 140 140 138 140 140 138 140 140 138 140 140 138 140 140 138 140 140 138 140 140 138 140 140 138 140 140 138 140 140 138 140 140 138 140 140 138 140 140 138 140 140 138 140 132 134 132 132 134 132 132 134 132 132 134 132 132 134 132 132 134 132 132 134 132 49 48 49 49 48 49 49 48 49 49 48 49 49 48 49 49 48 49 49 48 49 49 48 49 49 48 49 49 48 49 49 48 49 49 48 49 49 48 49 49 48 49 49 48 49 49 48 49 49 48 49 49 48 49 49 48 49 49 48 49 49 48 49 49 48 49 49 48 49 49 48 49 49 48 49 49 48 49 49 48 49 49 48 49 49 48 49 49 48 49 49 48 49 49 48 49 49 48 49 49 48 49 49 48 49
49 48 49 49 48 49 49 48 49 49 48 49 49 48 49 49 48 49 49 48 49 49 48 49 49 48 49 49 48 49 49 48 49 49 48 49 49 48 49 49 48 49 49 48 49 49 48 49 49 48 49 49 48 49 49 48 49 49 48 49 49 48 49 49 48 49 49 48 49 49 48 49 49 48 49 49 48 49 49 48 49 49 48 49 49 48 49 49 48 49 49 48 49 49 48 49 49 48 49 49 48 49 49 48 49 0 0 0 0 0 0 0 0 0 140 138 140 140 138 140 140 138 140 140 138 140 140 138 140 140 138 140 140 138 140 140 138 140 140 138 140 140 138 140 140 138 140 140 138 140 140 138 140 140 138 140 140 138 140 140 138 140 140 138 140 140 138 140 140 138 140 140 138 140 140 138 140 140 138 140 140 138 140 140 138 140 140 138 140 140 138 140 140 138 140 140 138 140 140 138 140 140 138 140 140 138 140 140 138 140 140 138 140 140 138 140 140 138 140 140 138 140 140 138 140 140 138 140 140 138 140 140 138 140 140 138 140 140 138 140 140 138 140 140 138 140 140 138 140 140 138 140 140 138 140 140 138 140 132 134 132 132 134 132 132 134 132 132 134 132 132 134 132 132 134 132 132 134 132 49 48 49 49 48 49 49 48 49 49 48 49 49 48 49 49 48 49 49 48 49 49 48 49 49 48 49 49 48 49 49 48 49 49 48 49 49 48 49 49 48 49 49 48 49 49 48 49 49 48 49 49 48 49 49 48 49 49 48 49 49 48 49 49 48 49 49 48 49 49 48 49 49 48 49 49 48 49 49 48 49 49 48 49 49 48 49 49 48 49 49 48 49 49 48 49 49 48 49 49 48 49 49 48 49
49 48 49 49 48 49 49 48 49 49 48 49 49 48 49 49 48 49 49 48 49 49 48 49 49 48 49 49 48 49 49 48 49 49 48 49 49 48 49 49 48 49 49 48 49 49 48 49 49 48 49 49 48 49 49 48 49 49 48 49 49 48 49 49 48 49 49 48 49 49 48 49 49 48 49 49 48 49 49 48 49 49 48 49 49 48 49 49 48 49 49 48 49 49 48 49 49 48 49 49 48 49 49 48 49 0 0 0 0 0 0 0 0 0 140 138 140 140 138 140 140 138 140 140 138 140 140 138 140 140 138 140 140 138 140 140 138 140 140 138 140 140 138 140 140 138 140 140 138 140 140 138 140 140 138 140 140 138 140 140 138 140 140 138 140 140 138 140 140 138 140 140 138 140 140 138 140 140 138 140 140 138 140 140 138 140 140 138 140 140 138 140 140 138 140 140 138 140 140 138 140 140 138 140 140 138 140 140 138 140 140 138 140 140 138 140 140 138 140 140 138 140 140 138 140 140 138 140 140 138 140 140 138 140 140 138 140 140 138 140 140 138 140 140 138 140 140 138 140 140 138 140 140 138 140 140 138 140 132 134 132 132 134 132 132 134 132 132 134 132 132 134 132 132 134 132 132 134 132 132 134 132 49 48 49 49 48 49 49 48 49 49 48 49 49 48 49 49 48 49 49 48 49 49 48 49 49 48 49 49 48 49 49 48 49 49 48 49 49 48 49 49 48 49 49 48 49 49 48 49 49 48 49 49 48 49 49 48 49 49 48 49 49 48 49 49 48 49 49 48 49 49 48 49 49 48 49 49 48 49 49 48 49 49 48 49 49 48 49 49 48 49 49 48 49 49 48 49 49 48 49 49 48 49
49 48 49 49 48 49 49 48 49 49 48 49 49 48 49 49 48 49 49 48 49 49 48 49 49 48 49 49 48 49 49 48 49 49 48 49 49 48 49 49 48 49 49 48 49 49 48 49 49 48 49 49 48 49 49 48 49 49 48 49 49 48 49 49 48 49 49 48 49 49 48 49 49 48 49 49 48 49 49 48 49 49 48 49 49 48 49 49 48 49 49 48 49 49 48 49 49 48 49 49 48 49 0 0 0 0 0 0 0 0 0 0 0 0 140 138 140 140 138 140 140 138 140 140 138 140 140 138 140 140 138 140 140 138 140 140 138 140 140 138 140 140 138 140 140 138 140 140 138 140 140 138 140 140 138 140 140 138 140 140 138 140 140 138 140 140 138 140 140 138 140 140 138 140 140 138 140 140 142 140 140 142 140 140 138 140 140 138 140 140 138 140 140 138 140 140 138 140 140 138 140 140 138 140 140 138 140 140 138 140 140 138 140 140 138 140 140 138 140 140 138 140 140 138 140 140 138 140 140 138 140 140 138 140 140 138 140 140 138 140 140 138 140 140 138 140 140 138 140 140 138 140 140 138 140 140 138 140 132 134 132 132 134 132 132 134 132 132 134 132 132 134 132 132 134 132 132 134 132 132 134 132 132 134 132 49 48 49 49 48 49 49 48 49 49 48 49 49 48 49 49 48 49 49 48 49 49 48 49 49 48 49 49 48 49 49 48 49 49 48 49 49 48 49 49 48 49 49 48 49 49 48 49 49 48 49 49 48 49 49 48 49 49 48 49 49 48 49 49 48 49 49 48 49 49 48 49 49 48 49 49 48 49 49 48 49 49 48 49 49 48 49 49 48 49 49 48 49 49 48 49 49 48 49
49 48 49 49 48 49 49 48 49 49 48 49 49 48 49 49 48 49 49 48 49 49 48 49 49 48 49 49 48 49 49 48 49 49 48 49 49 48 49 49 48 49 49 48 49 49 48 49 49 48 49 49 48 49 49 48 49 49 48 49 49 48 49 49 48 49 49 48 49 49 48 49 49 48 49 49 48 49 49 48 49 49 48 49 49 48 49 49 48 49 49 48 49 49 48 49 49 48 49 49 48 49 0 0 0 0 0 0 0 0 0 0 0 0 140 138 140 140 138 140 140 138 140 140 138 140 140 138 140 140 138 140 140 138 140 140 138 140 140 138 140 140 138 140 140 138 140 140 138 140 140 138 140 140 138 140 140 138 140 140 138 140 140 138 140 140 138 140 140 142 140 140 142 140 140 142 140 140 142 140 140 142 140 140 142 140 140 142 140 140 142 140 140 142 140 140 138 140 140 138 140 140 138 140 140 138 140 140 138 140 140 138 140 140 138 140 123 134 132 123 134 132 123 134 132 123 134 132 123 134 132 123 134 132 123 134 132 123 134 132 123 134 132 123 134 132 140 138 140 140 138 140 140 138 140 140 138 140 132 134 132 132 134 132 132 134 132 132 134 132 132 134 132 132 134 132 132 134 132 132 134 132 132 134 132 49 48 49 49 48 49 49 48 49 49 48 49 49 48 49 49 48 49 49 48 49 49 48 49 49 48 49 49 48 49 49 48 49 49 48 49 49 48 49 49 48 49 49 48 49 49 48 49 49 48 49 49 48 49 49 48 49 49 48 49 49 48 49 49 48 49 49 48 49 49 48 49 49 48 49 49 48 49 49 48 49 49 48 49 49 48 49 49 48 49 49 48 49 49 48 49 49 48 49
49 48 49 49 48 49 49 48 49 49 48 49 49 48 49 49 48 49 49 48 49 49 48 49 49 48 49 49 48 49 49 48 49 49 48 49 49 48 49 49 48 49 49 48 49 49 48 49 49 48 49 49 48 49 49 48 49 49 48 49 49 48 49 49 48 49 49 48 49 49 48 49 49 48 49 49 48 49 49 48 49 49 48 49 49 48 49 49 48 49 49 48 49 49 48 49 49 48 49 49 48 49 0 0 0 0 0 0 0 0 0 0 0 0 140 138 140 140 138 140 140 138 140 140 138 140 132 134 132 123 130 132 123 130 132 123 130 132 123 130 132 123 130 132 123 130 132 123 134 132 123 134 132 123 134 132 123 134 132 132 138 140 132 138 140 132 138 140 132 142 140 132 142 140 132 142 148 148 150 148 16 85 90 16 89 90 16 97 99 16 101 107 16 101 107 24 109 115 24 109 115 24 109 115 24 113 123 24 113 123 24 117 123 24 117 123 24 117 123 24 117 123 24 121 123 24 121 123 24 121 123 24 121 132 24 121 132 24 121 132 24 121 132 24 121 132 132 134 140 140 138 140 140 138 140 140 138 140 132 134 132 132 134 132 132 134 132 132 134 132 132 134 132 132 134 132 132 134 132 132 134 132 132 134 132 132 134 132 49 48 49 49 48 49 49 48 49 49 48 49 49 48 49 49 48 49 49 48 49 49 48 49 49 48 49 49 48 49 49 48 49 49 48 49 49 48 49 49 48 49 49 48 49 49 48 49 49 48 49 49 48 49 49 48 49 49 48 49 49 48 49 49 48 49 49 48 49 49 48 49 49 48 49 49 48 49 49 48 49 49 48 49 49 48 49 49 48 49 49 48 49 49 48 49
49 48 49 49 48 49 49 48 49 49 48 49 49 48 49 49 48 49 49 48 49 49 48 49 49 48 49 49 48 49 49 48 49 49 48 49 49 48 49 49 48 49 49 48 49 49 48 49 49 48 49 49 48 49 49 48 49 49 48 49 49 48 49 49 48 49 49 48 49 49 48 49 49 48 49 49 48 49 49 48 49 49 48 49 49 48 49 49 48 49 49 48 49 49 48 49 49 48 49 49 48 49 0 0 0 0 0 0 0 0 0 0 0 0 140 138 140 140 138 140 140 138 140 132 134 132 57 93 99 41 89 99 41 97 99 41 97 107 41 101 107 49 105 115 49 109 115 49 113 115 57 117 123 66 121 123 66 121 132 82 130 132 82 134 140 90 134 140 99 142 148 107 142 148 123 154 156 16 81 82 16 85 90 16 89 99 16 97 99 16 101 107 16 101 107 24 109 115 24 109 115 24 109 115 24 113 123 24 113 123 24 117 123 24 117 123 24 117 123 24 117 123 24 121 123 24 121 123 24 121 123 24 121 132 24 121 132 24 121 132 24 121 132 24 121 132 123 134 132 140 138 140 140 138 140 140 138 140 123 130 132 132 134 132 132 134 132 132 134 132 132 134 132 132 134 132 132 134 132 132 134 132 132 134 132 132 134 132 49 48 49 49 48 49 49 48 49 49 48 49 49 48 49 49 48 49 49 48 49 49 48 49 49 48 49 49 48 49 49 48 49 49 48 49 49 48 49 49 48 49 49 48 49 49 48 49 49 48 49 49 48 49 49 48 49 49 48 49 49 48 49 49 48 49 49 48 49 49 48 49 49 48 49 49 48 49 49 48 49 49 48 49 49 48 49 49 48 49 49 48 49 49 48 49
49 48 49 49 48 49 49 48 49 49 48 49 49 48 49 49 48 49 49 48 49 49 48 49 49 48 49 49 48 49 49 48 49 49 48 49 49 48 49 49 48 49 49 48 49 49 48 49 49 48 49 49 48 49 49 48 49 49 48 49 49 48 49 49 48 49 49 48 49 49 48 49 49 48 49 49 48 49 49 48 49 49 48 49 49 48 49 49 48 49 49 48 49 49 48 49 49 48 49 0 0 0 0 0 0 0 0 0 0 0 0 0 0 0 140 138 140 140 138 140 140 138 140 123 130 132 41 89 90 41 93 99 41 97 99 41 101 107 41 101 107 49 109 115 49 109 115 57 113 115 57 117 123 66 121 123 74 125 132 82 130 140 90 134 140 99 138 148 107 146 148 115 150 156 173 178 181 16 81 82 16 85 90 16 89 99 16 97 99 16 101 107 16 101 107 24 109 115 24 109 115 24 109 115 24 113 123 24 113 123 24 117 123 24 117 123 24 117 123 24 117 123 24 121 123 24 121 123 24 121 123 24 121 132 24 121 132 24 121 132 24 121 132 24 121 132 123 134 132 140 138 140 140 138 140 140 138 140 115 125 123 123 125 123 132 134 132 132 134 132 132 134 132 132 134 132 132 134 132 132 134 132 132 134 132 132 134 132 132 134 132 49 48 49 49 48 49 49 48 49 49 48 49 49 48 49 49 48 49 49 48 49 49 48 49 49 48 49 49 48 49 49 48 49 49 48 49 49 48 49 49 48 49 49 48 49 49 48 49 49 48 49 49 48 49 49 48 49 49 48 49 49 48 49 49 48 49 49 48 49 49 48 49 49 48 49 49 48 49 49 48 49 49 48 49 49 48 49 49 48 49 49 48 49
49 48 49 49 48 49 49 48 49 49 48 49 49 48 49 49 48 49 49 48 49 49 48 49 49 48 49 49 48 49 49 48 49 49 48 49 49 48 49 49 48 49 49 48 49 49 48 49 49 48 49 49 48 49 49 48 49 49 48 49 49 48 49 49 48 49 49 48 49 49 48 49 49 48 49 49 48 49 49 48 49 49 48 49 49 48 49 49 48 49 49 48 49 49 48 49 49 48 49 0 0 0 0 0 0 0 0 0 0 0 0 0 0 0 0 0 0 140 138 140 140 138 140 140 138 140 41 89 90 41 93 99 41 93 99 41 101 107 41 101 107 49 105 115 49 109 115 66 117 123 82 121 132 181 186 189 156 170 173 99 138 140 107 142 148 115 146 148 140 158 165 173 178 181 16 69 74 16 81 82 16 85 90 16 89 99 16 97 99 16 101 107 16 101 107 24 109 115 24 109 115 24 113 115 24 113 123 24 113 123 24 117 123 24 117 123 24 117 123 24 117 123 24 121 123 24 121 123 24 121 123 24 121 132 24 121 132 24 121 132 24 121 132 24 121 132 123 134 132 140 138 140 140 138 140 140 138 140 33 85 90 41 97 107 132 134 132 132 134 132 132 134 132 132 134 132 132 134 132 132 134 132 132 134 132 132 134 132 132 134 132 132 134 132 49 48 49 49 48 49 49 48 49 49 48 49 49 48 49 49 48 49 49 48 49 49 48 49 49 48 49 49 48 49 49 48 49 49 48 49 49 48 49 49 48 49 49 48 49 49 48 49 49 48 49 49 48 49 49 48 49 49 48 49 49 48 49 49 48 49 49 48 49 49 48 49 49 48 49 49 48 49 49 48 49 49 48 49 49 48 49 49 48 49
49 48 49 49 48 49 49 48 49 49 48 49 49 48 49 49 48 49 49 48 49 49 48 49 49 48 49 49 48 49 49 48 49 49 48 49 49 48 49 49 48 49 49 48 49 49 48 49 49 48 49 49 48 49 49 48 49 49 48 49 49 48 49 49 48 49 49 48 49 49 48 49 49 48 49 49 48 49 49 48 49 49 48 49 49 48 49 49 48 49 49 48 49 49 48 49 49 48 49 0 0 0 0 0 0 0 0 0 0 0 0 0 0 0 0 0 0 140 138 140 140 138 140 140 138 140 41 89 90 41 93 99 41 93 99 49 101 107 140 154 156 189 190 189 198 195 198 189 195 198 189 190 189 198 195 198 198 195 198 189 195 198 115 146 148 123 150 156 173 178 181 115 130 132 8 69 74 16 81 82 16 85 90 16 89 99 16 97 99 16 101 107 16 101 107 24 109 115 24 109 115 24 113 115 24 113 123 24 113 123 24 117 123 24 117 123 24 117 123 24 117 123 24 121 123 24 121 123 24 121 123 24 121 132 24 121 132 24 121 132 24 121 132 24 121 132 123 134 132 140 138 140 140 138 140 140 138 140 33 85 90 41 101 107 123 130 132 132 134 132 132 134 132 132 134 132 132 134 132 132 134 132 132 134 132 132 134 132 132 134 132 132 134 132 49 48 49 49 48 49 49 48 49 49 48 49 49 48 49 49 48 49 49 48 49 49 48 49 49 48 49 49 48 49 49 48 49 49 48 49 49 48 49 49 48 49 49 48 49 49 48 49 49 48 49 49 48 49 49 48 49 49 48 49 49 48 49 49 48 49 49 48 49 49 48 49 49 48 49 49 48 49 49 48 49 49 48 49 49 48 49 49 48 49
49 48 49 49 48 49 49 48 49 49 48 49 49 48 49 49 48 49 49 48 49 49 48 49 49 48 49 49 48 49 49 48 49 49 48 49 49 48 49 49 48 49 49 48 49 49 48 49 49 48 49 49 48 49 49 48 49 49 48 49 49 48 49 49 48 49 49 48 49 49 48 49 49 48 49 49 48 49 49 48 49 49 48 49 49 48 49 49 48 49 49 48 49 49 48 49 49 48 49 0 0 0 0 0 0 0 0 0 0 0 0 0 0 0 0 0 0 140 138 140 140 138 140 140 138 140 41 89 90 41 93 99 41 93 99 156 162 165 198 195 198 198 195 198 107 138 140 74 117 123 66 117 123 123 150 148 99 134 140 140 158 165 198 195 198 173 178 181 165 174 173 8 60 66 8 69 74 16 81 82 16 85 90 16 89 99 16 97 99 16 101 107 16 101 107 24 109 115 24 109 115 24 113 115 24 113 123 24 113 123 24 117 123 24 117 123 24 117 123 24 117 123 24 121 123 24 121 123 24 121 123 24 121 132 24 121 132 24 121 132 24 121 132 24 121 132 123 134 132 140 138 140 140 138 140 132 134 132 41 89 90 49 101 107 57 113 123 132 134 132 132 134 132 132 134 132 132 134 132 132 134 132 132 134 132 132 134 132 132 134 132 132 134 132 132 134 132 49 48 49 49 48 49 49 48 49 49 48 49 49 48 49 49 48 49 49 48 49 49 48 49 49 48 49 49 48 49 49 48 49 49 48 49 49 48 49 49 48 49 49 48 49 49 48 49 49 48 49 49 48 49 49 48 49 49 48 49 49 48 49 49 48 49 49 48 49 49 48 49 49 48 49 49 48 49 49 48 49 49 48 49 49 48 49
49 48 49 49 48 49 49 48 49 49 48 49 49 48 49 49 48 49 49 48 49 49 48 49 49 48 49 49 48 49 49 48 49 49 48 49 49 48 49 49 48 49 49 48 49 49 48 49 49 48 49 49 48 49 49 48 49 49 48 49 49 48 49 49 48 49 49 48 49 49 48 49 49 48 49 49 48 49 49 48 49 49 48 49 49 48 49 49 48 49 49 48 49 49 48 49 0 0 0 0 0 0 0 0 0 0 0 0 0 0 0 0 0 0 0 0 0 140 138 140 140 138 140 140 138 140 123 130 132 41 93 99 41 93 99 165 170 173 107 130 132 49 105 115 57 113 115 66 117 123 74 121 123 90 130 140 99 138 140 115 142 148 198 195 198 198 195 198 189 190 189 8 60 66 8 69 74 16 81 82 16 85 90 16 89 99 16 97 99 16 101 107 16 101 107 24 109 115 24 109 115 24 113 115 24 113 123 24 113 123 24 117 123 24 117 123 24 117 123 24 117 123 24 121 123 24 121 123 24 121 123 24 121 132 24 121 132 24 121 132 24 121 132 24 121 132 123 134 132 140 138 140 140 138 140 132 134 132 41 89 90 148 154 156 57 117 123 123 134 140 132 134 132 132 134 132 132 134 132 132 134 132 132 134 132 132 134 132 132 134 132 132 134 132 132 134 132 132 134 132 49 48 49 49 48 49 49 48 49 49 48 49 49 48 49 49 48 49 49 48 49 49 48 49 49 48 49 49 48 49 49 48 49 49 48 49 49 48 49 49 48 49 49 48 49 49 48 49 49 48 49 49 48 49 49 48 49 49 48 49 49 48 49 49 48 49 49 48 49 49 48 49 49 48 49 49 48 49 49 48 49 49 48 49
49 48 49 49 48 49 49 48 49 49 48 49 49 48 49 49 48 49 49 48 49 49 48 49 49 48 49 49 48 49 49 48 49 49 48 49 49 48 49 49 48 49 49 48 49 49 48 49 49 48 49 49 48 49 49 48 49 49 48 49 49 48 49 49 48 49 49 48 49 49 48 49 49 48 49 49 48 49 49 48 49 49 48 49 49 48 49 49 48 49 49 48 49 49 48 49 0 0 0 0 0 0 0 0 0 0 0 0 0 0 0 0 0 0 0 0 0 140 138 140 140 138 140 140 138 140 123 130 132 41 93 99 41 93 99 41 97 99 41 101 107 49 105 115 57 109 115 66 117 123 74 121 123 90 134 140 107 142 148 115 146 148 148 162 165 198 195 198 189 190 189 8 60 66 8 69 74 123 138 140 132 146 148 66 105 107 16 97 99 16 101 107 49 109 115 24 109 115 24 109 115 49 117 123 82 130 132 24 113 123 57 125 132 24 117 123 90 134 140 74 130 140 24 121 123 24 121 123 24 121 123 24 121 132 140 162 165 24 121 132 24 121 132 24 121 132 140 138 140 140 138 140 140 138 140 132 134 132 41 93 99 189 190 189 74 121 123 82 130 140 140 138 140 132 134 132 132 134 132 132 134 132 132 134 132 132 134 132 132 134 132 132 134 132 132 134 132 132 134 132 49 48 49 49 48 49 49 48 49 49 48 49 49 48 49 49 48 49 49 48 49 49 48 49 49 48 49 49 48 49 49 48 49 49 48 49 49 48 49 49 48 49 49 48 49 49 48 49 49 48 49 49 48 49 49 48 49 49 48 49 49 48 49 49 48 49 49 48 49 49 48 49 49 48 49 49 48 49 49 48 49 49 48 49
49 48 49 49 48 49 49 48 49 49 48 49 49 48 49 49 48 49 49 48 49 49 48 49 49 48 49 49 48 49 49 48 49 49 48 49 49 48 49 49 48 49 49 48 49 49 48 49 49 48 49 49 48 49 49 48 49 49 48 49 49 48 49 49 48 49 49 48 49 49 48 49 49 48 49 49 48 49 49 48 49 49 48 49 49 48 49 49 48 49 49 48 49 49 48 49 0 0 0 0 0 0 0 0 0 0 0 0 0 0 0 0 0 0 0 0 0 140 138 140 140 138 140 140 138 140 123 130 132 41 93 99 41 93 99 41 97 99 41 101 107 49 105 115 57 109 115 74 117 123 82 121 132 99 134 140 107 142 148 123 146 148 140 162 165 189 190 189 189 186 189 8 60 66 8 69 74 74 101 107 115 134 132 99 125 132 16 97 99 24 101 107 148 162 165 24 109 115 24 109 115 74 125 132 123 150 156 148 162 165 90 138 140 24 117 123 132 154 156 74 130 140 24 121 123 24 121 123 24 121 123 24 121 132 140 162 165 24 121 132 24 121 132 24 121 132 140 138 140 140 138 140 140 138 140 132 134 132 41 93 99 107 134 140 74 121 132 90 134 140 140 146 148 132 134 132 132 134 132 132 134 132 132 134 132 132 134 132 132 134 132 132 134 132 132 134 132 132 134 132 49 48 49 49 48 49 49 48 49 49 48 49 49 48 49 49 48 49 49 48 49 49 48 49 49 48 49 49 48 49 49 48 49 49 48 49 49 48 49 49 48 49 49 48 49 49 48 49 49 48 49 49 48 49 49 48 49 49 48 49 49 48 49 49 48 49 49 48 49 49 48 49 49 48 49 49 48 49 49 48 49 49 48 49
49 48 49 49 48 49 49 48 49 49 48 49 49 48 49 49 48 49 49 48 49 49 48 49 49 48 49 49 48 49 49 48 49 49 48 49 49 48 49 49 48 49 49 48 49 49 48 49 49 48 49 49 48 49 49 48 49 49 48 49 49 48 49 49 48 49 49 48 49 49 48 49 49 48 49 49 48 49 49 48 49 49 48 49 49 48 49 49 48 49 49 48 49 49 48 49 0 0 0 0 0 0 0 0 0 0 0 0 0 0 0 0 0 0 0 0 0 140 138 140 140 138 140 140 138 140 123 130 132 41 93 99 41 93 99 41 97 99 41 101 107 49 105 115 57 109 115 74 117 123 82 121 132 90 130 132 107 142 148 123 150 156 140 162 165 189 190 189 181 182 181 8 60 66 8 69 74 49 89 90 115 130 132 99 125 132 16 97 99 107 134 132 115 138 140 99 134 140 24 109 115 74 125 132 173 178 181 99 138 140 90 138 140 24 117 123 66 125 132 148 166 165 148 162 165 24 121 123 24 121 123 140 162 165 165 174 173 24 121 132 24 121 132 24 121 132 140 138 140 140 138 140 140 138 140 132 134 132 41 93 99 57 109 115 189 190 189 99 138 140 132 142 148 140 138 140 132 134 132 132 134 132 132 134 132 132 134 132 132 134 132 132 134 132 132 134 132 132 134 132 49 48 49 49 48 49 49 48 49 49 48 49 49 48 49 49 48 49 49 48 49 49 48 49 49 48 49 49 48 49 49 48 49 49 48 49 49 48 49 49 48 49 49 48 49 49 48 49 49 48 49 49 48 49 49 48 49 49 48 49 49 48 49 49 48 49 49 48 49 49 48 49 49 48 49 49 48 49 49 48 49 49 48 49
49 48 49 49 48 49 49 48 49 49 48 49 49 48 49 49 48 49 49 48 49 49 48 49 49 48 49 49 48 49 49 48 49 49 48 49 49 48 49 49 48 49 49 48 49 49 48 49 49 48 49 49 48 49 49 48 49 49 48 49 49 48 49 49 48 49 49 48 49 49 48 49 49 48 49 49 48 49 49 48 49 49 48 49 49 48 49 49 48 49 49 48 49 0 0 0 0 0 0 0 0 0 0 0 0 0 0 0 0 0 0 0 0 0 0 0 0 140 138 140 140 138 140 140 138 140 123 130 132 41 85 90 41 93 99 41 97 99 115 138 140 90 121 123 57 109 115 74 117 123 82 121 132 90 130 132 107 142 148 123 146 148 148 162 165 198 195 198 189 190 189 8 60 66 24 73 74 148 154 156 16 85 90 16 89 99 16 97 99 16 101 107 16 101 107 24 109 115 24 109 115 24 113 115 24 113 123 24 113 123 24 117 123 24 117 123 24 117 123 24 117 123 24 121 123 24 121 123 24 121 123 24 121 132 24 121 132 24 121 132 24 121 132 24 121 132 140 138 140 140 138 140 140 138 140 132 134 132 41 93 99 66 113 115 189 186 189 115 146 148 16 81 90 123 130 132 132 134 132 132 134 132 132 134 132 132 134 132 132 134 132 132 134 132 132 134 132 132 134 132 49 48 49 49 48 49 49 48 49 49 48 49 49 48 49 49 48 49 49 48 49 49 48 49 49 48 49 49 48 49 49 48 49 49 48 49 49 48 49 49 48 49 49 48 49 49 48 49 49 48 49 49 48 49 49 48 49 49 48 49 49 48 49 49 48 49 49 48 49 49 48 49 49 48 49 49 48 49 49 48 49 49 48 49
49 48 49 49 48 49 49 48 49 49 48 49 49 48 49 49 48 49 49 48 49 49 48 49 49 48 49 49 48 49 49 48 49 49 48 49 49 48 49 49 48 49 49 48 49 49 48 49 49 48 49 49 48 49 49 48 49 49 48 49 49 48 49 49 48 49 49 48 49 49 48 49 49 48 49 49 48 49 49 48 49 49 48 49 49 48 49 49 48 49 49 48 49 49 48 49 0 0 0 0 0 0 0 0 0 0 0 0 0 0 0 0 0 0 0 0 0 140 138 140 140 138 140 140 138 140 123 130 132 41 89 90 41 93 99 41 97 99 165 170 173 140 154 156 57 109 115 66 117 123 74 121 123 82 125 132 107 138 140 115 146 148 132 154 156 198 195 198 198 195 198 8 60 66 8 69 74 8 77 82 16 85 90 16 89 99 16 97 99 16 101 107 16 101 107 24 109 115 24 109 115 24 113 115 24 113 123 24 113 123 24 117 123 24 117 123 24 117 123 24 117 123 24 121 123 24 121 123 24 121 123 24 121 132 24 121 132 24 121 132 24 121 132 24 121 132 140 138 140 140 138 140 140 138 140 132 134 132 41 97 99 66 113 123 132 154 156 132 154 156 16 81 90 16 97 107 132 134 132 132 134 132 132 134 132 132 134 132 132 134 132 132 134 132 132 134 132 132 134 132 49 48 49 49 48 49 49 48 49 49 48 49 49 48 49 49 48 49 49 48 49 49 48 49 49 48 49 49 48 49 49 48 49 49 48 49 49 48 49 49 48 49 49 48 49 49 48 49 49 48 49 49 48 49 49 48 49 49 48 49 49 48 49 49 48 49 49 48 49 49 48 49 49 48 49 49 48 49 49 48 49 49 48 49
49 48 49 49 48 49 49 48 49 49 48 49 49 48 49 49 48 49 49 48 49 49 48 49 49 48 49 49 48 49 49 48 49 49 48 49 49 48 49 49 48 49 49 48 49 49 48 49 49 48 49 49 48 49 49 48 49 49 48 49 49 48 49 49 48 49 49 48 49 49 48 49 49 48 49 49 48 49 49 48 49 49 48 49 49 48 49 49 48 49 49 48 49 49 48 49 0 0 0 0 0 0 0 0 0 0 0 0 0 0 0 0 0 0 0 0 0 140 138 140 140 138 140 140 138 140 123 130 132 41 89 90 41 93 99 41 97 99 165 170 173 140 154 156 57 109 115 57 113 115 74 121 123 82 125 132 99 138 140 115 146 148 181 186 189 189 190 189 173 182 181 8 60 66 8 69 74 8 77 82 16 85 90 16 89 99 16 97 99 16 101 107 16 101 107 24 109 115 24 109 115 24 113 115 24 113 123 24 113 123 24 117 123 24 117 123 24 117 123 24 117 123 24 121 123 24 121 123 24 121 123 24 121 132 24 121 132 24 121 132 24 121 132 123 134 132 140 138 140 140 138 140 140 138 140 132 134 132 99 121 123 74 121 123 140 154 156 24 65 66 16 85 90 16 101 107 115 130 132 132 134 132 132 134 132 132 134 132 132 134 132 132 134 132 132 134 132 132 134 132 49 48 49 49 48 49 49 48 49 49 48 49 49 48 49 49 48 49 49 48 49 49 48 49 49 48 49 49 48 49 49 48 49 49 48 49 49 48 49 49 48 49 49 48 49 49 48 49 49 48 49 49 48 49 49 48 49 49 48 49 49 48 49 49 48 49 49 48 49 49 48 49 49 48 49 49 48 49 49 48 49 49 48 49
49 48 49 49 48 49 49 48 49 49 48 49 49 48 49 49 48 49 49 48 49 49 48 49 49 48 49 49 48 49 49 48 49 49 48 49 49 48 49 49 48 49 49 48 49 49 48 49 49 48 49 49 48 49 49 48 49 49 48 49 49 48 49 49 48 49 49 48 49 49 48 49 49 48 49 49 48 49 49 48 49 49 48 49 49 48 49 49 48 49 49 48 49 49 48 49 0 0 0 0 0 0 0 0 0 0 0 0 0 0 0 0 0 0 0 0 0 140 138 140 140 138 140 140 138 140 123 130 132 41 89 90 41 93 99 41 97 99 90 121 123 198 195 198 198 195 198 181 182 181 148 162 165 156 170 173 198 195 198 198 195 198 189 186 189 132 154 156 132 158 165 82 101 107 8 69 74 8 77 82 16 85 90 16 89 99 16 97 99 16 101 107 16 101 107 24 109 115 24 109 115 24 113 115 24 113 123 24 117 123 24 117 123 24 117 123 24 117 123 24 117 123 24 121 123 24 121 123 24 121 132 24 121 132 24 121 132 24 121 132 24 121 132 123 134 132 140 138 140 140 138 140 140 138 140 115 125 123 189 190 189 74 121 123 123 146 148 8 56 57 16 85 90 16 101 107 24 109 115 132 134 132 132 134 132 132 134 132 132 134 132 132 134 132 132 134 132 132 134 132 49 48 49 49 48 49 49 48 49 49 48 49 49 48 49 49 48 49 49 48 49 49 48 49 49 48 49 49 48 49 49 48 49 49 48 49 49 48 49 49 48 49 49 48 49 49 48 49 49 48 49 49 48 49 49 48 49 49 48 49 49 48 49 49 48 49 49 48 49 49 48 49 49 48 49 49 48 49 49 48 49 49 48 49
49 48 49 49 48 49 49 48 49 49 48 49 49 48 49 49 48 49 49 48 49 49 48 49 49 48 49 49 48 49 49 48 49 49 48 49 49 48 49 49 48 49 49 48 49 49 48 49 49 48 49 49 48 49 49 48 49 49 48 49 49 48 49 49 48 49 49 48 49 49 48 49 49 48 49 49 48 49 49 48 49 49 48 49 49 48 49 49 48 49 49 48 49 49 48 49 0 0 0 0 0 0 0 0 0 0 0 0 0 0 0 0 0 0 0 0 0 0 0 0 140 138 140 140 138 140 123 130 132 41 89 90 41 93 99 41 97 99 41 101 107 148 158 156 189 190 189 198 195 198 198 195 198 198 195 198 189 190 189 156 166 173 99 138 140 115 146 148 123 150 156 181 182 189 74 97 99 8 77 82 16 85 90 16 89 99 16 97 99 16 101 107 16 101 107 24 109 115 24 109 115 24 113 115 24 113 123 24 117 123 24 117 123 24 117 123 24 117 123 24 117 123 24 121 123 24 121 123 24 121 132 24 121 132 24 121 132 24 121 132 24 121 132 123 134 132 140 138 140 140 138 140 140 138 140 115 125 123 189 190 189 82 125 132 140 154 156 8 65 66 16 85 90 24 101 107 24 109 115 115 130 132 132 134 132 132 134 132 132 134 132 132 134 132 132 134 132 132 134 132 49 48 49 49 48 49 49 48 49 49 48 49 49 48 49 49 48 49 49 48 49 49 48 49 49 48 49 49 48 49 49 48 49 49 48 49 49 48 49 49 48 49 49 48 49 49 48 49 49 48 49 49 48 49 49 48 49 49 48 49 49 48 49 49 48 49 49 48 49 49 48 49 49 48 49 49 48 49 49 48 49 49 48 49
49 48 49 49 48 49 49 48 49 49 48 49 49 48 49 49 48 49 49 48 49 49 48 49 49 48 49 49 48 49 49 48 49 49 48 49 49 48 49 49 48 49 49 48 49 49 48 49 49 48 49 49 48 49 49 48 49 49 48 49 49 48 49 49 48 49 49 48 49 49 48 49 49 48 49 49 48 49 49 48 49 49 48 49 49 48 49 49 48 49 49 48 49 49 48 49 0 0 0 0 0 0 0 0 0 0 0 0 0 0 0 0 0 0 0 0 0 0 0 0 140 138 140 140 138 140 140 138 140 41 89 90 41 93 99 41 97 99 41 101 107 41 101 107 49 109 115 49 109 115 57 117 123 66 117 123 74 121 132 82 130 140 90 134 140 107 142 148 115 146 148 140 158 165 165 166 165 8 77 82 16 85 90 16 89 99 16 97 99 16 101 107 16 101 107 24 109 115 24 109 115 24 113 115 24 113 123 24 117 123 24 117 123 24 117 123 24 117 123 24 117 123 24 121 123 24 121 123 24 121 132 24 121 132 24 121 132 24 121 132 24 121 132 123 134 132 140 138 140 140 138 140 140 138 140 33 85 90 173 178 181 82 125 132 140 158 156 8 65 66 16 89 99 24 101 107 24 109 115 24 113 123 132 134 132 132 134 132 132 134 132 132 134 132 132 134 132 49 48 49 49 48 49 49 48 49 49 48 49 49 48 49 49 48 49 49 48 49 49 48 49 49 48 49 49 48 49 49 48 49 49 48 49 49 48 49 49 48 49 49 48 49 49 48 49 49 48 49 49 48 49 49 48 49 49 48 49 49 48 49 49 48 49 49 48 49 49 48 49 49 48 49 49 48 49 49 48 49 49 48 49 49 48 49
49 48 49 49 48 49 49 48 49 49 48 49 49 48 49 49 48 49 49 48 49 49 48 49 49 48 49 49 48 49 49 48 49 49 48 49 49 48 49 49 48 49 49 48 49 49 48 49 49 48 49 49 48 49 49 48 49 49 48 49 49 48 49 49 48 49 49 48 49 49 48 49 49 48 49 49 48 49 49 48 49 49 48 49 49 48 49 49 48 49 49 48 49 49 48 49 0 0 0 0 0 0 0 0 0 0 0 0 0 0 0 0 0 0 0 0 0 0 0 0 140 138 140 140 138 140 140 138 140 41 89 90 41 93 99 41 97 99 41 101 107 41 101 107 49 109 115 49 109 115 57 113 123 57 117 123 66 121 123 74 125 132 82 130 132 90 134 140 90 138 140 99 142 148 107 146 148 156 170 173 16 85 90 16 89 99 16 97 99 16 101 107 16 101 107 24 109 115 24 109 115 24 113 115 82 121 132 82 125 132 82 125 132 82 125 132 82 125 132 82 125 132 82 125 132 82 125 132 82 125 132 82 125 132 82 125 132 82 125 132 107 130 132 140 138 140 140 138 140 140 138 140 140 138 140 33 85 90 189 190 189 90 130 132 181 182 189 57 85 90 16 89 99 24 105 107 24 109 115 24 113 123 132 134 132 132 134 132 132 134 132 132 134 132 132 134 132 49 48 49 49 48 49 49 48 49 49 48 49 49 48 49 49 48 49 49 48 49 49 48 49 49 48 49 49 48 49 49 48 49 49 48 49 49 48 49 49 48 49 49 48 49 49 48 49 49 48 49 49 48 49 49 48 49 49 48 49 49 48 49 49 48 49 49 48 49 49 48 49 49 48 49 49 48 49 49 48 49 49 48 49 49 48 49
49 48 49 49 48 49 49 48 49 49 48 49 49 48 49 49 48 49 49 48 49 49 48 49 49 48 49 49 48 49 49 48 49 49 48 49 49 48 49 49 48 49 49 48 49 49 48 49 49 48 49 49 48 49 49 48 49 49 48 49 49 48 49 49 48 49 49 48 49 49 48 49 49 48 49 49 48 49 49 48 49 49 48 49 49 48 49 49 48 49 49 48 49 49 48 49 0 0 0 0 0 0 0 0 0 0 0 0 0 0 0 0 0 0 0 0 0 0 0 0 140 138 140 140 138 140 140 138 140 107 121 123 90 109 115 90 113 115 90 117 115 90 117 123 90 121 123 90 121 123 99 121 123 99 125 132 99 125 132 99 130 132 107 134 140 107 138 140 115 138 140 140 142 140 140 142 140 148 146 148 148 146 148 148 146 148 140 142 140 140 142 140 140 142 140 140 138 140 140 138 140 140 138 140 140 138 140 140 138 140 140 138 140 140 138 140 140 138 140 140 138 140 140 138 140 140 138 140 140 138 140 140 138 140 140 138 140 140 138 140 140 138 140 140 138 140 140 138 140 140 138 140 140 138 140 41 89 90 140 154 156 90 125 132 189 186 189 140 146 148 16 93 99 24 105 107 24 109 115 24 113 123 115 130 132 132 134 132 132 134 132 132 134 132 132 134 132 49 48 49 49 48 49 49 48 49 49 48 49 49 48 49 49 48 49 49 48 49 49 48 49 49 48 49 49 48 49 49 48 49 49 48 49 49 48 49 49 48 49 49 48 49 49 48 49 49 48 49 49 48 49 49 48 49 49 48 49 49 48 49 49 48 49 49 48 49 49 48 49 49 48 49 49 48 49 49 48 49 49 48 49 49 48 49
49 48 49 49 48 49 49 48 49 49 48 49 49 48 49 49 48 49 49 48 49 49 48 49 49 48 49 49 48 49 49 48 49 49 48 49 49 48 49 49 48 49 49 48 49 49 48 49 49 48 49 49 48 49 49 48 49 49 48 49 49 48 49 49 48 49 49 48 49 49 48 49 49 48 49 49 48 49 49 48 49 49 48 49 49 48 49 49 48 49 49 48 49 49 48 49 0 0 0 0 0 0 0 0 0 0 0 0 0 0 0 0 0 0 0 0 0 0 0 0 140 138 140 140 138 140 140 138 140 140 138 140 140 138 140 140 138 140 140 138 140 140 138 140 140 138 140 140 138 140 140 138 140 140 138 140 140 138 140 140 138 140 140 138 140 140 138 140 140 138 140 140 142 140 140 142 140 140 142 140 140 142 140 140 142 140 140 142 140 140 138 140 140 138 140 140 138 140 140 138 140 140 138 140 140 138 140 140 138 140 140 138 140 140 138 140 140 138 140 140 138 140 140 138 140 140 138 140 140 138 140 140 138 140 140 138 140 140 138 140 140 138 140 140 138 140 140 138 140 140 138 140 132 134 132 82 109 107 49 105 107 123 146 148 189 190 189 148 158 156 16 93 99 24 105 115 24 113 115 24 113 123 24 117 123 132 134 132 132 134 132 132 134 132 132 134 132 49 48 49 49 48 49 49 48 49 49 48 49 49 48 49 49 48 49 49 48 49 49 48 49 49 48 49 49 48 49 49 48 49 49 48 49 49 48 49 49 48 49 49 48 49 49 48 49 49 48 49 49 48 49 49 48 49 49 48 49 49 48 49 49 48 49 49 48 49 49 48 49 49 48 49 49 48 49 49 48 49 49 48 49 49 48 49
49 48 49 49 48 49 49 48 49 49 48 49 49 48 49 49 48 49 49 48 49 49 48 49 49 48 49 49 48 49 49 48 49 49 48 49 49 48 49 49 48 49 49 48 49 49 48 49 49 48 49 49 48 49 49 48 49 49 48 49 49 48 49 49 48 49 49 48 49 49 48 49 49 48 49 49 48 49 49 48 49 49 48 49 49 48 49 49 48 49 49 48 49 49 48 49 49 48 49 0 0 0 0 0 0 0 0 0 0 0 0 0 0 0 0 0 0 0 0 0 140 138 140 140 138 140 140 138 140 140 138 140 140 138 140 140 138 140 140 138 140 140 138 140 140 138 140 140 138 140 140 138 140 140 138 140 140 138 140 140 138 140 140 138 140 140 138 140 140 138 140 140 138 140 140 138 140 140 138 140 140 138 140 140 138 140 140 138 140 140 138 140 140 138 140 140 138 140 140 138 140 140 138 140 140 138 140 140 138 140 140 138 140 140 138 140 140 138 140 140 138 140 140 138 140 140 138 140 140 138 140 140 138 140 140 138 140 140 138 140 140 138 140 140 138 140 140 138 140 140 138 140 132 134 132 132 134 132 49 105 107 181 186 189 165 174 173 57 93 99 16 97 107 24 105 115 24 113 115 24 113 123 24 117 123 115 130 132 132 134 132 132 134 132 132 134 132 49 48 49 49 48 49 49 48 49 49 48 49 49 48 49 49 48 49 49 48 49 49 48 49 49 48 49 49 48 49 49 48 49 49 48 49 49 48 49 49 48 49 49 48 49 49 48 49 49 48 49 49 48 49 49 48 49 49 48 49 49 48 49 49 48 49 49 48 49 49 48 49 49 48 49 49 48 49 49 48 49 49 48 49 49 48 49
49 48 49 49 48 49 49 48 49 49 48 49 49 48 49 49 48 49 49 48 49 49 48 49 49 48 49 49 48 49 49 48 49 49 48 49 49 48 49 49 48 49 49 48 49 49 48 49 49 48 49 49 48 49 49 48 49 49 48 49 49 48 49 49 48 49 49 48 49 49 48 49 49 48 49 49 48 49 49 48 49 49 48 49 49 48 49 49 48 49 49 48 49 49 48 49 49 48 49 0 0 0 0 0 0 0 0 0 0 0 0 0 0 0 0 0 0 0 0 0 140 138 140 140 138 140 140 138 140 140 138 140 140 138 140 140 138 140 140 138 140 140 138 140 140 138 140 140 138 140 140 138 140 140 138 140 140 138 140 140 138 140 140 138 140 140 138 140 140 138 140 140 138 140 140 138 140 140 138 140 140 138 140 140 138 140 140 138 140 140 138 140 140 138 140 140 138 140 140 138 140 140 138 140 140 138 140 140 138 140 140 138 140 140 138 140 140 138 140 140 138 140 140 138 140 140 138 140 140 138 140 140 138 140 140 138 140 140 138 140 140 138 140 140 138 140 140 138 140 140 138 140 132 134 132 132 134 132 49 105 115 90 130 132 173 174 173 16 81 90 24 97 107 24 109 115 24 113 115 24 113 123 24 117 123 24 117 123 132 134 132 132 134 132 132 134 132 49 48 49 49 48 49 49 48 49 49 48 49 49 48 49 49 48 49 49 48 49 49 48 49 49 48 49 49 48 49 49 48 49 49 48 49 49 48 49 49 48 49 49 48 49 49 48 49 49 48 49 49 48 49 49 48 49 49 48 49 49 48 49 49 48 49 49 48 49 49 48 49 49 48 49 49 48 49 49 48 49 49 48 49 49 48 49
49 48 49 49 48 49 49 48 49 49 48 49 49 48 49 49 48 49 49 48 49 49 48 49 49 48 49 49 48 49 49 48 49 49 48 49 49 48 49 49 48 49 49 48 49 49 48 49 49 48 49 49 48 49 49 48 49 49 48 49 49 48 49 49 48 49 49 48 49 49 48 49 49 48 49 49 48 49 49 48 49 49 48 49 49 48 49 49 48 49 49 48 49 49 48 49 49 48 49 0 0 0 0 0 0 0 0 0 0 0 0 0 0 0 0 0 0 0 0 0 140 138 140 140 138 140 140 138 140 140 138 140 140 138 140 140 138 140 140 138 140 140 138 140 140 138 140 140 138 140 140 138 140 140 138 140 140 138 140 140 138 140 140 138 140 140 138 140 140 138 140 140 138 140 140 138 140 140 138 140 140 138 140 140 138 140 140 138 140 140 138 140 140 138 140 140 138 140 140 138 140 140 138 140 140 138 140 140 138 140 140 138 140 140 138 140 140 138 140 140 138 140 140 138 140 140 138 140 140 138 140 140 138 140 140 138 140 140 138 140 140 138 140 140 138 140 140 138 140 140 138 140 132 134 132 132 134 132 90 117 123 82 125 132 181 182 181 16 81 90 107 134 140 24 109 115 24 113 115 24 113 123 24 117 123 24 117 123 115 130 132 132 134 132 132 134 132 49 48 49 49 48 49 49 48 49 49 48 49 49 48 49 49 48 49 49 48 49 49 48 49 49 48 49 49 48 49 49 48 49 49 48 49 49 48 49 49 48 49 49 48 49 49 48 49 49 48 49 49 48 49 49 48 49 49 48 49 49 48 49 49 48 49 49 48 49 49 48 49 49 48 49 49 48 49 49 48 49 49 48 49 49 48 49
49 48 49 49 48 49 49 48 49 49 48 49 49 48 49 49 48 49 49 48 49 49 48 49 49 48 49 49 48 49 49 48 49 49 48 49 49 48 49 49 48 49 49 48 49 49 48 49 49 48 49 49 48 49 49 48 49 49 48 49 49 48 49 49 48 49 49 48 49 49 48 49 49 48 49 49 48 49 49 48 49 49 48 49 49 48 49 49 48 49 49 48 49 49 48 49 49 48 49 0 0 0 0 0 0 0 0 0 0 0 0 0 0 0 0 0 0 0 0 0 140 138 140 140 138 140 140 138 140 140 138 140 140 138 140 140 138 140 140 138 140 140 138 140 140 138 140 140 138 140 140 138 140 140 138 140 140 138 140 140 138 140 140 138 140 140 138 140 140 138 140 140 138 140 140 138 140 140 138 140 140 138 140 140 138 140 140 138 140 140 138 140 140 138 140 140 138 140 140 138 140 140 138 140 140 138 140 140 138 140 140 138 140 140 138 140 140 138 140 140 138 140 140 138 140 140 138 140 140 138 140 140 138 140 140 138 140 140 138 140 140 138 140 140 138 140 140 138 140 140 138 140 132 134 132 132 134 132 132 134 132 74 125 132 148 154 156 16 85 90 24 101 107 74 121 123 24 113 123 24 113 123 24 117 123 24 117 123 24 117 123 132 134 132 132 134 132 49 48 49 49 48 49 49 48 49 49 48 49 49 48 49 49 48 49 49 48 49 49 48 49 49 48 49 49 48 49 49 48 49 49 48 49 49 48 49 49 48 49 49 48 49 49 48 49 49 48 49 49 48 49 49 48 49 49 48 49 49 48 49 49 48 49 49 48 49 49 48 49 49 48 49 49 48 49 49 48 49 49 48 49 49 48 49
49 48 49 49 48 49 49 48 49 49 48 49 49 48 49 49 48 49 49 48 49 49 48 49 49 48 49 49 48 49 49 48 49 49 48 49 49 48 49 49 48 49 49 48 49 49 48 49 49 48 49 49 48 49 49 48 49 49 48 49 49 48 49 49 48 49 49 48 49 49 48 49 49 48 49 49 48 49 49 48 49 49 48 49 49 48 49 49 48 49 49 48 49 49 48 49 49 48 49 0 0 0 0 0 0 0 0 0 0 0 0 0 0 0 0 0 0 0 0 0 140 138 140 140 138 140 140 138 140 140 138 140 140 138 140 140 138 140 140 138 140 140 138 140 140 138 140 140 138 140 140 138 140 140 138 140 140 138 140 140 138 140 140 138 140 140 138 140 140 138 140 140 138 140 140 138 140 140 138 140 140 138 140 140 138 140 140 138 140 140 138 140 140 138 140 140 138 140 140 138 140 140 138 140 140 138 140 140 138 140 140 138 140 140 138 140 140 138 140 140 138 140 140 138 140 140 138 140 140 138 140 140 138 140 140 138 140 140 138 140 140 138 140 140 138 140 140 138 140 140 138 140 132 134 132 132 134 132 132 134 132 99 130 132 173 178 181 16 85 90 24 101 107 74 121 123 57 121 123 24 113 123 24 117 123 24 117 123 24 117 123 132 134 132 49 48 49 49 48 49 49 48 49 49 48 49 49 48 49 49 48 49 49 48 49 49 48 49 49 48 49 49 48 49 49 48 49 49 48 49 49 48 49 49 48 49 49 48 49 49 48 49 49 48 49 49 48 49 49 48 49 49 48 49 49 48 49 49 48 49 49 48 49 49 48 49 49 48 49 49 48 49 49 48 49 49 48 49 49 48 49 49 48 49
49 48 49 49 48 49 49 48 49 49 48 49 49 48 49 49 48 49 49 48 49 49 48 49 49 48 49 49 48 49 49 48 49 49 48 49 49 48 49 49 48 49 49 48 49 49 48 49 49 48 49 49 48 49 49 48 49 49 48 49 49 48 49 49 48 49 49 48 49 49 48 49 49 48 49 49 48 49 49 48 49 49 48 49 49 48 49 49 48 49 49 48 49 49 48 49 49 48 49 0 0 0 0 0 0 0 0 0 0 0 0 0 0 0 0 0 0 0 0 0 140 138 140 140 138 140 140 138 140 140 138 140 140 138 140 140 138 140 140 138 140 140 138 140 140 138 140 140 138 140 140 138 140 140 138 140 140 138 140 140 138 140 140 138 140 140 138 140 140 138 140 140 138 140 140 138 140 140 138 140 140 138 140 140 138 140 140 138 140 140 138 140 140 138 140 140 138 140 140 138 140 140 138 140 140 138 140 140 138 140 140 138 140 140 138 140 140 138 140 140 138 140 140 138 140 140 138 140 140 138 140 140 138 140 140 138 140 140 138 140 140 138 140 140 138 140 140 138 140 140 138 140 132 134 132 132 134 132 132 134 132 132 134 132 148 162 165 16 85 90 24 101 107 74 121 123 24 113 123 24 113 123 24 117 123 24 117 123 24 117 123 132 134 132 49 48 49 49 48 49 49 48 49 49 48 49 49 48 49 49 48 49 49 48 49 49 48 49 49 48 49 49 48 49 49 48 49 49 48 49 49 48 49 49 48 49 49 48 49 49 48 49 49 48 49 49 48 49 49 48 49 49 48 49 49 48 49 49 48 49 49 48 49 49 48 49 49 48 49 49 48 49 49 48 49 49 48 49 49 48 49 49 48 49
49 48 49 49 48 49 49 48 49 49 48 49 49 48 49 49 48 49 49 48 49 49 48 49 49 48 49 49 48 49 49 48 49 49 48 49 49 48 49 49 48 49 49 48 49 49 48 49 49 48 49 49 48 49 49 48 49 49 48 49 49 48 49 49 48 49 49 48 49 49 48 49 49 48 49 49 48 49 49 48 49 49 48 49 49 48 49 49 48 49 49 48 49 49 48 49 49 48 49 0 0 0 0 0 0 0 0 0 0 0 0 0 0 0 0 0 0 0 0 0 0 0 0 140 138 140 140 138 140 140 138 140 140 138 140 140 138 140 140 138 140 140 138 140 140 138 140 140 138 140 140 138 140 140 138 140 140 138 140 140 138 140 140 138 140 140 138 140 140 138 140 140 138 140 140 138 140 140 138 140 140 138 140 140 138 140 140 138 140 140 138 140 140 138 140 140 138 140 140 138 140 140 138 140 140 138 140 140 138 140 140 138 140 140 138 140 140 138 140 140 138 140 140 138 140 140 138 140 140 138 140 140 138 140 140 138 140 140 138 140 140 138 140 140 138 140 140 138 140 140 138 140 132 134 132 132 134 132 132 134 132 132 134 132 99 142 148 16 89 99 24 105 107 24 109 115 24 113 123 24 117 123 24 117 123 24 117 123 24 117 123 132 134 132 49 48 49 49 48 49 49 48 49 49 48 49 49 48 49 49 48 49 49 48 49 49 48 49 49 48 49 49 48 49 49 48 49 49 48 49 49 48 49 49 48 49 49 48 49 49 48 49 49 48 49 49 48 49 49 48 49 49 48 49 49 48 49 49 48 49 49 48 49 49 48 49 49 48 49 49 48 49 49 48 49 49 48 49 49 48 49 49 48 49
49 48 49 49 48 49 49 48 49 49 48 49 49 48 49 49 48 49 49 48 49 49 48 49 49 48 49 49 48 49 49 48 49 49 48 49 49 48 49 49 48 49 49 48 49 49 48 49 49 48 49 49 48 49 49 48 49 49 48 49 49 48 49 49 48 49 49 48 49 49 48 49 49 48 49 49 48 49 49 48 49 49 48 49 49 48 49 49 48 49 49 48 49 49 48 49 49 48 49 0 0 0 0 0 0 0 0 0 0 0 0 0 0 0 0 0 0 0 0 0 0 0 0 140 138 140 140 138 140 140 138 140 140 138 140 140 138 140 140 138 140 140 138 140 140 138 140 140 138 140 140 138 140 140 138 140 140 138 140 140 138 140 140 138 140 140 138 140 140 138 140 140 138 140 140 138 140 140 138 140 140 138 140 140 138 140 140 138 140 140 138 140 140 138 140 140 138 140 140 138 140 140 138 140 140 138 140 140 138 140 140 138 140 140 138 140 140 138 140 140 138 140 140 138 140 140 138 140 140 138 140 140 138 140 140 138 140 140 138 140 140 138 140 140 138 140 140 138 140 140 138 140 132 134 132 132 134 132 132 134 132 132 134 132 115 142 140 16 89 99 24 105 107 24 109 115 24 113 123 24 117 123 24 117 123 24 117 123 115 130 132 132 134 132 49 48 49 49 48 49 49 48 49 49 48 49 49 48 49 49 48 49 49 48 49 49 48 49 49 48 49 49 48 49 49 48 49 49 48 49 49 48 49 49 48 49 49 48 49 49 48 49 49 48 49 49 48 49 49 48 49 49 48 49 49 48 49 49 48 49 49 48 49 49 48 49 49 48 49 49 48 49 49 48 49 49 48 49 49 48 49 49 48 49
49 48 49 49 48 49 49 48 49 49 48 49 49 48 49 49 48 49 49 48 49 49 48 49 49 48 49 49 48 49 49 48 49 49 48 49 49 48 49 49 48 49 49 48 49 49 48 49 49 48 49 49 48 49 49 48 49 49 48 49 49 48 49 49 48 49 49 48 49 49 48 49 49 48 49 49 48 49 49 48 49 49 48 49 49 48 49 49 48 49 49 48 49 49 48 49 49 48 49 49 48 49 0 0 0 0 0 0 0 0 0 0 0 0 0 0 0 0 0 0 0 0 0 140 138 140 140 138 140 140 138 140 140 138 140 140 138 140 140 138 140 140 138 140 140 138 140 140 138 140 140 138 140 140 138 140 140 138 140 140 138 140 140 138 140 140 138 140 140 138 140 140 138 140 140 138 140 140 138 140 140 138 140 140 138 140 140 138 140 140 138 140 140 138 140 140 138 140 140 138 140 140 138 140 140 138 140 140 138 140 140 138 140 140 138 140 140 138 140 140 138 140 140 138 140 140 138 140 140 138 140 140 138 140 140 138 140 140 138 140 140 138 140 140 138 140 140 138 140 140 138 140 132 134 132 132 134 132 132 134 132 132 134 132 140 138 140 16 93 99 24 105 107 24 113 115 24 113 123 140 158 165 24 117 123 24 117 123 115 130 132 132 134 132 49 48 49 49 48 49 49 48 49 49 48 49 49 48 49 49 48 49 49 48 49 49 48 49 49 48 49 49 48 49 49 48 49 49 48 49 49 48 49 49 48 49 49 48 49 49 48 49 49 48 49 49 48 49 49 48 49 49 48 49 49 48 49 49 48 49 49 48 49 49 48 49 49 48 49 49 48 49 49 48 49 49 48 49 49 48 49 49 48 49
49 48 49 49 48 49 49 48 49 49 48 49 49 48 49 49 48 49 49 48 49 49 48 49 49 48 49 49 48 49 49 48 49 49 48 49 49 48 49 49 48 49 49 48 49 49 48 49 49 48 49 49 48 49 49 48 49 49 48 49 49 48 49 49 48 49 49 48 49 49 48 49 49 48 49 49 48 49 49 48 49 49 48 49 49 48 49 49 48 49 49 48 49 49 48 49 49 48 49 49 48 49 0 0 0 0 0 0 0 0 0 0 0 0 0 0 0 0 0 0 0 0 0 140 138 140 140 138 140 140 138 140 140 138 140 140 138 140 140 138 140 140 138 140 140 138 140 140 138 140 140 138 140 140 138 140 140 138 140 140 138 140 140 138 140 140 138 140 140 138 140 140 138 140 140 138 140 140 138 140 173 174 173 173 174 173 173 174 173 173 174 173 173 174 173 173 174 173 173 174 173 173 174 173 173 174 173 173 174 173 173 174 173 173 174 173 173 174 173 173 174 173 173 174 173 173 174 173 173 174 173 173 174 173 173 174 173 173 174 173 173 174 173 173 174 173 173 174 173 173 174 173 132 134 132 132 134 132 132 134 132 132 134 132 140 138 140 16 93 99 24 105 115 24 113 115 24 113 123 140 158 165 24 117 123 24 117 123 132 134 132 132 134 132 49 48 49 49 48 49 49 48 49 49 48 49 49 48 49 49 48 49 49 48 49 49 48 49 49 48 49 49 48 49 49 48 49 49 48 49 49 48 49 49 48 49 49 48 49 49 48 49 49 48 49 49 48 49 49 48 49 49 48 49 49 48 49 49 48 49 49 48 49 49 48 49 49 48 49 49 48 49 49 48 49 49 48 49 49 48 49 49 48 49
49 48 49 49 48 49 49 48 49 49 48 49 49 48 49 49 48 49 49 48 49 49 48 49 49 48 49 49 48 49 49 48 49 49 48 49 49 48 49 49 48 49 49 48 49 49 48 49 49 48 49 49 48 49 49 48 49 49 48 49 49 48 49 49 48 49 49 48 49 49 48 49 49 48 49 49 48 49 49 48 49 49 48 49 49 48 49 49 48 49 49 48 49 49 48 49 49 48 49 49 48 49 0 0 0 0 0 0 0 0 0 0 0 0 0 0 0 0 0 0 0 0 0 173 174 173 173 174 173 173 174 173 173 174 173 173 174 173 173 174 173 173 174 173 173 174 173 173 174 173 173 174 173 173 174 173 173 174 173 173 174 173 173 174 173 173 174 173 173 174 173 173 174 173 173 174 173 173 174 173 173 174 173 173 174 173 173 174 173 173 174 173 173 174 173 173 174 173 173 174 173 173 174 173 173 174 173 173 174 173 173 174 173 173 174 173 173 174 173 173 174 173 173 174 173 173 174 173 173 174 173 173 174 173 173 174 173 173 174 173 173 174 173 173 174 173 173 174 173 173 174 173 132 134 132 132 134 132 132 134 132 132 134 132 132 134 132 82 113 115 24 105 115 24 113 115 24 113 123 24 117 123 24 117 123 24 117 123 132 134 132 132 134 132 49 48 49 49 48 49 49 48 49 49 48 49 49 48 49 49 48 49 49 48 49 49 48 49 49 48 49 49 48 49 49 48 49 49 48 49 49 48 49 49 48 49 49 48 49 49 48 49 49 48 49 49 48 49 49 48 49 49 48 49 49 48 49 49 48 49 49 48 49 49 48 49 49 48 49 49 48 49 49 48 49 49 48 49 49 48 49 49 48 49
49 48 49 49 48 49 49 48 49 49 48 49 49 48 49 49 48 49 49 48 49 49 48 49 49 48 49 49 48 49 49 48 49 49 48 49 49 48 49 49 48 49 49 48 49 49 48 49 49 48 49 49 48 49 49 48 49 49 48 49 49 48 49 49 48 49 49 48 49 49 48 49 49 48 49 49 48 49 49 48 49 49 48 49 49 48 49 49 48 49 49 48 49 49 48 49 49 48 49 49 48 49 0 0 0 0 0 0 0 0 0 0 0 0 0 0 0 0 0 0 0 0 0 173 174 173 173 174 173 173 174 173 173 174 173 173 174 173 173 174 173 173 174 173 173 174 173 173 174 173 173 174 173 173 174 173 173 174 173 173 174 173 165 170 173 156 162 165 156 162 165 49 113 115 49 113 115 49 113 115 49 113 115 49 113 115 49 113 115 49 113 115 49 113 115 49 113 115 49 113 115 57 117 123 57 117 123 57 117 123 57 117 123 115 142 148 173 174 173 173 174 173 173 174 173 173 174 173 173 174 173 173 174 173 173 174 173 173 174 173 173 174 173 173 174 173 173 174 173 173 174 173 173 174 173 132 134 132 132 134 132 132 134 132 132 134 132 140 138 140 24 109 115 24 113 115 24 113 123 24 117 123 140 158 165 24 117 123 132 134 132 49 48 49 49 48 49 49 48 49 49 48 49 49 48 49 49 48 49 49 48 49 49 48 49 49 48 49 49 48 49 49 48 49 49 48 49 49 48 49 49 48 49 49 48 49 49 48 49 49 48 49 49 48 49 49 48 49 49 48 49 49 48 49 49 48 49 49 48 49 49 48 49 49 48 49 49 48 49 49 48 49 49 48 49 49 48 49 49 48 49 49 48 49
49 48 49 49 48 49 49 48 49 49 48 49 49 48 49 49 48 49 49 48 49 49 48 49 49 48 49 49 48 49 49 48 49 49 48 49 49 48 49 49 48 49 49 48 49 49 48 49 49 48 49 49 48 49 49 48 49 49 48 49 49 48 49 49 48 49 49 48 49 49 48 49 49 48 49 49 48 49 49 48 49 49 48 49 49 48 49 49 48 49 49 48 49 49 48 49 49 48 49 49 48 49 0 0 0 0 0 0 0 0 0 0 0 0 0 0 0 0 0 0 0 0 0 173 174 173 173 174 173 173 174 173 173 174 173 173 174 173 173 174 173 173 174 173 173 174 173 173 174 173 173 174 173 173 174 173 173 174 173 156 166 165 57 121 123 57 121 132 57 121 132 57 121 132 57 121 132 57 121 132 57 121 132 57 121 132 57 125 132 57 125 132 57 125 132 57 125 132 57 125 132 57 125 132 57 125 132 57 125 132 57 125 132 115 146 148 173 174 173 173 174 173 173 174 173 173 174 173 173 174 173 173 174 173 173 174 173 173 174 173 173 174 173 173 174 173 173 174 173 173 174 173 173 174 173 132 134 132 132 134 132 132 134 132 132 134 132 132 134 132 82 117 123 24 113 123 24 113 123 24 117 123 156 170 173 24 117 123 132 134 132 49 48 49 49 48 49 49 48 49 49 48 49 49 48 49 49 48 49 49 48 49 49 48 49 49 48 49 49 48 49 49 48 49 49 48 49 49 48 49 49 48 49 49 48 49 49 48 49 49 48 49 49 48 49 49 48 49 49 48 49 49 48 49 49 48 49 49 48 49 49 48 49 49 48 49 49 48 49 49 48 49 49 48 49 49 48 49 49 48 49 49 48 49
49 48 49 49 48 49 49 48 49 49 48 49 49 48 49 49 48 49 49 48 49 49 48 49 49 48 49 49 48 49 49 48 49 49 48 49 49 48 49 49 48 49 49 48 49 49 48 49 49 48 49 49 48 49 49 48 49 49 48 49 49 48 49 49 48 49 49 48 49 49 48 49 49 48 49 49 48 49 49 48 49 49 48 49 49 48 49 49 48 49 49 48 49 49 48 49 49 48 49 49 48 49 0 0 0 0 0 0 0 0 0 0 0 0 0 0 0 0 0 0 0 0 0 173 174 173 173 174 173 173 174 173 173 174 173 173 174 173 173 174 173 173 174 173 173 174 173 173 174 173 173 174 173 173 174 173 173 174 173 156 166 165 57 125 132 57 130 132 57 130 132 181 199 198 247 247 247 140 166 173 57 130 140 57 130 140 57 130 140 57 130 140 247 247 247 247 247 247 247 247 247 247 247 247 189 199 206 66 134 140 66 134 140 115 150 156 173 174 173 173 174 173 173 174 173 173 174 173 173 174 173 173 174 173 173 174 173 173 174 173 173 174 173 173 174 173 173 174 173 173 174 173 173 174 173 132 134 132 132 134 132 132 134 132 132 134 132 132 134 132 132 134 132 24 113 123 24 113 123 24 117 123 24 117 123 24 117 123 132 134 132 49 48 49 49 48 49 49 48 49 49 48 49 49 48 49 49 48 49 49 48 49 49 48 49 49 48 49 49 48 49 49 48 49 49 48 49 49 48 49 49 48 49 49 48 49 49 48 49 49 48 49 49 48 49 49 48 49 49 48 49 49 48 49 49 48 49 49 48 49 49 48 49 49 48 49 49 48 49 49 48 49 49 48 49 49 48 49 49 48 49 49 48 49
49 48 49 49 48 49 49 48 49 49 48 49 49 48 49 49 48 49 49 48 49 49 48 49 49 48 49 49 48 49 49 48 49 49 48 49 49 48 49 49 48 49 49 48 49 49 48 49 49 48 49 49 48 49 49 48 49 49 48 49 49 48 49 49 48 49 49 48 49 49 48 49 49 48 49 49 48 49 49 48 49 49 48 49 49 48 49 49 48 49 49 48 49 49 48 49 49 48 49 49 48 49 0 0 0 0 0 0 0 0 0 0 0 0 0 0 0 0 0 0 173 174 173 173 174 173 173 174 173 173 174 173 173 174 173 173 174 173 173 174 173 173 174 173 173 174 173 173 174 173 173 174 173 173 174 173 173 174 173 156 166 173 66 138 140 66 138 148 66 138 148 247 247 247 206 215 214 74 138 148 74 142 148 74 142 148 82 146 156 82 146 156 82 146 148 82 146 148 74 142 148 231 231 231 247 247 247 66 142 148 66 142 148 66 142 148 173 174 173 173 174 173 173 174 173 173 174 173 173 174 173 173 174 173 173 174 173 173 174 173 173 174 173 173 174 173 173 174 173 173 174 173 173 174 173 173 174 173 132 134 132 132 134 132 132 134 132 132 134 132 132 134 132 24 113 123 24 117 123 24 117 123 24 117 123 115 130 132 132 134 132 49 48 49 49 48 49 49 48 49 49 48 49 49 48 49 49 48 49 49 48 49 49 48 49 49 48 49 49 48 49 49 48 49 49 48 49 49 48 49 49 48 49 49 48 49 49 48 49 49 48 49 49 48 49 49 48 49 49 48 49 49 48 49 49 48 49 49 48 49 49 48 49 49 48 49 49 48 49 49 48 49 49 48 49 49 48 49 49 48 49 49 48 49
49 48 49 49 48 49 49 48 49 49 48 49 49 48 49 49 48 49 49 48 49 49 48 49 49 48 49 49 48 49 49 48 49 49 48 49 49 48 49 49 48 49 49 48 49 49 48 49 49 48 49 49 48 49 49 48 49 49 48 49 49 48 49 49 48 49 49 48 49 49 48 49 49 48 49 49 48 49 49 48 49 49 48 49 49 48 49 49 48 49 49 48 49 49 48 49 49 48 49 49 48 49 0 0 0 0 0 0 0 0 0 0 0 0 0 0 0 0 0 0 173 174 173 173 174 173 173 174 173 173 174 173 173 174 173 173 174 173 173 174 173 173 174 173 173 174 173 173 174 173 173 174 173 173 174 173 173 174 173 156 170 173 66 142 148 74 142 148 82 150 156 247 243 247 90 150 156 90 154 165 99 154 165 99 158 165 107 158 165 107 158 165 99 158 165 99 154 165 99 154 165 189 207 206 247 247 247 181 199 206 82 150 156 82 150 156 173 174 173 173 174 173 173 174 173 173 174 173 173 174 173 173 174 173 173 174 173 173 174 173 173 174 173 173 174 173 173 174 173 173 174 173 173 174 173 173 174 173 132 134 132 132 134 132 132 134 132 132 134 132 132 134 132 82 121 123 24 117 123 24 117 123 24 117 123 115 130 132 132 134 132 49 48 49 49 48 49 49 48 49 49 48 49 49 48 49 49 48 49 49 48 49 49 48 49 49 48 49 49 48 49 49 48 49 49 48 49 49 48 49 49 48 49 49 48 49 49 48 49 49 48 49 49 48 49 49 48 49 49 48 49 49 48 49 49 48 49 49 48 49 49 48 49 49 48 49 49 48 49 49 48 49 49 48 49 49 48 49 49 48 49 49 48 49
49 48 49 49 48 49 49 48 49 49 48 49 49 48 49 49 48 49 49 48 49 49 48 49 49 48 49 49 48 49 49 48 49 49 48 49 49 48 49 49 48 49 49 48 49 49 48 49 49 48 49 49 48 49 49 48 49 49 48 49 49 48 49 49 48 49 49 48 49 49 48 49 49 48 49 49 48 49 49 48 49 49 48 49 49 48 49 49 48 49 49 48 49 49 48 49 49 48 49 49 48 49 49 48 49 0 0 0 0 0 0 0 0 0 0 0 0 0 0 0 173 174 173 173 174 173 173 174 173 173 174 173 173 174 173 173 174 173 173 174 173 173 174 173 173 174 173 173 174 173 173 174 173 173 174 173 173 174 173 156 170 173 82 150 156 90 154 165 90 158 165 231 235 239 156 190 189 115 166 173 123 170 173 123 170 181 123 170 181 132 174 181 123 170 181 132 178 181 132 174 181 165 190 198 239 239 247 115 166 173 99 158 165 90 158 165 132 162 173 173 174 173 173 174 173 173 174 173 173 174 173 173 174 173 173 174 173 173 174 173 173 174 173 173 174 173 173 174 173 173 174 173 173 174 173 173 174 173 132 134 132 132 134 132 132 134 132 132 134 132 132 134 132 132 134 132 24 117 123 24 117 123 24 117 123 115 130 132 132 134 132 49 48 49 49 48 49 49 48 49 49 48 49 49 48 49 49 48 49 49 48 49 49 48 49 49 48 49 49 48 49 49 48 49 49 48 49 49 48 49 49 48 49 49 48 49 49 48 49 49 48 49 49 48 49 49 48 49 49 48 49 49 48 49 49 48 49 49 48 49 49 48 49 49 48 49 49 48 49 49 48 49 49 48 49 49 48 49 49 48 49 49 48 49
49 48 49 49 48 49 49 48 49 49 48 49 49 48 49 49 48 49 49 48 49 49 48 49 49 48 49 49 48 49 49 48 49 49 48 49 49 48 49 49 48 49 49 48 49 49 48 49 49 48 49 49 48 49 49 48 49 49 48 49 49 48 49 49 48 49 49 48 49 49 48 49 49 48 49 49 48 49 49 48 49 49 48 49 49 48 49 49 48 49 49 48 49 49 48 49 49 48 49 49 48 49 49 48 49 0 0 0 0 0 0 0 0 0 0 0 0 0 0 0 173 174 173 173 174 173 173 174 173 173 174 173 173 174 173 173 174 173 173 174 173 173 174 173 173 174 173 173 174 173 173 174 173 173 174 173 173 174 173 165 174 173 90 158 165 99 162 173 107 166 173 140 182 189 247 243 247 181 199 206 148 186 189 165 195 198 165 195 198 173 195 198 165 195 198 165 195 198 231 235 239 247 247 247 140 182 189 123 174 181 115 170 181 99 162 173 140 170 173 181 178 181 173 174 173 173 174 173 173 174 173 173 174 173 173 174 173 173 174 173 173 174 173 173 174 173 173 174 173 173 174 173 173 174 173 173 174 173 173 174 173 132 134 132 132 134 132 132 134 132 132 134 132 132 134 132 24 117 123 24 117 123 24 117 123 132 134 132 132 134 132 49 48 49 49 48 49 49 48 49 49 48 49 49 48 49 49 48 49 49 48 49 49 48 49 49 48 49 49 48 49 49 48 49 49 48 49 49 48 49 49 48 49 49 48 49 49 48 49 49 48 49 49 48 49 49 48 49 49 48 49 49 48 49 49 48 49 49 48 49 49 48 49 49 48 49 49 48 49 49 48 49 49 48 49 49 48 49 49 48 49 49 48 49
49 48 49 49 48 49 49 48 49 49 48 49 49 48 49 49 48 49 49 48 49 49 48 49 49 48 49 49 48 49 49 48 49 49 48 49 49 48 49 49 48 49 49 48 49 49 48 49 49 48 49 49 48 49 49 48 49 49 48 49 49 48 49 49 48 49 49 48 49 49 48 49 49 48 49 49 48 49 49 48 49 49 48 49 49 48 49 49 48 49 49 48 49 49 48 49 49 48 49 49 48 49 49 48 49 0 0 0 0 0 0 0 0 0 0 0 0 0 0 0 173 174 173 173 174 173 173 174 173 173 174 173 173 174 173 173 174 173 173 174 173 173 174 173 173 174 173 173 174 173 173 174 173 173 174 173 173 174 173 165 174 181 99 166 173 115 174 181 132 178 181 140 182 189 165 195 198 222 227 231 247 243 247 247 243 247 239 239 247 239 239 239 247 243 247 247 247 247 239 239 239 189 207 214 165 195 198 156 190 198 140 186 189 132 178 189 140 174 181 181 178 181 181 178 181 173 174 173 173 174 173 173 174 173 173 174 173 173 174 173 173 174 173 173 174 173 173 174 173 173 174 173 173 174 173 173 174 173 173 174 173 132 134 132 132 134 132 132 134 132 132 134 132 132 134 132 82 121 123 24 117 123 24 117 123 132 134 132 132 134 132 49 48 49 49 48 49 49 48 49 49 48 49 49 48 49 49 48 49 49 48 49 49 48 49 49 48 49 49 48 49 49 48 49 49 48 49 49 48 49 49 48 49 49 48 49 49 48 49 49 48 49 49 48 49 49 48 49 49 48 49 49 48 49 49 48 49 49 48 49 49 48 49 49 48 49 49 48 49 49 48 49 49 48 49 49 48 49 49 48 49 49 48 49
49 48 49 49 48 49 49 48 49 49 48 49 49 48 49 49 48 49 49 48 49 49 48 49 49 48 49 49 48 49 49 48 49 49 48 49 49 48 49 49 48 49 49 48 49 49 48 49 49 48 49 49 48 49 49 48 49 49 48 49 49 48 49 49 48 49 49 48 49 49 48 49 49 48 49 49 48 49 49 48 49 49 48 49 49 48 49 49 48 49 49 48 49 49 48 49 49 48 49 49 48 49 49 48 49 0 0 0 0 0 0 0 0 0 0 0 0 0 0 0 173 174 173 173 174 173 173 174 173 173 174 173 173 174 173 173 174 173 173 174 173 173 174 173 173 174 173 173 174 173 173 174 173 173 174 173 173 174 173 173 178 181 115 170 181 132 182 189 148 190 198 173 203 206 239 235 239 198 203 206 156 162 165 41 81 82 8 65 66 8 65 66 24 69 74 74 101 107 132 146 148 16 77 82 107 130 132 198 203 206 173 203 206 140 186 198 132 182 189 181 182 181 181 178 181 173 174 173 173 174 173 173 174 173 173 174 173 173 174 173 173 174 173 173 174 173 173 174 173 173 174 173 173 174 173 173 174 173 173 174 173 132 134 132 132 134 132 132 134 132 132 134 132 132 134 132 132 134 132 24 117 123 24 117 123 132 134 132 49 48 49 49 48 49 49 48 49 49 48 49 49 48 49 49 48 49 49 48 49 49 48 49 49 48 49 49 48 49 49 48 49 49 48 49 49 48 49 49 48 49 49 48 49 49 48 49 49 48 49 49 48 49 49 48 49 49 48 49 49 48 49 49 48 49 49 48 49 49 48 49 49 48 49 49 48 49 49 48 49 49 48 49 49 48 49 49 48 49 49 48 49 49 48 49
49 48 49 49 48 49 49 48 49 49 48 49 49 48 49 49 48 49 49 48 49 49 48 49 49 48 49 49 48 49 49 48 49 49 48 49 49 48 49 49 48 49 49 48 49 49 48 49 49 48 49 49 48 49 49 48 49 49 48 49 49 48 49 49 48 49 49 48 49 49 48 49 49 48 49 49 48 49 49 48 49 49 48 49 49 48 49 49 48 49 49 48 49 49 48 49 49 48 49 49 48 49 49 48 49 0 0 0 0 0 0 0 0 0 0 0 0 0 0 0 173 174 173 173 174 173 173 174 173 173 174 173 173 174 173 173 174 173 173 174 173 173 174 173 173 174 173 173 174 173 173 174 173 173 174 173 181 178 181 173 178 181 123 178 189 156 195 198 148 166 165 24 89 99 16 89 90 16 89 90 16 89 90 16 89 90 16 89 90 16 89 90 41 93 99 16 97 107 16 97 107 16 97 107 16 97 107 16 97 107 16 97 99 156 174 173 198 215 222 181 182 181 181 178 181 181 178 181 173 174 173 173 174 173 173 174 173 173 174 173 173 174 173 173 174 173 173 174 173 173 174 173 173 174 173 173 174 173 173 174 173 173 174 173 132 134 132 132 134 132 132 134 132 132 134 132 132 134 132 82 125 132 24 117 123 132 134 132 49 48 49 49 48 49 49 48 49 49 48 49 49 48 49 49 48 49 49 48 49 49 48 49 49 48 49 49 48 49 49 48 49 49 48 49 49 48 49 49 48 49 49 48 49 49 48 49 49 48 49 49 48 49 49 48 49 49 48 49 49 48 49 49 48 49 49 48 49 49 48 49 49 48 49 49 48 49 49 48 49 49 48 49 49 48 49 49 48 49 49 48 49 49 48 49
49 48 49 49 48 49 49 48 49 49 48 49 49 48 49 49 48 49 49 48 49 49 48 49 49 48 49 49 48 49 49 48 49 49 48 49 49 48 49 49 48 49 49 48 49 49 48 49 49 48 49 49 48 49 49 48 49 49 48 49 49 48 49 49 48 49 49 48 49 49 48 49 49 48 49 49 48 49 49 48 49 49 48 49 49 48 49 49 48 49 49 48 49 49 48 49 49 48 49 49 48 49 49 48 49 0 0 0 0 0 0 0 0 0 0 0 0 0 0 0 173 174 173 173 174 173 173 174 173 173 174 173 173 174 173 173 174 173 173 174 173 173 174 173 173 174 173 173 174 173 173 174 173 173 174 173 181 178 181 189 190 189 173 186 189 33 105 107 24 105 107 24 105 107 24 105 107 24 105 107 24 105 107 24 105 107 99 134 140 156 178 181 140 166 173 24 109 115 24 109 115 24 109 115 24 109 115 24 109 115 24 109 115 24 109 115 24 109 115 115 146 148 181 178 181 181 178 181 173 174 173 173 174 173 173 174 173 173 174 173 173 174 173 173 174 173 173 174 173 173 174 173 173 174 173 173 174 173 173 174 173 173 174 173 132 134 132 132 134 132 132 134 132 132 134 132 132 134 132 132 134 132 24 117 123 132 134 132 49 48 49 49 48 49 49 48 49 49 48 49 49 48 49 49 48 49 49 48 49 49 48 49 49 48 49 49 48 49 49 48 49 49 48 49 49 48 49 49 48 49 49 48 49 49 48 49 49 48 49 49 48 49 49 48 49 49 48 49 49 48 49 49 48 49 49 48 49 49 48 49 49 48 49 49 48 49 49 48 49 49 48 49 49 48 49 49 48 49 49 48 49 49 48 49
49 48 49 49 48 49 49 48 49 49 48 49 49 48 49 49 48 49 49 48 49 49 48 49 49 48 49 49 48 49 49 48 49 49 48 49 49 48 49 49 48 49 49 48 49 49 48 49 49 48 49 49 48 49 49 48 49 49 48 49 49 48 49 49 48 49 49 48 49 49 48 49 49 48 49 49 48 49 49 48 49 49 48 49 49 48 49 49 48 49 49 48 49 49 48 49 49 48 49 49 48 49 49 48 49 0 0 0 0 0 0 0 0 0 0 0 0 0 0 0 173 174 173 173 174 173 173 174 173 173 174 173 173 174 173 173 174 173 173 174 173 173 174 173 173 174 173 173 174 173 173 174 173 173 174 173 181 178 181 165 170 173 24 117 123 24 117 123 24 117 123 24 117 123 24 117 123 24 117 123 24 117 123 24 117 123 33 121 132 33 121 132 33 121 132 33 121 132 33 121 132 33 121 132 33 121 132 33 121 132 33 121 132 33 121 132 33 121 132 115 150 156 181 182 181 181 178 181 173 174 173 173 174 173 173 174 173 173 174 173 173 174 173 173 174 173 173 174 173 173 174 173 173 174 173 173 174 173 173 174 173 173 174 173 132 134 132 132 134 132 132 134 132 132 134 132 132 134 132 132 134 132 115 130 132 132 134 132 49 48 49 49 48 49 49 48 49 49 48 49 49 48 49 49 48 49 49 48 49 49 48 49 49 48 49 49 48 49 49 48 49 49 48 49 49 48 49 49 48 49 49 48 49 49 48 49 49 48 49 49 48 49 49 48 49 49 48 49 49 48 49 49 48 49 49 48 49 49 48 49 49 48 49 49 48 49 49 48 49 49 48 49 49 48 49 49 48 49 49 48 49 49 48 49
49 48 49 49 48 49 49 48 49 49 48 49 49 48 49 49 48 49 49 48 49 49 48 49 49 48 49 49 48 49 49 48 49 49 48 49 49 48 49 49 48 49 49 48 49 49 48 49 49 48 49 49 48 49 49 48 49 49 48 49 49 48 49 49 48 49 49 48 49 49 48 49 49 48 49 49 48 49 49 48 49 49 48 49 49 48 49 49 48 49 49 48 49 49 48 49 49 48 49 49 48 49 49 48 49 0 0 0 0 0 0 0 0 0 0 0 0 0 0 0 173 174 173 173 174 173 173 174 173 173 174 173 173 174 173 173 174 173 173 174 173 173 174 173 173 174 173 173 174 173 173 174 173 173 174 173 181 178 181 165 174 173 33 125 132 33 125 132 33 125 132 33 125 132 33 125 132 33 125 132 33 125 132 33 130 140 33 130 140 33 130 140 132 170 173 181 199 198 33 130 140 33 130 140 33 130 140 33 130 140 33 130 140 33 130 140 33 134 140 115 154 156 181 178 181 181 178 181 173 174 173 173 174 173 173 174 173 173 174 173 173 174 173 173 174 173 173 174 173 173 174 173 173 174 173 173 174 173 173 174 173 173 174 173 173 174 173 132 134 132 132 134 132 132 134 132 132 134 132 132 134 132 132 134 132 132 134 132 49 48 49 49 48 49 49 48 49 49 48 49 49 48 49 49 48 49 49 48 49 49 48 49 49 48 49 49 48 49 49 48 49 49 48 49 49 48 49 49 48 49 49 48 49 49 48 49 49 48 49 49 48 49 49 48 49 49 48 49 49 48 49 49 48 49 49 48 49 49 48 49 49 48 49 49 48 49 49 48 49 49 48 49 49 48 49 49 48 49 49 48 49 49 48 49
49 48 49 49 48 49 49 48 49 49 48 49 49 48 49 49 48 49 49 48 49 49 48 49 49 48 49 49 48 49 49 48 49 49 48 49 49 48 49 49 48 49 49 48 49 49 48 49 49 48 49 49 48 49 49 48 49 49 48 49 49 48 49 49 48 49 49 48 49 49 48 49 49 48 49 49 48 49 49 48 49 49 48 49 49 48 49 49 48 49 49 48 49 49 48 49 49 48 49 49 48 49 49 48 49 0 0 0 0 0 0 0 0 0 0 0 0 173 174 173 173 174 173 173 174 173 173 174 173 173 174 173 173 174 173 173 174 173 173 174 173 173 174 173 173 174 173 173 174 173 173 174 173 173 174 173 173 174 173 165 170 173 33 130 140 33 134 140 33 134 140 33 134 140 33 134 140 33 134 140 33 134 140 33 134 140 66 142 148 189 207 206 148 182 189 49 138 148 33 134 140 33 134 140 33 134 140 33 134 140 33 134 140 33 138 148 33 138 148 115 154 165 181 178 181 181 178 181 173 174 173 173 174 173 173 174 173 173 174 173 173 174 173 173 174 173 173 174 173 173 174 173 173 174 173 173 174 173 173 174 173 173 174 173 173 174 173 132 134 132 132 134 132 132 134 132 132 134 132 132 134 132 132 134 132 132 134 132 49 48 49 49 48 49 49 48 49 49 48 49 49 48 49 49 48 49 49 48 49 49 48 49 49 48 49 49 48 49 49 48 49 49 48 49 49 48 49 49 48 49 49 48 49 49 48 49 49 48 49 49 48 49 49 48 49 49 48 49 49 48 49 49 48 49 49 48 49 49 48 49 49 48 49 49 48 49 49 48 49 49 48 49 49 48 49 49 48 49 49 48 49 49 48 49
49 48 49 49 48 49 49 48 49 49 48 49 49 48 49 49 48 49 49 48 49 49 48 49 49 48 49 49 48 49 49 48 49 49 48 49 49 48 49 49 48 49 49 48 49 49 48 49 49 48 49 49 48 49 49 48 49 49 48 49 49 48 49 49 48 49 49 48 49 49 48 49 49 48 49 49 48 49 49 48 49 49 48 49 49 48 49 49 48 49 49 48 49 49 48 49 49 48 49 49 48 49 49 48 49 49 48 49 0 0 0 0 0 0 0 0 0 173 174 173 173 174 173 173 174 173 173 174 173 173 174 173 173 174 173 173 174 173 173 174 173 173 174 173 173 174 173 173 174 173 173 174 173 173 174 173 173 174 173 156 170 173 33 138 148 33 138 148 33 138 148 33 138 148 33 138 148 33 138 148 33 142 148 33 142 148 33 142 148 33 142 148 33 142 148 33 142 148 33 142 148 33 142 148 33 142 148 33 142 148 33 142 148 33 142 148 33 142 148 33 142 148 173 174 173 173 174 173 173 174 173 173 174 173 173 174 173 173 174 173 173 174 173 173 174 173 173 174 173 173 174 173 173 174 173 173 174 173 173 174 173 173 174 173 173 174 173 132 134 132 132 134 132 132 134 132 132 134 132 132 134 132 132 134 132 132 134 132 49 48 49 49 48 49 49 48 49 49 48 49 49 48 49 49 48 49 49 48 49 49 48 49 49 48 49 49 48 49 49 48 49 49 48 49 49 48 49 49 48 49 49 48 49 49 48 49 49 48 49 49 48 49 49 48 49 49 48 49 49 48 49 49 48 49 49 48 49 49 48 49 49 48 49 49 48 49 49 48 49 49 48 49 49 48 49 49 48 49 49 48 49 49 48 49
49 48 49 49 48 49 49 48 49 49 48 49 49 48 49 49 48 49 49 48 49 49 48 49 49 48 49 49 48 49 49 48 49 49 48 49 49 48 49 49 48 49 49 48 49 49 48 49 49 48 49 49 48 49 49 48 49 49 48 49 49 48 49 49 48 49 49 48 49 49 48 49 49 48 49 49 48 49 49 48 49 49 48 49 49 48 49 49 48 49 49 48 49 49 48 49 49 48 49 49 48 49 49 48 49 49 48 49 0 0 0 0 0 0 0 0 0 173 174 173 173 174 173 173 174 173 173 174 173 173 174 173 173 174 173 173 174 173 173 174 173 173 174 173 173 174 173 173 174 173 173 174 173 173 174 173 173 174 173 156 170 173 33 142 148 33 142 148 33 142 148 33 142 148 33 142 148 33 142 148 33 142 148 33 142 156 66 150 156 99 162 165 99 162 165 99 158 165 33 142 156 33 142 156 33 142 156 33 142 156 33 142 156 33 142 156 33 146 156 33 146 156 107 158 165 173 174 173 173 174 173 173 174 173 173 174 173 173 174 173 173 174 173 173 174 173 173 174 173 173 174 173 173 174 173 173 174 173 173 174 173 173 174 173 173 174 173 173 174 173 132 134 132 132 134 132 132 134 132 132 134 132 132 134 132 49 48 49 49 48 49 49 48 49 49 48 49 49 48 49 49 48 49 49 48 49 49 48 49 49 48 49 49 48 49 49 48 49 49 48 49 49 48 49 49 48 49 49 48 49 49 48 49 49 48 49 49 48 49 49 48 49 49 48 49 49 48 49 49 48 49 49 48 49 49 48 49 49 48 49 49 48 49 49 48 49 49 48 49 49 48 49 49 48 49 49 48 49 49 48 49 49 48 49
49 48 49 49 48 49 49 48 49 49 48 49 49 48 49 49 48 49 49 48 49 49 48 49 49 48 49 49 48 49 49 48 49 49 48 49 49 48 49 49 48 49 49 48 49 49 48 49 49 48 49 49 48 49 49 48 49 49 48 49 49 48 49 49 48 49 49 48 49 49 48 49 49 48 49 49 48 49 49 48 49 49 48 49 49 48 49 49 48 49 49 48 49 49 48 49 49 48 49 49 48 49 49 48 49 49 48 49 0 0 0 0 0 0 0 0 0 173 174 173 173 174 173 173 174 173 173 174 173 173 174 173 173 174 173 173 174 173 173 174 173 173 174 173 173 174 173 173 174 173 173 174 173 173 174 173 173 174 173 156 170 173 33 146 156 33 146 156 33 146 156 33 146 156 33 146 156 33 146 156 33 146 156 33 146 156 33 146 156 41 150 156 189 207 206 33 146 156 33 146 156 33 146 156 33 146 156 33 146 156 33 146 156 33 146 156 33 146 156 41 150 156 107 158 165 173 174 173 173 174 173 173 174 173 173 174 173 173 174 173 173 174 173 173 174 173 173 174 173 173 174 173 173 174 173 173 174 173 173 174 173 173 174 173 173 174 173 173 174 173 132 134 132 132 134 132 132 134 132 132 134 132 132 134 132 49 48 49 49 48 49 49 48 49 49 48 49 49 48 49 49 48 49 49 48 49 49 48 49 49 48 49 49 48 49 49 48 49 49 48 49 49 48 49 49 48 49 49 48 49 49 48 49 49 48 49 49 48 49 49 48 49 49 48 49 49 48 49 49 48 49 49 48 49 49 48 49 49 48 49 49 48 49 49 48 49 49 48 49 49 48 49 49 48 49 49 48 49 49 48 49 49 48 49
49 48 49 49 48 49 49 48 49 49 48 49 49 48 49 49 48 49 49 48 49 49 48 49 49 48 49 49 48 49 49 48 49 49 48 49 49 48 49 49 48 49 49 48 49 49 48 49 49 48 49 49 48 49 49 48 49 49 48 49 49 48 49 49 48 49 49 48 49 49 48 49 49 48 49 49 48 49 49 48 49 49 48 49 49 48 49 49 48 49 49 48 49 49 48 49 49 48 49 49 48 49 49 48 49 49 48 49 0 0 0 0 0 0 0 0 0 173 174 173 173 174 173 173 174 173 173 174 173 173 174 173 173 174 173 173 174 173 173 174 173 173 174 173 173 174 173 173 174 173 173 174 173 173 174 173 173 174 173 156 170 173 41 150 156 41 150 156 41 150 156 41 150 156 41 150 156 41 150 156 41 150 156 41 150 156 82 158 165 123 174 181 123 174 181 115 170 181 41 150 156 41 150 156 41 150 156 41 150 156 41 150 156 41 150 156 41 150 156 41 150 156 107 158 165 173 174 173 173 174 173 173 174 173 173 174 173 173 174 173 173 174 173 173 174 173 173 174 173 173 174 173 173 174 173 173 174 173 173 174 173 173 174 173 173 174 173 173 174 173 132 134 132 132 134 132 132 134 132 132 134 132 132 134 132 49 48 49 49 48 49 49 48 49 49 48 49 49 48 49 49 48 49 49 48 49 49 48 49 49 48 49 49 48 49 49 48 49 49 48 49 49 48 49 49 48 49 49 48 49 49 48 49 49 48 49 49 48 49 49 48 49 49 48 49 49 48 49 49 48 49 49 48 49 49 48 49 49 48 49 49 48 49 49 48 49 49 48 49 49 48 49 49 48 49 49 48 49 49 48 49 49 48 49
49 48 49 49 48 49 49 48 49 49 48 49 49 48 49 49 48 49 49 48 49 49 48 49 49 48 49 49 48 49 49 48 49 49 48 49 49 48 49 49 48 49 49 48 49 49 48 49 49 48 49 49 48 49 49 48 49 49 48 49 49 48 49 49 48 49 49 48 49 49 48 49 49 48 49 49 48 49 49 48 49 49 48 49 49 48 49 49 48 49 49 48 49 49 48 49 49 48 49 49 48 49 49 48 49 49 48 49 0 0 0 0 0 0 0 0 0 173 174 173 173 174 173 173 174 173 173 174 173 173 174 173 173 174 173 173 174 173 173 174 173 173 174 173 173 174 173 173 174 173 173 174 173 173 174 173 173 174 173 156 170 173 41 150 156 41 150 156 41 150 156 41 150 156 41 150 156 41 150 156 41 150 156 41 150 156 41 150 156 41 150 156 41 150 156 41 150 156 41 150 156 41 150 156 41 150 156 41 150 156 41 150 156 41 150 156 41 150 156 41 150 156 107 162 165 173 174 173 173 174 173 173 174 173 173 174 173 173 174 173 173 174 173 173 174 173 173 174 173 173 174 173 173 174 173 173 174 173 173 174 173 173 174 173 173 174 173 173 174 173 173 174 173 132 134 132 132 134 132 132 134 132 132 134 132 49 48 49 49 48 49 49 48 49 49 48 49 49 48 49 49 48 49 49 48 49 49 48 49 49 48 49 49 48 49 49 48 49 49 48 49 49 48 49 49 48 49 49 48 49 49 48 49 49 48 49 49 48 49 49 48 49 49 48 49 49 48 49 49 48 49 49 48 49 49 48 49 49 48 49 49 48 49 49 48 49 49 48 49 49 48 49 49 48 49 49 48 49 49 48 49 49 48 49
49 48 49 49 48 49 49 48 49 49 48 49 49 48 49 49 48 49 49 48 49 49 48 49 49 48 49 49 48 49 49 48 49 49 48 49 49 48 49 49 48 49 49 48 49 49 48 49 49 48 49 49 48 49 49 48 49 49 48 49 49 48 49 49 48 49 49 48 49 49 48 49 49 48 49 49 48 49 49 48 49 49 48 49 49 48 49 49 48 49 49 48 49 49 48 49 49 48 49 49 48 49 49 48 49 49 48 49 0 0 0 0 0 0 0 0 0 173 174 173 173 174 173 173 174 173 173 174 173 173 174 173 173 174 173 173 174 173 173 174 173 173 174 173 173 174 173 173 174 173 173 174 173 173 174 173 173 174 173 156 170 173 41 154 165 41 154 165 41 154 165 41 154 165 41 154 165 41 154 165 41 154 165 41 154 165 115 174 181 165 195 198 165 195 198 165 195 198 41 154 165 41 154 165 41 154 165 41 154 165 41 154 165 41 154 165 41 154 165 41 154 165 41 154 165 173 174 173 173 174 173 173 174 173 173 174 173 173 174 173 173 174 173 173 174 173 173 174 173 173 174 173 173 174 173 173 174 173 173 174 173 173 174 173 173 174 173 173 174 173 173 174 173 132 134 132 132 134 132 132 134 132 132 134 132 49 48 49 49 48 49 49 48 49 49 48 49 49 48 49 49 48 49 49 48 49 49 48 49 49 48 49 49 48 49 49 48 49 49 48 49 49 48 49 49 48 49 49 48 49 49 48 49 49 48 49 49 48 49 49 48 49 49 48 49 49 48 49 49 48 49 49 48 49 49 48 49 49 48 49 49 48 49 49 48 49 49 48 49 49 48 49 49 48 49 49 48 49 49 48 49 49 48 49
49 48 49 49 48 49 49 48 49 49 48 49 49 48 49 49 48 49 49 48 49 49 48 49 49 48 49 49 48 49 49 48 49 49 48 49 49 48 49 49 48 49 49 48 49 49 48 49 49 48 49 49 48 49 49 48 49 49 48 49 49 48 49 49 48 49 49 48 49 49 48 49 49 48 49 49 48 49 49 48 49 49 48 49 49 48 49 49 48 49 49 48 49 49 48 49 49 48 49 49 48 49 49 48 49 49 48 49 0 0 0 0 0 0 0 0 0 173 174 173 173 174 173 173 174 173 173 174 173 173 174 173 173 174 173 173 174 173 173 174 173 173 174 173 173 174 173 173 174 173 173 174 173 173 174 173 173 174 173 156 170 173 41 154 165 41 154 165 41 154 165 41 154 165 41 154 165 41 154 165 41 154 165 41 154 165 41 154 165 41 154 165 41 154 165 41 154 165 189 207 214 41 154 165 41 154 165 41 154 165 41 154 165 41 154 165 41 154 165 41 154 165 41 154 165 107 162 165 173 174 173 173 174 173 173 174 173 173 174 173 173 174 173 173 174 173 173 174 173 173 174 173 173 174 173 173 174 173 173 174 173 173 174 173 173 174 173 173 174 173 173 174 173 132 134 132 132 134 132 132 134 132 132 134 132 49 48 49 49 48 49 49 48 49 49 48 49 49 48 49 49 48 49 49 48 49 49 48 49 49 48 49 49 48 49 49 48 49 49 48 49 49 48 49 49 48 49 49 48 49 49 48 49 49 48 49 49 48 49 49 48 49 49 48 49 49 48 49 49 48 49 49 48 49 49 48 49 49 48 49 49 48 49 49 48 49 49 48 49 49 48 49 49 48 49 49 48 49 49 48 49 49 48 49
49 48 49 49 48 49 49 48 49 49 48 49 49 48 49 49 48 49 49 48 49 49 48 49 49 48 49 49 48 49 49 48 49 49 48 49 49 48 49 49 48 49 49 48 49 49 48 49 49 48 49 49 48 49 49 48 49 49 48 49 49 48 49 49 48 49 49 48 49 49 48 49 49 48 49 49 48 49 49 48 49 49 48 49 49 48 49 49 48 49 49 48 49 49 48 49 49 48 49 49 48 49 49 48 49 49 48 49 0 0 0 0 0 0 0 0 0 173 174 173 173 174 173 173 174 173 173 174 173 173 174 173 173 174 173 173 174 173 173 174 173 173 174 173 173 174 173 173 174 173 173 174 173 173 174 173 173 174 173 156 170 173 41 154 165 41 154 165 41 154 165 41 154 165 41 154 165 41 154 165 41 154 165 41 154 165 41 154 165 41 154 165 41 154 165 41 154 165 41 154 165 41 154 165 41 154 165 41 154 165 41 154 165 41 154 165 41 154 165 41 154 165 41 154 165 107 162 173 173 174 173 173 174 173 173 174 173 173 174 173 173 174 173 173 174 173 173 174 173 173 174 173 173 174 173 173 174 173 173 174 173 173 174 173 173 174 173 173 174 173 173 174 173 173 174 173 132 134 132 132 134 132 132 134 132 49 48 49 49 48 49 49 48 49 49 48 49 49 48 49 49 48 49 49 48 49 49 48 49 49 48 49 49 48 49 49 48 49 49 48 49 49 48 49 49 48 49 49 48 49 49 48 49 49 48 49 49 48 49 49 48 49 49 48 49 49 48 49 49 48 49 49 48 49 49 48 49 49 48 49 49 48 49 49 48 49 49 48 49 49 48 49 49 48 49 49 48 49 49 48 49 49 48 49
49 48 49 49 48 49 49 48 49 49 48 49 49 48 49 49 48 49 49 48 49 49 48 49 49 48 49 49 48 49 49 48 49 49 48 49 49 48 49 49 48 49 49 48 49 49 48 49 49 48 49 49 48 49 49 48 49 49 48 49 49 48 49 49 48 49 49 48 49 49 48 49 49 48 49 49 48 49 49 48 49 49 48 49 49 48 49 49 48 49 49 48 49 49 48 49 49 48 49 49 48 49 49 48 49 49 48 49 49 48 49 0 0 0 173 174 173 173 174 173 173 174 173 173 174 173 173 174 173 173 174 173 173 174 173 173 174 173 173 174 173 173 174 173 173 174 173 173 174 173 173 174 173 173 174 173 173 174 173 173 174 173 41 154 165 41 154 165 41 154 165 41 154 165 41 154 165 41 154 165 41 154 165 41 154 165 41 154 165 41 154 165 41 154 165 41 154 165 57 158 165 41 154 165 41 154 165 41 154 165 41 154 165 41 154 165 41 154 165 41 154 165 41 154 165 107 162 173 173 174 173 173 174 173 173 174 173 173 174 173 173 174 173 173 174 173 173 174 173 173 174 173 173 174 173 173 174 173 173 174 173 173 174 173 173 174 173 173 174 173 173 174 173 173 174 173 132 134 132 132 134 132 49 48 49 49 48 49 49 48 49 49 48 49 49 48 49 49 48 49 49 48 49 49 48 49 49 48 49 49 48 49 49 48 49 49 48 49 49 48 49 49 48 49 49 48 49 49 48 49 49 48 49 49 48 49 49 48 49 49 48 49 49 48 49 49 48 49 49 48 49 49 48 49 49 48 49 49 48 49 49 48 49 49 48 49 49 48 49 49 48 49 49 48 49 49 48 49 49 48 49 49 48 49
49 48 49 49 48 49 49 48 49 49 48 49 49 48 49 49 48 49 49 48 49 49 48 49 49 48 49 49 48 49 49 48 49 49 48 49 49 48 49 49 48 49 49 48 49 49 48 49 49 48 49 49 48 49 49 48 49 49 48 49 49 48 49 49 48 49 49 48 49 49 48 49 49 48 49 49 48 49 49 48 49 49 48 49 49 48 49 49 48 49 49 48 49 49 48 49 49 48 49 49 48 49 49 48 49 49 48 49 49 48 49 0 0 0 173 174 173 173 174 173 173 174 173 173 174 173 173 174 173 173 174 173 173 174 173 173 174 173 173 174 173 173 174 173 173 174 173 173 174 173 173 174 173 173 174 173 173 174 173 173 174 173 41 154 165 41 154 165 41 154 165 41 154 165 41 154 165 41 154 165 41 154 165 41 154 165 41 154 165 41 154 165 41 154 165 181 207 214 206 219 222 41 154 165 41 154 165 41 154 165 41 154 165 41 154 165 41 154 165 41 154 165 41 154 165 107 162 173 173 174 173 173 174 173 173 174 173 173 174 173 173 174 173 173 174 173 173 174 173 173 174 173 173 174 173 173 174 173 173 174 173 173 174 173 173 174 173 173 174 173 173 174 173 173 174 173 132 134 132 132 134 132 49 48 49 49 48 49 49 48 49 49 48 49 49 48 49 49 48 49 49 48 49 49 48 49 49 48 49 49 48 49 49 48 49 49 48 49 49 48 49 49 48 49 49 48 49 49 48 49 49 48 49 49 48 49 49 48 49 49 48 49 49 48 49 49 48 49 49 48 49 49 48 49 49 48 49 49 48 49 49 48 49 49 48 49 49 48 49 49 48 49 49 48 49 49 48 49 49 48 49 49 48 49
49 48 49 49 48 49 49 48 49 49 48 49 49 48 49 49 48 49 49 48 49 49 48 49 49 48 49 49 48 49 49 48 49 49 48 49 49 48 49 49 48 49 49 48 49 49 48 49 49 48 49 49 48 49 49 48 49 49 48 49 49 48 49 49 48 49 49 48 49 49 48 49 49 48 49 49 48 49 49 48 49 49 48 49 49 48 49 49 48 49 49 48 49 49 48 49 49 48 49 49 48 49 49 48 49 49 48 49 49 48 49 0 0 0 173 174 173 173 174 173 173 174 173 173 174 173 173 174 173 173 174 173 173 174 173 173 174 173 173 174 173 173 174 173 173 174 173 173 174 173 173 174 173 173 174 173 173 174 173 173 174 173 41 154 165 41 154 165 41 154 165 41 154 165 41 154 165 41 154 165 41 154 165 41 154 165 41 154 165 41 154 165 41 154 165 41 154 165 41 154 165 41 154 165 41 154 165 41 154 165 41 154 165 41 154 165 41 154 165 41 154 165 41 154 165 41 154 165 173 174 173 173 174 173 173 174 173 173 174 173 173 174 173 173 174 173 173 174 173 173 174 173 173 174 173 173 174 173 173 174 173 173 174 173 173 174 173 173 174 173 173 174 173 173 174 173 173 174 173 132 134 132 49 48 49 49 48 49 49 48 49 49 48 49 49 48 49 49 48 49 49 48 49 49 48 49 49 48 49 49 48 49 49 48 49 49 48 49 49 48 49 49 48 49 49 48 49 49 48 49 49 48 49 49 48 49 49 48 49 49 48 49 49 48 49 49 48 49 49 48 49 49 48 49 49 48 49 49 48 49 49 48 49 49 48 49 49 48 49 49 48 49 49 48 49 49 48 49 49 48 49 49 48 49
49 48 49 49 48 49 49 48 49 49 48 49 49 48 49 49 48 49 49 48 49 49 48 49 49 48 49 49 48 49 49 48 49 49 48 49 49 48 49 49 48 49 49 48 49 49 48 49 49 48 49 49 48 49 49 48 49 49 48 49 49 48 49 49 48 49 49 48 49 49 48 49 49 48 49 49 48 49 49 48 49 49 48 49 49 48 49 49 48 49 49 48 49 49 48 49 49 48 49 49 48 49 49 48 49 49 48 49 49 48 49 0 0 0 173 174 173 173 174 173 173 174 173 173 174 173 173 174 173 173 174 173 173 174 173 173 174 173 173 174 173 173 174 173 173 174 173 173 174 173 173 174 173 173 174 173 173 174 173 173 174 173 41 154 165 41 154 165 41 154 165 41 154 165 41 154 165 41 154 165 41 154 165 41 154 165 41 154 165 41 154 165 41 154 165 41 154 165 41 154 165 41 154 165 41 154 165 41 154 165 41 154 165 41 154 165 41 154 165 41 154 165 41 154 165 41 154 165 132 166 173 173 174 173 173 174 173 173 174 173 173 174 173 173 174 173 173 174 173 173 174 173 173 174 173 173 174 173 173 174 173 173 174 173 173 174 173 173 174 173 173 174 173 173 174 173 173 174 173 132 134 132 49 48 49 49 48 49 49 48 49 49 48 49 49 48 49 49 48 49 49 48 49 49 48 49 49 48 49 49 48 49 49 48 49 49 48 49 49 48 49 49 48 49 49 48 49 49 48 49 49 48 49 49 48 49 49 48 49 49 48 49 49 48 49 49 48 49 49 48 49 49 48 49 49 48 49 49 48 49 49 48 49 49 48 49 49 48 49 49 48 49 49 48 49 49 48 49 49 48 49 49 48 49
49 48 49 49 48 49 49 48 49 49 48 49 49 48 49 49 48 49 49 48 49 49 48 49 49 48 49 49 48 49 49 48 49 49 48 49 49 48 49 49 48 49 49 48 49 49 48 49 49 48 49 49 48 49 49 48 49 49 48 49 49 48 49 49 48 49 49 48 49 49 48 49 49 48 49 49 48 49 49 48 49 49 48 49 49 48 49 49 48 49 49 48 49 49 48 49 49 48 49 49 48 49 49 48 49 49 48 49 49 48 49 0 0 0 173 174 173 173 174 173 173 174 173 173 174 173 173 174 173 173 174 173 173 174 173 173 174 173 173 174 173 173 174 173 173 174 173 173 174 173 173 174 173 173 174 173 173 174 173 173 174 173 57 154 165 41 154 165 41 154 165 41 154 165 41 154 165 41 154 165 41 154 165 41 154 165 41 154 165 41 154 165 41 154 165 156 170 173 156 170 173 156 170 173 156 170 173 156 170 173 156 170 173 156 170 173 156 170 173 156 170 173 156 170 173 156 170 173 173 174 173 173 174 173 173 174 173 173 174 173 173 174 173 173 174 173 173 174 173 173 174 173 173 174 173 173 174 173 173 174 173 173 174 173 173 174 173 173 174 173 173 174 173 173 174 173 173 174 173 132 134 132 49 48 49 49 48 49 49 48 49 49 48 49 49 48 49 49 48 49 49 48 49 49 48 49 49 48 49 49 48 49 49 48 49 49 48 49 49 48 49 49 48 49 49 48 49 49 48 49 49 48 49 49 48 49 49 48 49 49 48 49 49 48 49 49 48 49 49 48 49 49 48 49 49 48 49 49 48 49 49 48 49 49 48 49 49 48 49 49 48 49 49 48 49 49 48 49 49 48 49 49 48 49
49 48 49 49 48 49 49 48 49 49 48 49 49 48 49 49 48 49 49 48 49 49 48 49 49 48 49 49 48 49 49 48 49 49 48 49 49 48 49 49 48 49 49 48 49 49 48 49 49 48 49 49 48 49 49 48 49 49 48 49 49 48 49 49 48 49 49 48 49 49 48 49 49 48 49 49 48 49 49 48 49 49 48 49 49 48 49 49 48 49 49 48 49 49 48 49 49 48 49 49 48 49 49 48 49 49 48 49 49 48 49 0 0 0 173 174 173 173 174 173 173 174 173 173 174 173 173 174 173 173 174 173 173 174 173 173 174 173 173 174 173 173 174 173 173 174 173 173 174 173 173 174 173 173 174 173 173 174 173 173 174 173 165 170 173 156 170 173 156 170 173 173 174 173 173 174 173 173 174 173 173 174 173 173 174 173 173 174 173 173 174 173 173 174 173 173 174 173 173 174 173 173 174 173 173 174 173 173 174 173 173 174 173 173 174 173 173 174 173 173 174 173 173 174 173 173 174 173 173 174 173 173 174 173 173 174 173 173 174 173 173 174 173 173 174 173 173 174 173 173 174 173 173 174 173 173 174 173 173 174 173 173 174 173 173 174 173 173 174 173 173 174 173 173 174 173 173 174 173 132 134 132 49 48 49 49 48 49 49 48 49 49 48 49 49 48 49 49 48 49 49 48 49 49 48 49 49 48 49 49 48 49 49 48 49 49 48 49 49 48 49 49 48 49 49 48 49 49 48 49 49 48 49 49 48 49 49 48 49 49 48 49 49 48 49 49 48 49 49 48 49 49 48 49 49 48 49 49 48 49 49 48 49 49 48 49 49 48 49 49 48 49 49 48 49 49 48 49 49 48 49 49 48 49
49 48 49 49 48 49 49 48 49 49 48 49 49 48 49 49 48 49 49 48 49 49 48 49 49 48 49 49 48 49 49 48 49 49 48 49 49 48 49 49 48 49 49 48 49 49 48 49 49 48 49 49 48 49 49 48 49 49 48 49 49 48 49 49 48 49 49 48 49 49 48 49 49 48 49 49 48 49 49 48 49 49 48 49 49 48 49 49 48 49 49 48 49 49 48 49 49 48 49 49 48 49 49 48 49 49 48 49 49 48 49 0 0 0 173 174 173 173 174 173 173 174 173 173 174 173 173 174 173 173 174 173 173 174 173 173 174 173 173 174 173 173 174 173 173 174 173 173 174 173 173 174 173 173 174 173 173 174 173 173 174 173 173 174 173 173 174 173 173 174 173 173 174 173 173 174 173 173 174 173 173 174 173 173 174 173 173 174 173 173 174 173 173 174 173 173 174 173 173 174 173 173 174 173 173 174 173 173 174 173 173 174 173 173 174 173 173 174 173 173 174 173 173 174 173 173 174 173 173 174 173 173 174 173 173 174 173 173 174 173 173 174 173 173 174 173 173 174 173 173 174 173 173 174 173 173 174 173 173 174 173 49 48 49 49 48 49 49 48 49 49 48 49 49 48 49 49 48 49 49 48 49 49 48 49 49 48 49 49 48 49 49 48 49 49 48 49 49 48 49 49 48 49 49 48 49 49 48 49 49 48 49 49 48 49 49 48 49 49 48 49 49 48 49 49 48 49 49 48 49 49 48 49 49 48 49 49 48 49 49 48 49 49 48 49 49 48 49 49 48 49 49 48 49 49 48 49 49 48 49 49 48 49 49 48 49 49 48 49 49 48 49 49 48 49 49 48 49 49 48 49 49 48 49
49 48 49 49 48 49 49 48 49 49 48 49 49 48 49 49 48 49 49 48 49 49 48 49 49 48 49 49 48 49 49 48 49 49 48 49 49 48 49 49 48 49 49 48 49 49 48 49 49 48 49 49 48 49 49 48 49 49 48 49 49 48 49 49 48 49 49 48 49 49 48 49 49 48 49 49 48 49 49 48 49 49 48 49 49 48 49 49 48 49 49 48 49 49 48 49 49 48 49 49 48 49 49 48 49 49 48 49 49 48 49 0 0 0 173 174 173 173 174 173 173 174 173 173 174 173 173 174 173 173 174 173 173 174 173 173 174 173 173 174 173 173 174 173 173 174 173 173 174 173 173 174 173 173 174 173 173 174 173 173 174 173 173 174 173 173 174 173 173 174 173 173 174 173 173 174 173 173 174 173 173 174 173 173 174 173 173 174 173 173 174 173 173 174 173 173 174 173 173 174 173 49 48 49 49 48 49 49 48 49 49 48 49 49 48 49 49 48 49 49 48 49 49 48 49 49 48 49 49 48 49 49 48 49 49 48 49 49 48 49 49 48 49 49 48 49 49 48 49 49 48 49 49 48 49 49 48 49 49 48 49 49 48 49 49 48 49 49 48 49 49 48 49 49 48 49 49 48 49 49 48 49 49 48 49 49 48 49 49 48 49 49 48 49 49 48 49 49 48 49 49 48 49 49 48 49 49 48 49 49 48 49 49 48 49 49 48 49 49 48 49 49 48 49 49 48 49 49 48 49 49 48 49 49 48 49 49 48 49 49 48 49 49 48 49 49 48 49 49 48 49 49 48 49 49 48 49 49 48 49 49 48 49 49 48 49 49 48 49 49 48 49 49 48 49 49 48 49 49 48 49 49 48 49
49 48 49 49 48 49 49 48 49 49 48 49 49 48 49 49 48 49 49 48 49 49 48 49 49 48 49 49 48 49 49 48 49 49 48 49 49 48 49 49 48 49 49 48 49 49 48 49 49 48 49 49 48 49 49 48 49 49 48 49 49 48 49 49 48 49 49 48 49 49 48 49 49 48 49 49 48 49 49 48 49 49 48 49 49 48 49 49 48 49 49 48 49 49 48 49 49 48 49 49 48 49 49 48 49 49 48 49 49 48 49 49 48 49 173 174 173 173 174 173 173 174 173 173 174 173 173 174 173 173 174 173 173 174 173 173 174 173 173 174 173 173 174 173 49 48 49 49 48 49 49 48 49 49 48 49 49 48 49 49 48 49 49 48 49 49 48 49 49 48 49 49 48 49 49 48 49 49 48 49 49 48 49 49 48 49 49 48 49 49 48 49 49 48 49 49 48 49 49 48 49 49 48 49 49 48 49 49 48 49 49 48 49 49 48 49 49 48 49 49 48 49 49 48 49 49 48 49 49 48 49 49 48 49 49 48 49 49 48 49 49 48 49 49 48 49 49 48 49 49 48 49 49 48 49 49 48 49 49 48 49 49 48 49 49 48 49 49 48 49 49 48 49 49 48 49 49 48 49 49 48 49 49 48 49 49 48 49 49 48 49 49 48 49 49 48 49 49 48 49 49 48 49 49 48 49 49 48 49 49 48 49 49 48 49 49 48 49 49 48 49 49 48 49 49 48 49 49 48 49 49 48 49 49 48 49 49 48 49 49 48 49 49 48 49 49 48 49 49 48 49 49 48 49 49 48 49 49 48 49 49 48 49 49 48 49 49 48 49 49 48 49 49 48 49 49 48 49 49 48 49 49 48 49
49 48 49 49 48 49 49 48 49 49 48 49 49 48 49 49 48 49 49 48 49 49 48 49 49 48 49 49 48 49 49 48 49 49 48 49 49 48 49 49 48 49 49 48 49 49 48 49 49 48 49 49 48 49 49 48 49 49 48 49 49 48 49 49 48 49 49 48 49 49 48 49 49 48 49 49 48 49 49 48 49 49 48 49 49 48 49 49 48 49 49 48 49 49 48 49 49 48 49 49 48 49 49 48 49 49 48 49 49 48 49 49 48 49 49 48 49 49 48 49 49 48 49 49 48 49 49 48 49 49 48 49 49 48 49 49 48 49 49 48 49 49 48 49 49 48 49 49 48 49 49 48 49 49 48 49 49 48 49 49 48 49 49 48 49 49 48 49 49 48 49 49 48 49 49 48 49 49 48 49 49 48 49 49 48 49 49 48 49 49 48 49 49 48 49 49 48 49 49 48 49 49 48 49 49 48 49 49 48 49 49 48 49 49 48 49 49 48 49 49 48 49 49 48 49 49 48 49 49 48 49 49 48 49 49 48 49 49 48 49 49 48 49 49 48 49 49 48 49 49 48 49 49 48 49 49 48 49 49 48 49 49 48 49 49 48 49 49 48 49 49 48 49 49 48 49 49 48 49 49 48 49 49 48 49 49 48 49 49 48 49 49 48 49 49 48 49 49 48 49 49 48 49 49 48 49 49 48 49 49 48 49 49 48 49 49 48 49 49 48 49 49 48 49 49 48 49 49 48 49 49 48 49 49 48 49 49 48 49 49 48 49 49 48 49 49 48 49 49 48 49 49 48 49 49 48 49 49 48 49 49 48 49 49 48 49 49 48 49 49 48 49 49 48 49 49 48 49 49 48 49 49 48 49
49 48 49 49 48 49 49 48 49 49 48 49 49 48 49 49 48 49 49 48 49 49 48 49 49 48 49 49 48 49 49 48 49 49 48 49 49 48 49 49 48 49 49 48 49 49 48 49 49 48 49 49 48 49 49 48 49 49 48 49 49 48 49 49 48 49 49 48 49 49 48 49 49 48 49 49 48 49 49 48 49 49 48 49 49 48 49 49 48 49 49 48 49 49 48 49 49 48 49 49 48 49 49 48 49 49 48 49 49 48 49 49 48 49 49 48 49 49 48 49 49 48 49 49 48 49 49 48 49 49 48 49 49 48 49 49 48 49 49 48 49 49 48 49 49 48 49 49 48 49 49 48 49 49 48 49 49 48 49 49 48 49 49 48 49 49 48 49 49 48 49 49 48 49 49 48 49 49 48 49 49 48 49 49 48 49 49 48 49 49 48 49 49 48 49 49 48 49 49 48 49 49 48 49 49 48 49 49 48 49 49 48 49 49 48 49 49 48 49 49 48 49 49 48 49 49 48 49 49 48 49 49 48 49 49 48 49 49 48 49 49 48 49 49 48 49 49 48 49 49 48 49 49 48 49 49 48 49 49 48 49 49 48 49 49 48 49 49 48 49 49 48 49 49 48 49 49 48 49 49 48 49 49 48 49 49 48 49 49 48 49 49 48 49 49 48 49 49 48 49 49 48 49 49 48 49 49 48 49 49 48 49 49 48 49 49 48 49 49 48 49 49 48 49 49 48 49 49 48 49 49 48 49 49 48 49 49 48 49 49 48 49 49 48 49 49 48 49 49 48 49 49 48 49 49 48 49 49 48 49 49 48 49 49 48 49 49 48 49 49 48 49 49 48 49 49 48 49 49 48 49 49 48 49
49 48 49 49 48 49 49 48 49 49 48 49 49 48 49 49 48 49 49 48 49 49 48 49 49 48 49 49 48 49 49 48 49 49 48 49 49 48 49 49 48 49 49 48 49 49 48 49 49 48 49 49 48 49 49 48 49 49 48 49 49 48 49 49 48 49 49 48 49 49 48 49 49 48 49 49 48 49 49 48 49 49 48 49 49 48 49 49 48 49 49 48 49 49 48 49 49 48 49 49 48 49 49 48 49 49 48 49 49 48 49 49 48 49 49 48 49 49 48 49 49 48 49 49 48 49 49 48 49 49 48 49 49 48 49 49 48 49 49 48 49 49 48 49 49 48 49 49 48 49 49 48 49 49 48 49 49 48 49 49 48 49 49 48 49 49 48 49 49 48 49 49 48 49 49 48 49 49 48 49 49 48 49 49 48 49 49 48 49 49 48 49 49 48 49 49 48 49 49 48 49 49 48 49 49 48 49 49 48 49 49 48 49 49 48 49 49 48 49 49 48 49 49 48 49 49 48 49 49 48 49 49 48 49 49 48 49 49 48 49 49 48 49 49 48 49 49 48 49 49 48 49 49 48 49 49 48 49 49 48 49 49 48 49 49 48 49 49 48 49 49 48 49 49 48 49 49 48 49 49 48 49 49 48 49 49 48 49 49 48 49 49 48 49 49 48 49 49 48 49 49 48 49 49 48 49 49 48 49 49 48 49 49 48 49 49 48 49 49 48 49 49 48 49 49 48 49 49 48 49 49 48 49 49 48 49 49 48 49 49 48 49 49 48 49 49 48 49 49 48 49 49 48 49 49 48 49 49 48 49 49 48 49 49 48 49 49 48 49 49 48 49 49 48 49 49 48 49 49 48 49 49 48 49
49 48 49 49 48 49 49 48 49 49 48 49 49 48 49 49 48 49 49 48 49 49 48 49 49 48 49 49 48 49 49 48 49 49 48 49 49 48 49 49 48 49 49 48 49 49 48 49 49 48 49 49 48 49 49 48 49 49 48 49 49 48 49 49 48 49 49 48 49 49 48 49 49 48 49 49 48 49 49 48 49 49 48 49 49 48 49 49 48 49 49 48 49 49 48 49 49 48 49 49 48 49 49 48 49 49 48 49 49 48 49 49 48 49 49 48 49 49 48 49 49 48 49 49 48 49 49 48 49 49 48 49 49 48 49 49 48 49 49 48 49 49 48 49 49 48 49 49 48 49 49 48 49 49 48 49 49 48 49 49 48 49 49 48 49 49 48 49 49 48 49 49 48 49 49 48 49 49 48 49 49 48 49 49 48 49 49 48 49 49 48 49 49 48 49 49 48 49 49 48 49 49 48 49 49 48 49 49 48 49 49 48 49 49 48 49 49 48 49 49 48 49 49 48 49 49 48 49 49 48 49 49 48 49 49 48 49 49 48 49 49 48 49 49 48 49 49 48 49 49 48 49 49 48 49 49 48 49 49 48 49 49 48 49 49 48 49 49 48 49 49 48 49 49 48 49 49 48 49 49 48 49 49 48 49 49 48 49 49 48 49 49 48 49 49 48 49 49 48 49 49 48 49 49 48 49 49 48 49 49 48 49 49 48 49 49 48 49 49 48 49 49 48 49 49 48 49 49 48 49 49 48 49 49 48 49 49 48 49 49 48 49 49 48 49 49 48 49 49 48 49 49 48 49 49 48 49 49 48 49 49 48 49 49 48 49 49 48 49 49 48 49 49 48 49 49 48 49 49 48 49 49 48 49
49 48 49 49 48 49 49 48 49 49 48 49 49 48 49 49 48 49 49 48 49 49 48 49 49 48 49 49 48 49 49 48 49 49 48 49 49 48 49 49 48 49 49 48 49 49 48 49 49 48 49 49 48 49 49 48 49 49 48 49 49 48 49 49 48 49 49 48 49 49 48 49 49 48 49 49 48 49 49 48 49 49 48 49 49 48 49 49 48 49 49 48 49 49 48 49 49 48 49 49 48 49 49 48 49 49 48 49 49 48 49 49 48 49 49 48 49 49 48 49 49 48 49 49 48 49 49 48 49 49 48 49 49 48 49 49 48 49 49 48 49 49 48 49 49 48 49 49 48 49 49 48 49 49 48 49 49 48 49 49 48 49 49 48 49 49 48 49 49 48 49 49 48 49 49 48 49 49 48 49 49 48 49 49 48 49 49 48 49 49 48 49 49 48 49 49 48 49 49 48 49 49 48 49 49 48 49 49 48 49 49 48 49 49 48 49 49 48 49 49 48 49 49 48 49 49 48 49 49 48 49 49 48 49 49 48 49 49 48 49 49 48 49 49 48 49 49 48 49 49 48 49 49 48 49 49 48 49 49 48 49 49 48 49 49 48 49 49 48 49 49 48 49 49 48 49 49 48 49 49 48 49 49 48 49 49 48 49 49 48 49 49 48 49 49 48 49 49 48 49 49 48 49 49 48 49 49 48 49 49 48 49 49 48 49 49 48 49 49 48 49 49 48 49 49 48 49 49 48 49 49 48 49 49 48 49 49 48 49 49 48 49 49 48 49 49 48 49 49 48 49 49 48 49 49 48 49 49 48 49 49 48 49 49 48 49 49 48 49 49 48 49 49 48 49 49 48 49 49 48 49 49 48 49
49 48 49 49 48 49 49 48 49 49 48 49 49 48 49 49 48 49 49 48 49 49 48 49 49 48 49 49 48 49 49 48 49 49 48 49 49 48 49 49 48 49 49 48 49 49 48 49 49 48 49 49 48 49 49 48 49 49 48 49 49 48 49 49 48 49 49 48 49 49 48 49 49 48 49 49 48 49 49 48 49 49 48 49 49 48 49 49 48 49 49 48 49 49 48 49 49 48 49 49 48 49 49 48 49 49 48 49 49 48 49 49 48 49 49 48 49 49 48 49 49 48 49 49 48 49 49 48 49 49 48 49 49 48 49 49 48 49 49 48 49 49 48 49 49 48 49 49 48 49 49 48 49 49 48 49 49 48 49 49 48 49 49 48 49 49 48 49 49 48 49 49 48 49 49 48 49 49 48 49 49 48 49 49 48 49 49 48 49 49 48 49 49 48 49 49 48 49 49 48 49 49 48 49 49 48 49 49 48 49 49 48 49 49 48 49 49 48 49 49 48 49 49 48 49 49 48 49 49 48 49 49 48 49 49 48 49 49 48 49 49 48 49 49 48 49 49 48 49 49 48 49 49 48 49 49 48 49 49 48 49 49 48 49 49 48 49 49 48 49 49 48 49 49 48 49 49 48 49 49 48 49 49 48 49 49 48 49 49 48 49 49 48 49 49 48 49 49 48 49 49 48 49 49 48 49 49 48 49 49 48 49 49 48 49 49 48 49 49 48 49 49 48 49 49 48 49 49 48 49 49 48 49 49 48 49 49 48 49 49 48 49 49 48 49 49 48 49 49 48 49 49 48 49 49 48 49 49 48 49 49 48 49 49 48 49 49 48 49 49 48 49 49 48 49 49 48 49 49 48 49 49 48 49
49 48 49 49 48 49 49 48 49 49 48 49 49 48 49 49 48 49 49 48 49 49 48 49 49 48 49 49 48 49 49 48 49 49 48 49 49 48 49 49 48 49 49 48 49 49 48 49 49 48 49 49 48 49 49 48 49 49 48 49 49 48 49 49 48 49 49 48 49 49 48 49 49 48 49 49 48 49 49 48 49 49 48 49 49 48 49 49 48 49 49 48 49 49 48 49 49 48 49 49 48 49 49 48 49 49 48 49 49 48 49 49 48 49 49 48 49 49 48 49 49 48 49 49 48 49 49 48 49 49 48 49 49 48 49 49 48 49 49 48 49 49 48 49 49 48 49 49 48 49 49 48 49 49 48 49 49 48 49 49 48 49 49 48 49 49 48 49 49 48 49 49 48 49 49 48 49 49 48 49 49 48 49 49 48 49 49 48 49 49 48 49 49 48 49 49 48 49 49 48 49 49 48 49 49 48 49 49 48 49 49 48 49 49 48 49 49 48 49 49 48 49 49 48 49 49 48 49 49 48 49 49 48 49 49 48 49 49 48 49 49 48 49 49 48 49 49 48 49 49 48 49 49 48 49 49 48 49 49 48 49 49 48 49 49 48 49 49 48 49 49 48 49 49 48 49 49 48 49 49 48 49 49 48 49 49 48 49 49 48 49 49 48 49 49 48 49 49 48 49 49 48 49 49 48 49 49 48 49 49 48 49 49 48 49 49 48 49 49 48 49 49 48 49 49 48 49 49 48 49 49 48 49 49 48 49 49 48 49 49 48 49 49 48 49 49 48 49 49 48 49 49 48 49 49 48 49 49 48 49 49 48 49 49 48 49 49 48 49 49 48 49 49 48 49 49 48 49 49 48 49 49 48 49
49 48 49 49 48 49 49 48 49 49 48 49 49 48 49 49 48 49 49 48 49 49 48 49 49 48 49 49 48 49 49 48 49 49 48 49 49 48 49 49 48 49 49 48 49 49 48 49 49 48 49 49 48 49 49 48 49 49 48 49 49 48 49 49 48 49 49 48 49 49 48 49 49 48 49 49 48 49 49 48 49 49 48 49 49 48 49 49 48 49 49 48 49 49 48 49 49 48 49 49 48 49 49 48 49 49 48 49 49 48 49 49 48 49 49 48 49 49 48 49 49 48 49 49 48 49 49 48 49 49 48 49 49 48 49 49 48 49 49 48 49 49 48 49 49 48 49 49 48 49 49 48 49 49 48 49 49 48 49 49 48 49 49 48 49 49 48 49 49 48 49 49 48 49 49 48 49 49 48 49 49 48 49 49 48 49 49 48 49 49 48 49 49 48 49 49 48 49 49 48 49 49 48 49 49 48 49 49 48 49 49 48 49 49 48 49 49 48 49 49 48 49 49 48 49 49 48 49 49 48 49 49 48 49 49 48 49 49 48 49 49 48 49 49 48 49 49 48 49 49 48 49 49 48 49 49 48 49 49 48 49 49 48 49 49 48 49 49 48 49 49 48 49 49 48 49 49 48 49 49 48 49 49 48 49 49 48 49 49 48 49 49 48 49 49 48 49 49 48 49 49 48 49 49 48 49 49 48 49 49 48 49 49 48 49 49 48 49 49 48 49 49 48 49 49 48 49 49 48 49 49 48 49 49 48 49 49 48 49 49 48 49 49 48 49 49 48 49 49 48 49 49 48 49 49 48 49 49 48 49 49 48 49 49 48 49 49 48 49 49 48 49 49 48 49 49 48 49 49 48 49 49 48 49
49 48 49 49 48 49 49 48 49 49 48 49 49 48 49 49 48 49 49 48 49 49 48 49 49 48 49 49 48 49 49 48 49 49 48 49 49 48 49 49 48 49 49 48 49 49 48 49 49 48 49 49 48 49 49 48 49 49 48 49 49 48 49 49 48 49 49 48 49 49 48 49 49 48 49 49 48 49 49 48 49 49 48 49 49 48 49 49 48 49 49 48 49 49 48 49 49 48 49 49 48 49 49 48 49 49 48 49 49 48 49 49 48 49 49 48 49 49 48 49 49 48 49 49 48 49 49 48 49 49 48 49 49 48 49 49 48 49 49 48 49 49 48 49 49 48 49 49 48 49 49 48 49 49 48 49 49 48 49 49 48 49 49 48 49 49 48 49 49 48 49 49 48 49 49 48 49 49 48 49 49 48 49 49 48 49 49 48 49 49 48 49 49 48 49 49 48 49 49 48 49 49 48 49 49 48 49 49 48 49 49 48 49 49 48 49 49 48 49 49 48 49 49 48 49 49 48 49 49 48 49 49 48 49 49 48 49 49 48 49 49 48 49 49 48 49 49 48 49 49 48 49 49 48 49 49 48 49 49 48 49 49 48 49 49 48 49 49 48 49 49 48 49 49 48 49 49 48 49 49 48 49 49 48 49 49 48 49 49 48 49 49 48 49 49 48 49 49 48 49 49 48 49 49 48 49 49 48 49 49 48 49 49 48 49 49 48 49 49 48 49 49 48 49 49 48 49 49 48 49 49 48 49 49 48 49 49 48 49 49 48 49 49 48 49 49 48 49 49 48 49 49 48 49 49 48 49 49 48 49 49 48 49 49 48 49 49 48 49 49 48 49 49 48 49 49 48 49 49 48 49 49 48 49
49 48 49 49 48 49 49 48 49 49 48 49 49 48 49 49 48 49 49 48 49 49 48 49 49 48 49 49 48 49 49 48 49 49 48 49 49 48 49 49 48 49 49 48 49 49 48 49 49 48 49 49 48 49 49 48 49 49 48 49 49 48 49 49 48 49 49 48 49 49 48 49 49 48 49 49 48 49 49 48 49 49 48 49 49 48 49 49 48 49 49 48 49 49 48 49 49 48 49 49 48 49 49 48 49 49 48 49 49 48 49 49 48 49 49 48 49 49 48 49 49 48 49 49 48 49 49 48 49 49 48 49 49 48 49 49 48 49 49 48 49 49 48 49 49 48 49 49 48 49 49 48 49 49 48 49 49 48 49 49 48 49 49 48 49 49 48 49 49 48 49 49 48 49 49 48 49 49 48 49 49 48 49 49 48 49 49 48 49 49 48 49 49 48 49 49 48 49 49 48 49 49 48 49 49 48 49 49 48 49 49 48 49 49 48 49 49 48 49 49 48 49 49 48 49 49 48 49 49 48 49 49 48 49 49 48 49 49 48 49 49 48 49 49 48 49 49 48 49 49 48 49 49 48 49 49 48 49 49 48 49 49 48 49 49 48 49 49 48 49 49 48 49 49 48 49 49 48 49 49 48 49 49 48 49 49 48 49 49 48 49 49 48 49 49 48 49 49 48 49 49 48 49 49 48 49 49 48 49 49 48 49 49 48 49 49 48 49 49 48 49 49 48 49 49 48 49 49 48 49 49 48 49 49 48 49 49 48 49 49 48 49 49 48 49 49 48 49 49 48 49 49 48 49 49 48 49 49 48 49 49 48 49 49 48 49 49 48 49 49 48 49 49 48 49 49 48 49 49 48 49 49 48 49
49 48 49 49 48 49 49 48 49 49 48 49 49 48 49 49 48 49 49 48 49 49 48 49 49 48 49 49 48 49 49 48 49 49 48 49 49 48 49 49 48 49 49 48 49 49 48 49 49 48 49 49 48 49 49 48 49 49 48 49 49 48 49 49 48 49 49 48 49 49 48 49 49 48 49 49 48 49 49 48 49 49 48 49 49 48 49 49 48 49 49 48 49 49 48 49 49 48 49 49 48 49 49 48 49 49 48 49 49 48 49 49 48 49 49 48 49 49 48 49 49 48 49 49 48 49 49 48 49 49 48 49 49 48 49 49 48 49 49 48 49 49 48 49 49 48 49 49 48 49 49 48 49 49 48 49 49 48 49 49 48 49 49 48 49 49 48 49 49 48 49 49 48 49 49 48 49 49 48 49 49 48 49 49 48 49 49 48 49 49 48 49 49 48 49 49 48 49 49 48 49 49 48 49 49 48 49 49 48 49 49 48 49 49 48 49 49 48 49 49 48 49 49 48 49 49 48 49 49 48 49 49 48 49 49 48 49 49 48 49 49 48 49 49 48 49 49 48 49 49 48 49 49 48 49 49 48 49 49 48 49 49 48 49 49 48 49 49 48 49 49 48 49 49 48 49 49 48 49 49 48 49 49 48 49 49 48 49 49 48 49 49 48 49 49 48 49 49 48 49 49 48 49 49 48 49 49 48 49 49 48 49 49 48 49 49 48 49 49 48 49 49 48 49 49 48 49 49 48 49 49 48 49 49 48 49 49 48 49 49 48 49 49 48 49 49 48 49 49 48 49 49 48 49 49 48 49 49 48 49 49 48 49 49 48 49 49 48 49 49 48 49 49 48 49 49 48 49 49 48 49 49 48 49
49 48 49 49 48 49 49 48 49 49 48 49 49 48 49 49 48 49 49 48 49 49 48 49 49 48 49 49 48 49 49 48 49 49 48 49 49 48 49 49 48 49 49 48 49 49 48 49 49 48 49 49 48 49 49 48 49 49 48 49 49 48 49 49 48 49 49 48 49 49 48 49 49 48 49 49 48 49 49 48 49 49 48 49 49 48 49 49 48 49 49 48 49 49 48 49 49 48 49 49 48 49 49 48 49 49 48 49 49 48 49 49 48 49 49 48 49 49 48 49 49 48 49 49 48 49 49 48 49 49 48 49 49 48 49 49 48 49 49 48 49 49 48 49 49 48 49 49 48 49 49 48 49 49 48 49 49 48 49 49 48 49 49 48 49 49 48 49 49 48 49 49 48 49 49 48 49 49 48 49 49 48 49 49 48 49 49 48 49 49 48 49 49 48 49 49 48 49 49 48 49 49 48 49 49 48 49 49 48 49 49 48 49 49 48 49 49 48 49 49 48 49 49 48 49 49 48 49 49 48 49 49 48 49 49 48 49 49 48 49 49 48 49 49 48 49 49 48 49 49 48 49 49 48 49 49 48 49 49 48 49 49 48 49 49 48 49 49 48 49 49 48 49 49 48 49 49 48 49 49 48 49 49 48 49 49 48 49 49 48 49 49 48 49 49 48 49 49 48 49 49 48 49 49 48 49 49 48 49 49 48 49 49 48 49 49 48 49 49 48 49 49 48 49 49 48 49 49 48 49 49 48 49 49 48 49 49 48 49 49 48 49 49 48 49 49 48 49 49 48 49 49 48 49 49 48 49 49 48 49 49 48 49 49 48 49 49 48 49 49 48 49 49 48 49 49 48 49 49 48 49 49 48 49
49 48 49 49 48 49 49 48 49 49 48 49 49 48 49 49 48 49 49 48 49 49 48 49 49 48 49 49 48 49 49 48 49 49 48 49 49 48 49 49 48 49 49 48 49 49 48 49 49 48 49 49 48 49 49 48 49 49 48 49 49 48 49 49 48 49 49 48 49 49 48 49 49 48 49 49 48 49 49 48 49 49 48 49 49 48 49 49 48 49 49 48 49 49 48 49 49 48 49 49 48 49 49 48 49 49 48 49 49 48 49 49 48 49 49 48 49 49 48 49 49 48 49 49 48 49 49 48 49 49 48 49 49 48 49 49 48 49 49 48 49 49 48 49 49 48 49 49 48 49 49 48 49 49 48 49 49 48 49 49 48 49 49 48 49 49 48 49 49 48 49 49 48 49 49 48 49 49 48 49 49 48 49 49 48 49 49 48 49 49 48 49 49 48 49 49 48 49 49 48 49 49 48 49 49 48 49 49 48 49 49 48 49 49 48 49 49 48 49 49 48 49 49 48 49 49 48 49 49 48 49 49 48 49 49 48 49 49 48 49 49 48 49 49 48 49 49 48 49 49 48 49 49 48 49 49 48 49 49 48 49 49 48 49 49 48 49 49 48 49 49 48 49 49 48 49 49 48 49 49 48 49 49 48 49 49 48 49 49 48 49 49 48 49 49 48 49 49 48 49 49 48 49 49 48 49 49 48 49 49 48 49 49 48 49 49 48 49 49 48 49 49 48 49 49 48 49 49 48 49 49 48 49 49 48 49 49 48 49 49 48 49 49 48 49 49 48 49 49 48 49 49 48 49 49 48 49 49 48 49 49 48 49 49 48 49 49 48 49 49 48 49 49 48 49 49 48 49 49 48 49 49 48 49
49 48 49 49 48 49 49 48 49 49 48 49 49 48 49 49 48 49 49 48 49 49 48 49 49 48 49 49 48 49 49 48 49 49 48 49 49 48 49 49 48 49 49 48 49 49 48 49 49 48 49 49 48 49 49 48 49 49 48 49 49 48 49 49 48 49 49 48 49 49 48 49 49 48 49 49 48 49 49 48 49 49 48 49 49 48 49 49 48 49 49 48 49 49 48 49 49 48 49 49 48 49 49 48 49 49 48 49 49 48 49 49 48 49 49 48 49 49 48 49 49 48 49 49 48 49 49 48 49 49 48 49 49 48 49 49 48 49 49 48 49 49 48 49 49 48 49 49 48 49 49 48 49 49 48 49 49 48 49 49 48 49 49 48 49 49 48 49 49 48 49 49 48 49 49 48 49 49 48 49 49 48 49 49 48 49 49 48 49 49 48 49 49 48 49 49 48 49 49 48 49 49 48 49 49 48 49 49 48 49 49 48 49 49 48 49 49 48 49 49 48 49 49 48 49 49 48 49 49 48 49 49 48 49 49 48 49 49 48 49 49 48 49 49 48 49 49 48 49 49 48 49 49 48 49 49 48 49 49 48 49 49 48 49 49 48 49 49 48 49 49 48 49 49 48 49 49 48 49 49 48 49 49 48 49 49 48 49 49 48 49 49 48 49 49 48 49 49 48 49 49 48 49 49 48 49 49 48 49 49 48 49 49 48 49 49 48 49 49 48 49 49 48 49 49 48 49 49 48 49 49 48 49 49 48 49 49 48 49 49 48 49 49 48 49 49 48 49 49 48 49 49 48 49 49 48 49 49 48 49 49 48 49 49 48 49 49 48 49 49 48 49 49 48 49 49 48 49 49 48 49 49 48 49
49 48 49 49 48 49 49 48 49 49 48 49 49 48 49 49 48 49 49 48 49 49 48 49 49 48 49 49 48 49 49 48 49 49 48 49 49 48 49 49 48 49 49 48 49 49 48 49 49 48 49 49 48 49 49 48 49 49 48 49 49 48 49 49 48 49 49 48 49 49 48 49 49 48 49 49 48 49 49 48 49 49 48 49 49 48 49 49 48 49 49 48 49 49 48 49 49 48 49 49 48 49 49 48 49 49 48 49 49 48 49 49 48 49 49 48 49 49 48 49 49 48 49 49 48 49 49 48 49 49 48 49 49 48 49 49 48 49 49 48 49 49 48 49 49 48 49 49 48 49 49 48 49 49 48 49 49 48 49 49 48 49 49 48 49 49 48 49 49 48 49 49 48 49 49 48 49 49 48 49 49 48 49 49 48 49 49 48 49 49 48 49 49 48 49 49 48 49 49 48 49 49 48 49 49 48 49 49 48 49 49 48 49 49 48 49 49 48 49 49 48 49 49 48 49 49 48 49 49 48 49 49 48 49 49 48 49 49 48 49 49 48 49 49 48 49 49 48 49 49 48 49 49 48 49 49 48 49 49 48 49 49 48 49 49 48 49 49 48 49 49 48 49 49 48 49 49 48 49 49 48 49 49 48 49 49 48 49 49 48 49 49 48 49 49 48 49 49 48 49 49 48 49 49 48 49 49 48 49 49 48 49 49 48 49 49 48 49 49 48 49 49 48 49 49 48 49 49 48 49 49 48 49 49 48 49 49 48 49 49 48 49 49 48 49 49 48 49 49 48 49 49 48 49 49 48 49 49 48 49 49 48 49 49 48 49 49 48 49 49 48 49 49 48 49 49 48 49 49 48 49 49 48 49
49 48 49 49 48 49 49 48 49 49 48 49 49 48 49 49 48 49 49 48 49 49 48 49 49 48 49 49 48 49 49 48 49 49 48 49 49 48 49 49 48 49 49 48 49 49 48 49 49 48 49 49 48 49 49 48 49 49 48 49 49 48 49 49 48 49 49 48 49 49 48 49 49 48 49 49 48 49 49 48 49 49 48 49 49 48 49 49 48 49 49 48 49 49 48 49 49 48 49 49 48 49 49 48 49 49 48 49 49 48 49 49 48 49 49 48 49 49 48 49 49 48 49 49 48 49 49 48 49 49 48 49 49 48 49 49 48 49 49 48 49 49 48 49 49 48 49 49 48 49 49 48 49 49 48 49 49 48 49 49 48 49 49 48 49 49 48 49 49 48 49 49 48 49 49 48 49 49 48 49 49 48 49 49 48 49 49 48 49 49 48 49 49 48 49 49 48 49 49 48 49 49 48 49 49 48 49 49 48 49 49 48 49 49 48 49 49 48 49 49 48 49 49 48 49 49 48 49 49 48 49 49 48 49 49 48 49 49 48 49 49 48 49 49 48 49 49 48 49 49 48 49 49 48 49 49 48 49 49 48 49 49 48 49 49 48 49 49 48 49 49 48 49 49 48 49 49 48 49 49 48 49 49 48 49 49 48 49 49 48 49 49 48 49 49 48 49 49 48 49 49 48 49 49 48 49 49 48 49 49 48 49 49 48 49 49 48 49 49 48 49 49 48 49 49 48 49 49 48 49 49 48 49 49 48 49 49 48 49 49 48 49 49 48 49 49 48 49 49 48 49 49 48 49 49 48 49 49 48 49 49 48 49 49 48 49 49 48 49 49 48 49 49 48 49 49 48 49 49 48 49 49 48 49
49 48 49 49 48 49 49 48 49 49 48 49 49 48 49 49 48 49 49 48 49 49 48 49 49 48 49 49 48 49 49 48 49 49 48 49 49 48 49 49 48 49 49 48 49 49 48 49 49 48 49 49 48 49 49 48 49 49 48 49 49 48 49 49 48 49 49 48 49 49 48 49 49 48 49 49 48 49 49 48 49 49 48 49 49 48 49 49 48 49 49 48 49 49 48 49 49 48 49 49 48 49 49 48 49 49 48 49 49 48 49 49 48 49 49 48 49 49 48 49 49 48 49 49 48 49 49 48 49 49 48 49 49 48 49 49 48 49 49 48 49 49 48 49 49 48 49 49 48 49 49 48 49 49 48 49 49 48 49 49 48 49 49 48 49 49 48 49 49 48 49 49 48 49 49 48 49 49 48 49 49 48 49 49 48 49 49 48 49 49 48 49 49 48 49 49 48 49 49 48 49 49 48 49 49 48 49 49 48 49 49 48 49 49 48 49 49 48 49 49 48 49 49 48 49 49 48 49 49 48 49 49 48 49 49 48 49 49 48 49 49 48 49 49 48 49 49 48 49 49 48 49 49 48 49 49 48 49 49 48 49 49 48 49 49 48 49 49 48 49 49 48 49 49 48 49 49 48 49 49 48 49 49 48 49 49 48 49 49 48 49 49 48 49 49 48 49 49 48 49 49 48 49 49 48 49 49 48 49 49 48 49 49 48 49 49 48 49 49 48 49 49 48 49 49 48 49 49 48 49 49 48 49 49 48 49 49 48 49 49 48 49 49 48 49 49 48 49 49 48 49 49 48 49 49 48 49 49 48 49 49 48 49 49 48 49 49 48 49 49 48 49 49 48 49 49 48 49 49 48 49 49 48 49
49 48 49 49 48 49 49 48 49 49 48 49 49 48 49 49 48 49 49 48 49 49 48 49 49 48 49 49 48 49 49 48 49 49 48 49 49 48 49 49 48 49 49 48 49 49 48 49 49 48 49 49 48 49 49 48 49 49 48 49 49 48 49 49 48 49 49 48 49 49 48 49 49 48 49 49 48 49 49 48 49 49 48 49 49 48 49 49 48 49 49 48 49 49 48 49 49 48 49 49 48 49 49 48 49 49 48 49 49 48 49 49 48 49 49 48 49 49 48 49 49 48 49 49 48 49 49 48 49 49 48 49 49 48 49 49 48 49 49 48 49 49 48 49 49 48 49 49 48 49 49 48 49 49 48 49 49 48 49 49 48 49 49 48 49 49 48 49 49 48 49 49 48 49 49 48 49 49 48 49 49 48 49 49 48 49 49 48 49 49 48 49 49 48 49 49 48 49 49 48 49 49 48 49 49 48 49 49 48 49 49 48 49 49 48 49 49 48 49 49 48 49 49 48 49 49 48 49 49 48 49 49 48 49 49 48 49 49 48 49 49 48 49 49 48 49 49 48 49 49 48 49 49 48 49 49 48 49 49 48 49 49 48 49 49 48 49 49 48 49 49 48 49 49 48 49 49 48 49 49 48 49 49 48 49 49 48 49 49 48 49 49 48 49 49 48 49 49 48 49 49 48 49 49 48 49 49 48 49 49 48 49 49 48 49 49 48 49 49 48 49 49 48 49 49 48 49 49 48 49 49 48 49 49 48 49 49 48 49 49 48 49 49 48 49 49 48 49 49 48 49 49 48 49 49 48 49 49 48 49 49 48 49 49 48 49 49 48 49 49 48 49 49 48 49 49 48 49 49 48 49 49 48 49
49 48 49 49 48 49 49 48 49 49 48 49 49 48 49 49 48 49 49 48 49 49 48 49 49 48 49 49 48 49 49 48 49 49 48 49 49 48 49 49 48 49 49 48 49 49 48 49 49 48 49 49 48 49 49 48 49 49 48 49 49 48 49 49 48 49 49 48 49 49 48 49 49 48 49 49 48 49 49 48 49 49 48 49 49 48 49 49 48 49 49 48 49 49 48 49 49 48 49 49 48 49 49 48 49 49 48 49 49 48 49 49 48 49 49 48 49 49 48 49 49 48 49 49 48 49 49 48 49 49 48 49 49 48 49 49 48 49 49 48 49 49 48 49 49 48 49 49 48 49 49 48 49 49 48 49 49 48 49 49 48 49 49 48 49 49 48 49 49 48 49 49 48 49 49 48 49 49 48 49 49 48 49 49 48 49 49 48 49 49 48 49 49 48 49 49 48 49 49 48 49 49 48 49 49 48 49 49 48 49 49 48 49 49 48 49 49 48 49 49 48 49 49 48 49 49 48 49 49 48 49 49 48 49 49 48 49 49 48 49 49 48 49 49 48 49 49 48 49 49 48 49 49 48 49 49 48 49 49 48 49 49 48 49 49 48 49 49 48 49 49 48 49 49 48 49 49 48 49 49 48 49 49 48 49 49 48 49 49 48 49 49 48 49 49 48 49 49 48 49 49 48 49 49 48 49 49 48 49 49 48 49 49 48 49 49 48 49 49 48 49 49 48 49 49 48 49 49 48 49 49 48 49 49 48 49 49 48 49 49 48 49 49 48 49 49 48 49 49 48 49 49 48 49 49 48 49 49 48 49 49 48 49 49 48 49 49 48 49 49 48 49 49 48 49 49 48 49 49 48 49 49 48 49
49 48 49 49 48 49 49 48 49 49 48 49 49 48 49 49 48 49 49 48 49 49 48 49 49 48 49 49 48 49 49 48 49 49 48 49 49 48 49 49 48 49 49 48 49 49 48 49 49 48 49 49 48 49 49 48 49 49 48 49 49 48 49 49 48 49 49 48 49 49 48 49 49 48 49 49 48 49 49 48 49 49 48 49 49 48 49 49 48 49 49 48 49 49 48 49 49 48 49 49 48 49 49 48 49 49 48 49 49 48 49 49 48 49 49 48 49 49 48 49 49 48 49 49 48 49 49 48 49 49 48 49 49 48 49 49 48 49 49 48 49 49 48 49 49 48 49 49 48 49 49 48 49 49 48 49 49 48 49 49 48 49 49 48 49 49 48 49 49 48 49 49 48 49 49 48 49 49 48 49 49 48 49 49 48 49 49 48 49 49 48 49 49 48 49 49 48 49 49 48 49 49 48 49 49 48 49 49 48 49 49 48 49 49 48 49 49 48 49 49 48 49 49 48 49 49 48 49 49 48 49 49 48 49 49 48 49 49 48 49 49 48 49 49 48 49 49 48 49 49 48 49 49 48 49 49 48 49 49 48 49 49 48 49 49 48 49 49 48 49 49 48 49 49 48 49 49 48 49 49 48 49 49 48 49 49 48 49 49 48 49 49 48 49 49 48 49 49 48 49 49 48 49 49 48 49 49 48 49 49 48 49 49 48 49 49 48 49 49 48 49 49 48 49 49 48 49 49 48 49 49 48 49 49 48 49 49 48 49 49 48 49 49 48 49 49 48 49 49 48 49 49 48 49 49 48 49 49 48 49 49 48 49 49 48 49 49 48 49 49 48 49 49 48 49 49 48 49 49 48 49 49 48 49
49 48 49 49 48 49 49 48 49 49 48 49 49 48 49 49 48 49 49 48 49 49 48 49 49 48 49 49 48 49 49 48 49 49 48 49 49 48 49 49 48 49 49 48 49 49 48 49 49 48 49 49 48 49 49 48 49 49 48 49 49 48 49 49 48 49 49 48 49 49 48 49 49 48 49 49 48 49 49 48 49 49 48 49 49 48 49 49 48 49 49 48 49 49 48 49 49 48 49 49 48 49 49 48 49 49 48 49 49 48 49 49 48 49 49 48 49 49 48 49 49 48 49 49 48 49 49 48 49 49 48 49 49 48 49 49 48 49 49 48 49 49 48 49 49 48 49 49 48 49 49 48 49 49 48 49 49 48 49 49 48 49 49 48 49 49 48 49 49 48 49 49 48 49 49 48 49 49 48 49 49 48 49 49 48 49 49 48 49 49 48 49 49 48 49 49 48 49 49 48 49 49 48 49 49 48 49 49 48 49 49 48 49 49 48 49 49 48 49 49 48 49 49 48 49 49 48 49 49 48 49 49 48 49 49 48 49 49 48 49 49 48 49 49 48 49 49 48 49 49 48 49 49 48 49 49 48 49 49 48 49 49 48 49 49 48 49 49 48 49 49 48 49 49 48 49 49 48 49 49 48 49 49 48 49 49 48 49 49 48 49 49 48 49 49 48 49 49 48 49 49 48 49 49 48 49 49 48 49 49 48 49 49 48 49 49 48 49 49 48 49 49 48 49 49 48 49 49 48 49 49 48 49 49 48 49 49 48 49 49 48 49 49 48 49 49 48 49 49 48 49 49 48 49 49 48 49 49 48 49 49 48 49 49 48 49 49 48 49 49 48 49 49 48 49 49 48 49 49 48 49 49 48 49
49 48 49 49 48 49 49 48 49 49 48 49 49 48 49 49 48 49 49 48 49 49 48 49 49 48 49 49 48 49 49 48 49 49 48 49 49 48 49 49 48 49 49 48 49 49 48 49 49 48 49 49 48 49 49 48 49 49 48 49 49 48 49 49 48 49 49 48 49 49 48 49 49 48 49 49 48 49 49 48 49 49 48 49 49 48 49 49 48 49 49 48 49 49 48 49 49 48 49 49 48 49 49 48 49 49 48 49 49 48 49 49 48 49 49 48 49 49 48 49 49 48 49 49 48 49 49 48 49 49 48 49 49 48 49 49 48 49 49 48 49 49 48 49 49 48 49 49 48 49 49 48 49 49 48 49 49 48 49 49 48 49 49 48 49 49 48 49 49 48 49 49 48 49 49 48 49 49 48 49 49 48 49 49 48 49 49 48 49 49 48 49 49 48 49 49 48 49 49 48 49 49 48 49 49 48 49 49 48 49 49 48 49 49 48 49 49 48 49 49 48 49 49 48 49 49 48 49 49 48 49 49 48 49 49 48 49 49 48 49 49 48 49 49 48 49 49 48 49 49 48 49 49 48 49 49 48 49 49 48 49 49 48 49 49 48 49 49 48 49 49 48 49 49 48 49 49 48 49 49 48 49 49 48 49 49 48 49 49 48 49 49 48 49 49 48 49 49 48 49 49 48 49 49 48 49 49 48 49 49 48 49 49 48 49 49 48 49 49 48 49 49 48 49 49 48 49 49 48 49 49 48 49 49 48 49 49 48 49 49 48 49 49 48 49 49 48 49 49 48 49 49 48 49 49 48 49 49 48 49 49 48 49 49 48 49 49 48 49 49 48 49 49 48 49 49 48 49 49 48 49 49 48 49
49 48 49 49 48 49 49 48 49 49 48 49 49 48 49 49 48 49 49 48 49 49 48 49 49 48 49 49 48 49 49 48 49 49 48 49 49 48 49 49 48 49 49 48 49 49 48 49 49 48 49 49 48 49 49 48 49 49 48 49 49 48 49 49 48 49 49 48 49 49 48 49 49 48 49 49 48 49 49 48 49 49 48 49 49 48 49 49 48 49 49 48 49 49 48 49 49 48 49 49 48 49 49 48 49 49 48 49 49 48 49 49 48 49 49 48 49 49 48 49 49 48 49 49 48 49 49 48 49 49 48 49 49 48 49 49 48 49 49 48 49 49 48 49 49 48 49 49 48 49 49 48 49 49 48 49 49 48 49 49 48 49 49 48 49 49 48 49 49 48 49 49 48 49 49 48 49 49 48 49 49 48 49 49 48 49 49 48 49 49 48 49 49 48 49 49 48 49 49 48 49 49 48 49 49 48 49 49 48 49 49 48 49 49 48 49 49 48 49 49 48 49 49 48 49 49 48 49 49 48 49 49 48 49 49 48 49 49 48 49 49 48 49 49 48 49 49 48 49 49 48 49 49 48 49 49 48 49 49 48 49 49 48 49 49 48 49 49 48 49 49 48 49 49 48 49 49 48 49 49 48 49 49 48 49 49 48 49 49 48 49 49 48 49 49 48 49 49 48 49 49 48 49 49 48 49 49 48 49 49 48 49 49 48 49 49 48 49 49 48 49 49 48 49 49 48 49 49 48 49 49 48 49 49 48 49 49 48 49 49 48 49 49 48 49 49 48 49 49 48 49 49 48 49 49 48 49 49 48 49 49 48 49 49 48 49 49 48 49 49 48 49 49 48 49 49 48 49 49 48 49 49 48 49
49 48 49 49 48 49 49 48 49 49 48 49 49 48 49 49 48 49 49 48 49 49 48 49 49 48 49 49 48 49 49 48 49 49 48 49 49 48 49 49 48 49 49 48 49 49 48 49 49 48 49 49 48 49 49 48 49 49 48 49 49 48 49 49 48 49 49 48 49 49 48 49 49 48 49 49 48 49 49 48 49 49 48 49 49 48 49 49 48 49 49 48 49 49 48 49 49 48 49 49 48 49 49 48 49 49 48 49 49 48 49 49 48 49 49 48 49 49 48 49 49 48 49 49 48 49 49 48 49 49 48 49 49 48 49 49 48 49 49 48 49 49 48 49 49 48 49 49 48 49 49 48 49 49 48 49 49 48 49 49 48 49 49 48 49 49 48 49 49 48 49 49 48 49 49 48 49 49 48 49 49 48 49 49 48 49 49 48 49 49 48 49 49 48 49 49 48 49 49 48 49 49 48 49 49 48 49 49 48 49 49 48 49 49 48 49 49 48 49 49 48 49 49 48 49 49 48 49 49 48 49 49 48 49 49 48 49 49 48 49 49 48 49 49 48 49 49 48 49 49 48 49 49 48 49 49 48 49 49 48 49 49 48 49 49 48 49 49 48 49 49 48 49 49 48 49 49 48 49 49 48 49 49 48 49 49 48 49 49 48 49 49 48 49 49 48 49 49 48 49 49 48 49 49 48 49 49 48 49 49 48 49 49 48 49 49 48 49 49 48 49 49 48 49 49 48 49 49 48 49 49 48 49 49 48 49 49 48 49 49 48 49 49 48 49 49 48 49 49 48 49 49 48 49 49 48 49 49 48 49 49 48 49 49 48 49 49 48 49 49 48 49 49 48 49 49 48 49 49 48 49 49 48 49
