P3
128 128
255
49 48 49 49 48 49 49 48 49 49 48 49 49 48 49 49 48 49 49 48 49 49 48 49 49 48 49 49 48 49 49 48 49 49 48 49 49 48 49 49 48 49 49 48 49 49 48 49 49 48 49 49 48 49 49 48 49 49 48 49 49 48 49 49 48 49 49 48 49 49 48 49 49 48 49 49 48 49 49 48 49 49 48 49 49 48 49 49 48 49 49 48 49 49 48 49 49 48 49 49 48 49 49 48 49 49 48 49 49 48 49 49 48 49 49 48 49 49 48 49 49 48 49 49 48 49 49 48 49 49 48 49 49 48 49 49 48 49 49 48 49 49 48 49 49 48 49 49 48 49 49 48 49 49 48 49 49 48 49 49 48 49 49 48 49 49 48 49 49 48 49 49 48 49 49 48 49 49 48 49 49 48 49 49 48 49 49 48 49 49 48 49 49 48 49 49 48 49 49 48 49 49 48 49 49 48 49 49 48 49 49 48 49 49 48 49 49 48 49 49 48 49 49 48 49 49 48 49 49 48 49 49 48 49 49 48 49 49 48 49 49 48 49 49 48 49 49 48 49 49 48 49 49 48 49 49 48 49 49 48 49 49 48 49 49 48 49 49 48 49 49 48 49 49 48 49 49 48 49 49 48 49 49 48 49 49 48 49 49 48 49 49 48 49 49 48 49 49 48 49 49 48 49 49 48 49 49 48 49 49 48 49 49 48 49 49 48 49 49 48 49 49 48 49 49 48 49 49 48 49 49 48 49 49 48 49 49 48 49 49 48 49 49 48 49 49 48 49 49 48 49 49 48 49 49 48 49 49 48 49 49 48 49 49 48 49 49 48 49 49 48 49 49 48 49 49 48 49 49 48 49 49 48 49
49 48 49 49 48 49 49 48 49 49 48 49 49 48 49 49 48 49 49 48 49 49 48 49 49 48 49 49 48 49 49 48 49 49 48 49 49 48 49 49 48 49 49 48 49 49 48 49 49 48 49 49 48 49 49 48 49 49 48 49 49 48 49 49 48 49 49 48 49 49 48 49 49 48 49 49 48 49 49 48 49 49 48 49 49 48 49 49 48 49 49 48 49 49 48 49 49 48 49 49 48 49 49 48 49 49 48 49 49 48 49 49 48 49 49 48 49 49 48 49 49 48 49 49 48 49 49 48 49 49 48 49 49 48 49 49 48 49 49 48 49 49 48 49 49 48 49 49 48 49 49 48 49 49 48 49 49 48 49 49 48 49 49 48 49 49 48 49 49 48 49 49 48 49 49 48 49 49 48 49 49 48 49 49 48 49 49 48 49 49 48 49 49 48 49 49 48 49 49 48 49 49 48 49 49 48 49 49 48 49 49 48 49 49 48 49 49 48 49 49 48 49 49 48 49 49 48 49 49 48 49 49 48 49 49 48 49 49 48 49 49 48 49 49 48 49 49 48 49 49 48 49 49 48 49 49 48 49 49 48 49 49 48 49 49 48 49 49 48 49 49 48 49 49 48 49 49 48 49 49 48 49 49 48 49 49 48 49 49 48 49 49 48 49 49 48 49 49 48 49 49 48 49 49 48 49 49 48 49 49 48 49 49 48 49 49 48 49 49 48 49 49 48 49 49 48 49 49 48 49 49 48 49 49 48 49 49 48 49 49 48 49 49 48 49 49 48 49 49 48 49 49 48 49 49 48 49 49 48 49 49 48 49 49 48 49 49 48 49 49 48 49 49 48 49 49 48 49 49 48 49 49 48 49
49 48 49 49 48 49 49 48 49 49 48 49 49 48 49 49 48 49 49 48 49 49 48 49 49 48 49 49 48 49 49 48 49 49 48 49 49 48 49 49 48 49 49 48 49 49 48 49 49 48 49 49 48 49 49 48 49 49 48 49 49 48 49 49 48 49 49 48 49 49 48 49 49 48 49 49 48 49 49 48 49 49 48 49 49 48 49 49 48 49 49 48 49 49 48 49 49 48 49 49 48 49 49 48 49 49 48 49 49 48 49 49 48 49 49 48 49 49 48 49 49 48 49 49 48 49 49 48 49 49 48 49 49 48 49 49 48 49 49 48 49 49 48 49 49 48 49 49 48 49 49 48 49 49 48 49 49 48 49 49 48 49 49 48 49 49 48 49 49 48 49 49 48 49 49 48 49 49 48 49 49 48 49 49 48 49 49 48 49 49 48 49 49 48 49 49 48 49 49 48 49 49 48 49 49 48 49 49 48 49 49 48 49 49 48 49 49 48 49 49 48 49 49 48 49 49 48 49 49 48 49 49 48 49 49 48 49 49 48 49 49 48 49 49 48 49 49 48 49 49 48 49 49 48 49 49 48 49 49 48 49 49 48 49 49 48 49 49 48 49 49 48 49 49 48 49 49 48 49 49 48 49 49 48 49 49 48 49 49 48 49 49 48 49 49 48 49 49 48 49 49 48 49 49 48 49 49 48 49 49 48 49 49 48 49 49 48 49 49 48 49 49 48 49 49 48 49 49 48 49 49 48 49 49 48 49 49 48 49 49 48 49 49 48 49 49 48 49 49 48 49 49 48 49 49 48 49 49 48 49 49 48 49 49 48 49 49 48 49 49 48 49 49 48 49 49 48 49 49 48 49 49 48 49
49 48 49 49 48 49 49 48 49 49 48 49 49 48 49 49 48 49 49 48 49 49 48 49 49 48 49 49 48 49 49 48 49 49 48 49 49 48 49 49 48 49 49 48 49 49 48 49 49 48 49 49 48 49 49 48 49 49 48 49 49 48 49 49 48 49 49 48 49 49 48 49 49 48 49 49 48 49 49 48 49 49 48 49 49 48 49 49 48 49 49 48 49 49 48 49 49 48 49 49 48 49 49 48 49 49 48 49 49 48 49 49 48 49 49 48 49 49 48 49 49 48 49 49 48 49 49 48 49 49 48 49 49 48 49 49 48 49 49 48 49 49 48 49 49 48 49 49 48 49 49 48 49 49 48 49 49 48 49 49 48 49 49 48 49 49 48 49 49 48 49 49 48 49 49 48 49 49 48 49 49 48 49 49 48 49 49 48 49 49 48 49 49 48 49 49 48 49 49 48 49 49 48 49 49 48 49 49 48 49 49 48 49 49 48 49 49 48 49 49 48 49 49 48 49 49 48 49 49 48 49 49 48 49 49 48 49 49 48 49 49 48 49 49 48 49 49 48 49 49 48 49 49 48 49 49 48 49 49 48 49 49 48 49 49 48 49 49 48 49 49 48 49 49 48 49 49 48 49 49 48 49 49 48 49 49 48 49 49 48 49 49 48 49 49 48 49 49 48 49 49 48 49 49 48 49 49 48 49 49 48 49 49 48 49 49 48 49 49 48 49 49 48 49 49 48 49 49 48 49 49 48 49 49 48 49 49 48 49 49 48 49 49 48 49 49 48 49 49 48 49 49 48 49 49 48 49 49 48 49 49 48 49 49 48 49 49 48 49 49 48 49 49 48 49 49 48 49 49 48 49 49 48 49
49 48 49 49 48 49 49 48 49 49 48 49 49 48 49 49 48 49 49 48 49 49 48 49 49 48 49 49 48 49 49 48 49 49 48 49 49 48 49 49 48 49 49 48 49 49 48 49 49 48 49 49 48 49 49 48 49 49 48 49 49 48 49 49 48 49 49 48 49 49 48 49 49 48 49 49 48 49 49 48 49 49 48 49 49 48 49 49 48 49 49 48 49 49 48 49 49 48 49 49 48 49 49 48 49 49 48 49 49 48 49 49 48 49 49 48 49 49 48 49 49 48 49 49 48 49 49 48 49 49 48 49 49 48 49 49 48 49 49 48 49 49 48 49 49 48 49 49 48 49 49 48 49 49 48 49 49 48 49 49 48 49 49 48 49 49 48 49 49 48 49 49 48 49 49 48 49 49 48 49 49 48 49 49 48 49 49 48 49 49 48 49 49 48 49 49 48 49 49 48 49 49 48 49 49 48 49 49 48 49 49 48 49 49 48 49 49 48 49 49 48 49 49 48 49 49 48 49 49 48 49 49 48 49 49 48 49 49 48 49 49 48 49 49 48 49 49 48 49 49 48 49 49 48 49 49 48 49 49 48 49 49 48 49 49 48 49 49 48 49 49 48 49 49 48 49 49 48 49 49 48 49 49 48 49 49 48 49 49 48 49 49 48 49 49 48 49 49 48 49 49 48 49 49 48 49 49 48 49 49 48 49 49 48 49 49 48 49 49 48 49 49 48 49 49 48 49 49 48 49 49 48 49 49 48 49 49 48 49 49 48 49 49 48 49 49 48 49 49 48 49 49 48 49 49 48 49 49 48 49 49 48 49 49 48 49 49 48 49 49 48 49 49 48 49 49 48 49 49 48 49 49 48 49
49 48 49 49 48 49 49 48 49 49 48 49 49 48 49 49 48 49 49 48 49 49 48 49 49 48 49 49 48 49 49 48 49 49 48 49 49 48 49 49 48 49 49 48 49 49 48 49 49 48 49 49 48 49 49 48 49 49 48 49 49 48 49 49 48 49 49 48 49 49 48 49 49 48 49 49 48 49 49 48 49 49 48 49 49 48 49 49 48 49 49 48 49 49 48 49 49 48 49 49 48 49 49 48 49 49 48 49 49 48 49 49 48 49 49 48 49 49 48 49 49 48 49 49 48 49 49 48 49 49 48 49 49 48 49 49 48 49 49 48 49 49 48 49 49 48 49 49 48 49 49 48 49 49 48 49 49 48 49 49 48 49 49 48 49 49 48 49 49 48 49 49 48 49 49 48 49 49 48 49 49 48 49 49 48 49 49 48 49 49 48 49 49 48 49 49 48 49 49 48 49 49 48 49 49 48 49 49 48 49 49 48 49 49 48 49 49 48 49 49 48 49 49 48 49 49 48 49 49 48 49 49 48 49 49 48 49 49 48 49 49 48 49 49 48 49 49 48 49 49 48 49 49 48 49 49 48 49 49 48 49 49 48 49 49 48 49 49 48 49 49 48 49 49 48 49 49 48 49 49 48 49 49 48 49 49 48 49 49 48 49 49 48 49 49 48 49 49 48 49 49 48 49 49 48 49 49 48 49 49 48 49 49 48 49 49 48 49 49 48 49 49 48 49 49 48 49 49 48 49 49 48 49 49 48 49 49 48 49 49 48 49 49 48 49 49 48 49 49 48 49 49 48 49 49 48 49 49 48 49 49 48 49 49 48 49 49 48 49 49 48 49 49 48 49 49 48 49 49 48 49 49 48 49
49 48 49 49 48 49 49 48 49 49 48 49 49 48 49 49 48 49 49 48 49 49 48 49 49 48 49 49 48 49 49 48 49 49 48 49 49 48 49 49 48 49 49 48 49 49 48 49 49 48 49 49 48 49 49 48 49 49 48 49 49 48 49 49 48 49 49 48 49 49 48 49 49 48 49 49 48 49 49 48 49 49 48 49 49 48 49 49 48 49 49 48 49 49 48 49 49 48 49 49 48 49 49 48 49 49 48 49 49 48 49 49 48 49 49 48 49 49 48 49 49 48 49 49 48 49 49 48 49 49 48 49 49 48 49 49 48 49 49 48 49 49 48 49 49 48 49 49 48 49 49 48 49 49 48 49 49 48 49 49 48 49 49 48 49 49 48 49 49 48 49 49 48 49 49 48 49 49 48 49 49 48 49 49 48 49 49 48 49 49 48 49 49 48 49 49 48 49 49 48 49 49 48 49 49 48 49 49 48 49 49 48 49 49 48 49 49 48 49 49 48 49 49 48 49 49 48 49 49 48 49 49 48 49 49 48 49 49 48 49 49 48 49 49 48 49 49 48 49 49 48 49 49 48 49 49 48 49 49 48 49 49 48 49 49 48 49 49 48 49 49 48 49 49 48 49 49 48 49 49 48 49 49 48 49 49 48 49 49 48 49 49 48 49 49 48 49 49 48 49 49 48 49 49 48 49 49 48 49 49 48 49 49 48 49 49 48 49 49 48 49 49 48 49 49 48 49 49 48 49 49 48 49 49 48 49 49 48 49 49 48 49 49 48 49 49 48 49 49 48 49 49 48 49 49 48 49 49 48 49 49 48 49 49 48 49 49 48 49 49 48 49 49 48 49 49 48 49 49 48 49 49 48 49
49 48 49 49 48 49 49 48 49 49 48 49 49 48 49 49 48 49 49 48 49 49 48 49 49 48 49 49 48 49 49 48 49 49 48 49 49 48 49 49 48 49 49 48 49 49 48 49 49 48 49 49 48 49 49 48 49 49 48 49 49 48 49 49 48 49 49 48 49 49 48 49 49 48 49 49 48 49 49 48 49 49 48 49 49 48 49 49 48 49 49 48 49 49 48 49 49 48 49 49 48 49 49 48 49 49 48 49 49 48 49 49 48 49 49 48 49 49 48 49 49 48 49 49 48 49 49 48 49 49 48 49 49 48 49 49 48 49 49 48 49 49 48 49 49 48 49 49 48 49 49 48 49 49 48 49 49 48 49 49 48 49 49 48 49 49 48 49 49 48 49 49 48 49 49 48 49 49 48 49 49 48 49 49 48 49 49 48 49 49 48 49 49 48 49 49 48 49 49 48 49 49 48 49 49 48 49 49 48 49 49 48 49 49 48 49 49 48 49 49 48 49 49 48 49 49 48 49 49 48 49 49 48 49 49 48 49 49 48 49 49 48 49 49 48 49 49 48 49 49 48 49 49 48 49 49 48 49 49 48 49 49 48 49 49 48 49 49 48 49 49 48 49 49 48 49 49 48 49 49 48 49 49 48 49 49 48 49 49 48 49 49 48 49 49 48 49 49 48 49 49 48 49 49 48 49 49 48 49 49 48 49 49 48 49 49 48 49 49 48 49 49 48 49 49 48 49 49 48 49 49 48 49 49 48 49 49 48 49 49 48 49 49 48 49 49 48 49 49 48 49 49 48 49 49 48 49 49 48 49 49 48 49 49 48 49 49 48 49 49 48 49 49 48 49 49 48 49 49 48 49 49 48 49
49 48 49 49 48 49 49 48 49 49 48 49 49 48 49 49 48 49 49 48 49 49 48 49 49 48 49 49 48 49 49 48 49 49 48 49 49 48 49 49 48 49 49 48 49 49 48 49 49 48 49 49 48 49 49 48 49 49 48 49 49 48 49 49 48 49 49 48 49 49 48 49 49 48 49 49 48 49 49 48 49 49 48 49 49 48 49 49 48 49 49 48 49 49 48 49 49 48 49 49 48 49 49 48 49 49 48 49 49 48 49 49 48 49 49 48 49 49 48 49 49 48 49 49 48 49 49 48 49 49 48 49 49 48 49 49 48 49 49 48 49 49 48 49 49 48 49 49 48 49 49 48 49 49 48 49 49 48 49 49 48 49 49 48 49 49 48 49 49 48 49 49 48 49 49 48 49 49 48 49 49 48 49 49 48 49 49 48 49 49 48 49 49 48 49 49 48 49 49 48 49 49 48 49 49 48 49 49 48 49 49 48 49 49 48 49 49 48 49 49 48 49 49 48 49 49 48 49 49 48 49 49 48 49 49 48 49 49 48 49 49 48 49 49 48 49 49 48 49 49 48 49 49 48 49 49 48 49 49 48 49 49 48 49 49 48 49 49 48 49 49 48 49 49 48 49 49 48 49 49 48 49 49 48 49 49 48 49 49 48 49 49 48 49 49 48 49 49 48 49 49 48 49 49 48 49 49 48 49 49 48 49 49 48 49 49 48 49 49 48 49 49 48 49 49 48 49 49 48 49 49 48 49 49 48 49 49 48 49 49 48 49 49 48 49 49 48 49 49 48 49 49 48 49 49 48 49 49 48 49 49 48 49 49 48 49 49 48 49 49 48 49 49 48 49 49 48 49 49 48 49 49 48 49
49 48 49 49 48 49 49 48 49 49 48 49 49 48 49 49 48 49 49 48 49 49 48 49 49 48 49 49 48 49 49 48 49 49 48 49 49 48 49 49 48 49 49 48 49 49 48 49 49 48 49 49 48 49 49 48 49 49 48 49 49 48 49 49 48 49 49 48 49 49 48 49 49 48 49 49 48 49 49 48 49 49 48 49 49 48 49 49 48 49 49 48 49 49 48 49 49 48 49 49 48 49 49 48 49 49 48 49 49 48 49 49 48 49 49 48 49 49 48 49 49 48 49 49 48 49 49 48 49 49 48 49 49 48 49 49 48 49 49 48 49 49 48 49 49 48 49 49 48 49 49 48 49 49 48 49 49 48 49 49 48 49 49 48 49 49 48 49 49 48 49 49 48 49 49 48 49 49 48 49 49 48 49 49 48 49 49 48 49 49 48 49 49 48 49 49 48 49 49 48 49 49 48 49 49 48 49 49 48 49 49 48 49 49 48 49 49 48 49 49 48 49 49 48 49 49 48 49 49 48 49 49 48 49 49 48 49 49 48 49 49 48 49 49 48 49 49 48 49 49 48 49 49 48 49 49 48 49 49 48 49 49 48 49 49 48 49 49 48 49 49 48 49 49 48 49 49 48 49 49 48 49 49 48 49 49 48 49 49 48 49 49 48 49 49 48 49 49 48 49 49 48 49 49 48 49 49 48 49 49 48 49 49 48 49 49 48 49 49 48 49 49 48 49 49 48 49 49 48 49 49 48 49 49 48 49 49 48 49 49 48 49 49 48 49 49 48 49 49 48 49 49 48 49 49 48 49 49 48 49 49 48 49 49 48 49 49 48 49 49 48 49 49 48 49 49 48 49 49 48 49 49 48 49
49 48 49 49 48 49 49 48 49 49 48 49 49 48 49 49 48 49 49 48 49 49 48 49 49 48 49 49 48 49 49 48 49 49 48 49 49 48 49 49 48 49 49 48 49 49 48 49 49 48 49 49 48 49 49 48 49 49 48 49 49 48 49 49 48 49 49 48 49 49 48 49 49 48 49 49 48 49 49 48 49 49 48 49 49 48 49 49 48 49 49 48 49 49 48 49 49 48 49 49 48 49 49 48 49 49 48 49 49 48 49 49 48 49 49 48 49 49 48 49 49 48 49 49 48 49 49 48 49 49 48 49 49 48 49 49 48 49 49 48 49 49 48 49 49 48 49 49 48 49 49 48 49 49 48 49 49 48 49 49 48 49 49 48 49 49 48 49 49 48 49 49 48 49 49 48 49 49 48 49 49 48 49 49 48 49 49 48 49 49 48 49 49 48 49 49 48 49 49 48 49 49 48 49 49 48 49 49 48 49 49 48 49 49 48 49 49 48 49 49 48 49 49 48 49 49 48 49 49 48 49 49 48 49 49 48 49 49 48 49 49 48 49 49 48 49 49 48 49 49 48 49 49 48 49 49 48 49 49 48 49 49 48 49 49 48 49 49 48 49 49 48 49 49 48 49 49 48 49 49 48 49 49 48 49 49 48 49 49 48 49 49 48 49 49 48 49 49 48 49 49 48 49 49 48 49 49 48 49 49 48 49 49 48 49 49 48 49 49 48 49 49 48 49 49 48 49 49 48 49 49 48 49 49 48 49 49 48 49 49 48 49 49 48 49 49 48 49 49 48 49 49 48 49 49 48 49 49 48 49 49 48 49 49 48 49 49 48 49 49 48 49 49 48 49 49 48 49 49 48 49 49 48 49
49 48 49 49 48 49 49 48 49 49 48 49 49 48 49 49 48 49 49 48 49 49 48 49 49 48 49 49 48 49 49 48 49 49 48 49 49 48 49 49 48 49 49 48 49 49 48 49 49 48 49 49 48 49 49 48 49 49 48 49 49 48 49 49 48 49 49 48 49 49 48 49 49 48 49 49 48 49 49 48 49 49 48 49 49 48 49 49 48 49 49 48 49 49 48 49 49 48 49 49 48 49 49 48 49 49 48 49 49 48 49 49 48 49 49 48 49 49 48 49 49 48 49 49 48 49 49 48 49 49 48 49 49 48 49 49 48 49 49 48 49 49 48 49 49 48 49 49 48 49 49 48 49 49 48 49 49 48 49 49 48 49 49 48 49 49 48 49 49 48 49 49 48 49 49 48 49 49 48 49 49 48 49 49 48 49 49 48 49 49 48 49 49 48 49 49 48 49 49 48 49 49 48 49 49 48 49 49 48 49 49 48 49 49 48 49 49 48 49 49 48 49 49 48 49 49 48 49 49 48 49 49 48 49 49 48 49 49 48 49 49 48 49 49 48 49 49 48 49 49 48 49 49 48 49 49 48 49 49 48 49 49 48 49 49 48 49 49 48 49 49 48 49 49 48 49 49 48 49 49 48 49 49 48 49 49 48 49 49 48 49 49 48 49 49 48 49 49 48 49 49 48 49 49 48 49 49 48 49 49 48 49 49 48 49 49 48 49 49 48 49 49 48 49 49 48 49 49 48 49 49 48 49 49 48 49 49 48 49 49 48 49 49 48 49 49 48 49 49 48 49 49 48 49 49 48 49 49 48 49 49 48 49 49 48 49 49 48 49 49 48 49 49 48 49 49 48 49 49 48 49 49 48 49
49 48 49 49 48 49 49 48 49 49 48 49 49 48 49 49 48 49 49 48 49 49 48 49 49 48 49 49 48 49 49 48 49 49 48 49 49 48 49 49 48 49 49 48 49 49 48 49 49 48 49 49 48 49 49 48 49 49 48 49 49 48 49 49 48 49 49 48 49 49 48 49 49 48 49 49 48 49 49 48 49 49 48 49 49 48 49 49 48 49 49 48 49 49 48 49 49 48 49 49 48 49 49 48 49 49 48 49 49 48 49 49 48 49 49 48 49 49 48 49 49 48 49 49 48 49 49 48 49 49 48 49 49 48 49 49 48 49 49 48 49 49 48 49 49 48 49 49 48 49 49 48 49 49 48 49 49 48 49 49 48 49 49 48 49 49 48 49 49 48 49 49 48 49 49 48 49 49 48 49 49 48 49 49 48 49 49 48 49 49 48 49 49 48 49 49 48 49 49 48 49 49 48 49 49 48 49 49 48 49 49 48 49 49 48 49 49 48 49 49 48 49 49 48 49 49 48 49 49 48 49 49 48 49 49 48 49 49 48 49 49 48 49 49 48 49 49 48 49 49 48 49 49 48 49 49 48 49 49 48 49 49 48 49 49 48 49 49 48 49 49 48 49 49 48 49 49 48 49 49 48 49 49 48 49 49 48 49 49 48 49 49 48 49 49 48 49 49 48 49 49 48 49 49 48 49 49 48 49 49 48 49 49 48 49 49 48 49 49 48 49 49 48 49 49 48 49 49 48 49 49 48 49 49 48 49 49 48 49 49 48 49 49 48 49 49 48 49 49 48 49 49 48 49 49 48 49 49 48 49 49 48 49 49 48 49 49 48 49 49 48 49 49 48 49 49 48 49 49 48 49 49 48 49
49 48 49 49 48 49 49 48 49 49 48 49 49 48 49 49 48 49 49 48 49 49 48 49 49 48 49 49 48 49 49 48 49 49 48 49 49 48 49 49 48 49 49 48 49 49 48 49 49 48 49 49 48 49 49 48 49 49 48 49 49 48 49 49 48 49 49 48 49 49 48 49 49 48 49 49 48 49 49 48 49 49 48 49 49 48 49 49 48 49 49 48 49 49 48 49 49 48 49 49 48 49 49 48 49 49 48 49 49 48 49 49 48 49 49 48 49 49 48 49 49 48 49 49 48 49 49 48 49 49 48 49 49 48 49 49 48 49 49 48 49 49 48 49 49 48 49 49 48 49 49 48 49 49 48 49 49 48 49 49 48 49 49 48 49 49 48 49 49 48 49 49 48 49 49 48 49 49 48 49 49 48 49 49 48 49 49 48 49 49 48 49 49 48 49 49 48 49 49 48 49 49 48 49 49 48 49 49 48 49 49 48 49 49 48 49 49 48 49 49 48 49 49 48 49 49 48 49 49 48 49 49 48 49 49 48 49 49 48 49 49 48 49 49 48 49 49 48 49 49 48 49 49 48 49 49 48 49 49 48 49 49 48 49 49 48 49 49 48 49 49 48 49 49 48 49 49 48 49 49 48 49 49 48 49 49 48 49 49 48 49 49 48 49 49 48 49 49 48 49 49 48 49 49 48 49 49 48 49 49 48 49 49 48 49 49 48 49 49 48 49 49 48 49 49 48 49 49 48 49 49 48 49 49 48 49 49 48 49 49 48 49 49 48 49 49 48 49 49 48 49 49 48 49 49 48 49 49 48 49 49 48 49 49 48 49 49 48 49 49 48 49 49 48 49 49 48 49 49 48 49 49 48 49
49 48 49 49 48 49 49 48 49 49 48 49 49 48 49 49 48 49 49 48 49 49 48 49 49 48 49 49 48 49 49 48 49 49 48 49 49 48 49 49 48 49 49 48 49 49 48 49 49 48 49 49 48 49 49 48 49 49 48 49 49 48 49 49 48 49 49 48 49 49 48 49 49 48 49 49 48 49 49 48 49 49 48 49 49 48 49 49 48 49 49 48 49 49 48 49 49 48 49 49 48 49 49 48 49 49 48 49 49 48 49 49 48 49 49 48 49 49 48 49 49 48 49 49 48 49 49 48 49 49 48 49 49 48 49 49 48 49 49 48 49 49 48 49 49 48 49 49 48 49 49 48 49 49 48 49 49 48 49 49 48 49 49 48 49 49 48 49 49 48 49 49 48 49 49 48 49 49 48 49 49 48 49 49 48 49 49 48 49 49 48 49 49 48 49 49 48 49 49 48 49 49 48 49 49 48 49 49 48 49 49 48 49 49 48 49 49 48 49 49 48 49 49 48 49 49 48 49 49 48 49 49 48 49 49 48 49 49 48 49 49 48 49 49 48 49 49 48 49 49 48 49 49 48 49 49 48 49 49 48 49 49 48 49 49 48 49 49 48 49 49 48 49 49 48 49 49 48 49 49 48 49 49 48 49 49 48 49 49 48 49 49 48 49 49 48 49 49 48 49 49 48 49 49 48 49 49 48 49 49 48 49 49 48 49 49 48 49 49 48 49 49 48 49 49 48 49 49 48 49 49 48 49 49 48 49 49 48 49 49 48 49 49 48 49 49 48 49 49 48 49 49 48 49 49 48 49 49 48 49 49 48 49 49 48 49 49 48 49 49 48 49 49 48 49 49 48 49 49 48 49 49 48 49
49 48 49 49 48 49 49 48 49 49 48 49 49 48 49 49 48 49 49 48 49 49 48 49 49 48 49 49 48 49 49 48 49 49 48 49 49 48 49 49 48 49 49 48 49 49 48 49 49 48 49 49 48 49 49 48 49 49 48 49 49 48 49 49 48 49 49 48 49 49 48 49 49 48 49 49 48 49 49 48 49 49 48 49 49 48 49 49 48 49 49 48 49 49 48 49 49 48 49 49 48 49 49 48 49 49 48 49 49 48 49 49 48 49 49 48 49 49 48 49 49 48 49 49 48 49 49 48 49 49 48 49 49 48 49 49 48 49 49 48 49 49 48 49 49 48 49 49 48 49 49 48 49 49 48 49 49 48 49 49 48 49 49 48 49 49 48 49 49 48 49 49 48 49 49 48 49 49 48 49 49 48 49 49 48 49 49 48 49 49 48 49 49 48 49 49 48 49 49 48 49 49 48 49 49 48 49 49 48 49 49 48 49 49 48 49 49 48 49 49 48 49 49 48 49 49 48 49 49 48 49 49 48 49 49 48 49 49 48 49 49 48 49 49 48 49 49 48 49 49 48 49 49 48 49 49 48 49 49 48 49 49 48 49 49 48 49 49 48 49 49 48 49 49 48 49 49 48 49 49 48 49 49 48 49 49 48 49 49 48 49 49 48 49 49 48 49 49 48 49 49 48 49 49 48 49 49 48 49 49 48 49 49 48 49 49 48 49 49 48 49 49 48 49 49 48 49 49 48 49 49 48 49 49 48 49 49 48 49 49 48 49 49 48 49 49 48 49 49 48 49 49 48 49 49 48 49 49 48 49 49 48 49 49 48 49 49 48 49 49 48 49 49 48 49 49 48 49 49 48 49 49 48 49
49 48 49 49 48 49 49 48 49 49 48 49 49 48 49 49 48 49 49 48 49 49 48 49 49 48 49 49 48 49 49 48 49 49 48 49 49 48 49 49 48 49 49 48 49 49 48 49 49 48 49 49 48 49 49 48 49 49 48 49 49 48 49 49 48 49 49 48 49 49 48 49 49 48 49 49 48 49 49 48 49 49 48 49 49 48 49 49 48 49 49 48 49 49 48 49 49 48 49 49 48 49 49 48 49 49 48 49 49 48 49 49 48 49 49 48 49 49 48 49 49 48 49 49 48 49 49 48 49 49 48 49 49 48 49 49 48 49 49 48 49 49 48 49 49 48 49 49 48 49 49 48 49 49 48 49 49 48 49 49 48 49 49 48 49 49 48 49 49 48 49 49 48 49 49 48 49 49 48 49 49 48 49 49 48 49 49 48 49 49 48 49 49 48 49 49 48 49 49 48 49 49 48 49 49 48 49 49 48 49 49 48 49 49 48 49 49 48 49 49 48 49 49 48 49 49 48 49 49 48 49 49 48 49 49 48 49 49 48 49 49 48 49 49 48 49 49 48 49 49 48 49 49 48 49 49 48 49 49 48 49 49 48 49 49 48 49 49 48 49 49 48 49 49 48 49 49 48 49 49 48 49 49 48 49 49 48 49 49 48 49 49 48 49 49 48 49 49 48 49 49 48 49 49 48 49 49 48 49 49 48 49 49 48 49 49 48 49 49 48 49 49 48 49 49 48 49 49 48 49 49 48 49 49 48 49 49 48 49 49 48 49 49 48 49 49 48 49 49 48 49 49 48 49 49 48 49 49 48 49 49 48 49 49 48 49 49 48 49 49 48 49 49 48 49 49 48 49 49 48 49 49 48 49
49 48 49 49 48 49 49 48 49 49 48 49 49 48 49 49 48 49 49 48 49 49 48 49 49 48 49 49 48 49 49 48 49 49 48 49 49 48 49 49 48 49 49 48 49 49 48 49 49 48 49 49 48 49 49 48 49 49 48 49 49 48 49 49 48 49 49 48 49 49 48 49 49 48 49 49 48 49 49 48 49 49 48 49 49 48 49 49 48 49 49 48 49 49 48 49 49 48 49 49 48 49 49 48 49 49 48 49 49 48 49 49 48 49 49 48 49 49 48 49 49 48 49 49 48 49 49 48 49 49 48 49 49 48 49 49 48 49 49 48 49 49 48 49 49 48 49 49 48 49 49 48 49 49 48 49 49 48 49 49 48 49 49 48 49 49 48 49 49 48 49 49 48 49 49 48 49 49 48 49 49 48 49 49 48 49 49 48 49 49 48 49 49 48 49 49 48 49 49 48 49 49 48 49 49 48 49 49 48 49 49 48 49 49 48 49 49 48 49 49 48 49 49 48 49 49 48 49 49 48 49 49 48 49 49 48 49 49 48 49 49 48 49 49 48 49 49 48 49 49 48 49 49 48 49 49 48 49 49 48 49 49 48 49 49 48 49 49 48 49 49 48 49 49 48 49 49 48 49 49 48 49 49 48 49 49 48 49 49 48 49 49 48 49 49 48 49 49 48 49 49 48 49 49 48 49 49 48 49 49 48 49 49 48 49 49 48 49 49 48 49 49 48 49 49 48 49 49 48 49 49 48 49 49 48 49 49 48 49 49 48 49 49 48 49 49 48 49 49 48 49 49 48 49 49 48 49 49 48 49 49 48 49 49 48 49 49 48 49 49 48 49 49 48 49 49 48 49 49 48 49 49 48 49
49 48 49 49 48 49 49 48 49 49 48 49 49 48 49 49 48 49 49 48 49 49 48 49 49 48 49 49 48 49 49 48 49 49 48 49 49 48 49 49 48 49 49 48 49 49 48 49 49 48 49 49 48 49 49 48 49 49 48 49 49 48 49 49 48 49 49 48 49 49 48 49 49 48 49 49 48 49 49 48 49 49 48 49 49 48 49 49 48 49 49 48 49 49 48 49 49 48 49 49 48 49 49 48 49 49 48 49 49 48 49 49 48 49 49 48 49 49 48 49 49 48 49 49 48 49 49 48 49 49 48 49 49 48 49 49 48 49 49 48 49 49 48 49 49 48 49 49 48 49 49 48 49 49 48 49 49 48 49 49 48 49 49 48 49 49 48 49 49 48 49 49 48 49 49 48 49 49 48 49 49 48 49 49 48 49 49 48 49 49 48 49 49 48 49 49 48 49 49 48 49 49 48 49 49 48 49 49 48 49 49 48 49 49 48 49 49 48 49 49 48 49 49 48 49 49 48 49 49 48 49 49 48 49 49 48 49 49 48 49 49 48 49 49 48 49 49 48 49 49 48 49 49 48 49 49 48 49 49 48 49 49 48 49 49 48 49 49 48 49 49 48 49 49 48 49 49 48 49 49 48 49 49 48 49 49 48 49 49 48 49 49 48 49 49 48 49 49 48 49 49 48 49 49 48 49 49 48 49 49 48 49 49 48 49 49 48 49 49 48 49 49 48 49 49 48 49 49 48 49 49 48 49 49 48 49 49 48 49 49 48 49 49 48 49 49 48 49 49 48 49 49 48 49 49 48 49 49 48 49 49 48 49 49 48 49 49 48 49 49 48 49 49 48 49 49 48 49 49 48 49 49 48 49
49 48 49 49 48 49 49 48 49 49 48 49 49 48 49 49 48 49 49 48 49 49 48 49 49 48 49 49 48 49 49 48 49 49 48 49 49 48 49 49 48 49 49 48 49 49 48 49 49 48 49 49 48 49 49 48 49 49 48 49 49 48 49 49 48 49 49 48 49 49 48 49 49 48 49 49 48 49 49 48 49 49 48 49 49 48 49 49 48 49 49 48 49 49 48 49 49 48 49 49 48 49 49 48 49 49 48 49 49 48 49 49 48 49 49 48 49 49 48 49 49 48 49 49 48 49 49 48 49 49 48 49 49 48 49 49 48 49 49 48 49 49 48 49 49 48 49 49 48 49 49 48 49 49 48 49 49 48 49 49 48 49 49 48 49 49 48 49 49 48 49 49 48 49 49 48 49 49 48 49 49 48 49 49 48 49 49 48 49 49 48 49 49 48 49 49 48 49 49 48 49 49 48 49 49 48 49 49 48 49 49 48 49 49 48 49 49 48 49 49 48 49 49 48 49 49 48 49 49 48 49 49 48 49 49 48 49 49 48 49 49 48 49 49 48 49 49 48 49 49 48 49 49 48 49 49 48 49 49 48 49 49 48 49 49 48 49 49 48 49 49 48 49 49 48 49 49 48 49 49 48 49 49 48 49 49 48 49 49 48 49 49 48 49 49 48 49 49 48 49 49 48 49 49 48 49 49 48 49 49 48 49 49 48 49 49 48 49 49 48 49 49 48 49 49 48 49 49 48 49 49 48 49 49 48 49 49 48 49 49 48 49 49 48 49 49 48 49 49 48 49 49 48 49 49 48 49 49 48 49 49 48 49 49 48 49 49 48 49 49 48 49 49 48 49 49 48 49 49 48 49 49 48 49
49 48 49 49 48 49 49 48 49 49 48 49 49 48 49 49 48 49 49 48 49 49 48 49 49 48 49 49 48 49 49 48 49 49 48 49 49 48 49 49 48 49 49 48 49 49 48 49 49 48 49 49 48 49 49 48 49 49 48 49 49 48 49 49 48 49 49 48 49 49 48 49 49 48 49 49 48 49 49 48 49 49 48 49 49 48 49 49 48 49 49 48 49 49 48 49 49 48 49 49 48 49 49 48 49 49 48 49 49 48 49 49 48 49 49 48 49 49 48 49 49 48 49 49 48 49 49 48 49 49 48 49 49 48 49 49 48 49 49 48 49 49 48 49 49 48 49 49 48 49 49 48 49 49 48 49 49 48 49 49 48 49 49 48 49 49 48 49 49 48 49 49 48 49 49 48 49 49 48 49 49 48 49 49 48 49 49 48 49 49 48 49 49 48 49 49 48 49 49 48 49 49 48 49 49 48 49 49 48 49 49 48 49 49 48 49 49 48 49 49 48 49 49 48 49 49 48 49 49 48 49 49 48 49 49 48 49 49 48 49 49 48 49 49 48 49 49 48 49 49 48 49 49 48 49 49 48 49 49 48 49 49 48 49 49 48 49 49 48 49 49 48 49 49 48 49 49 48 49 49 48 49 49 48 49 49 48 49 49 48 49 49 48 49 49 48 49 49 48 49 49 48 49 49 48 49 49 48 49 49 48 49 49 48 49 49 48 49 49 48 49 49 48 49 49 48 49 49 48 49 49 48 49 49 48 49 49 48 49 49 48 49 49 48 49 49 48 49 49 48 49 49 48 49 49 48 49 49 48 49 49 48 49 49 48 49 49 48 49 49 48 49 49 48 49 49 48 49 49 48 49 49 48 49
49 48 49 49 48 49 49 48 49 49 48 49 49 48 49 49 48 49 49 48 49 49 48 49 49 48 49 49 48 49 49 48 49 49 48 49 49 48 49 49 48 49 49 48 49 49 48 49 49 48 49 49 48 49 49 48 49 49 48 49 49 48 49 49 48 49 49 48 49 49 48 49 49 48 49 49 48 49 49 48 49 49 48 49 49 48 49 49 48 49 49 48 49 49 48 49 49 48 49 49 48 49 49 48 49 49 48 49 49 48 49 49 48 49 49 48 49 49 48 49 49 48 49 49 48 49 49 48 49 49 48 49 49 48 49 49 48 49 49 48 49 49 48 49 49 48 49 49 48 49 49 48 49 49 48 49 49 48 49 49 48 49 49 48 49 49 48 49 49 48 49 49 48 49 49 48 49 49 48 49 49 48 49 49 48 49 49 48 49 49 48 49 49 48 49 49 48 49 49 48 49 49 48 49 49 48 49 49 48 49 49 48 49 49 48 49 49 48 49 49 48 49 49 48 49 49 48 49 49 48 49 49 48 49 49 48 49 49 48 49 49 48 49 49 48 49 49 48 49 49 48 49 49 48 49 49 48 49 49 48 49 49 48 49 49 48 49 49 48 49 49 48 49 49 48 49 49 48 49 49 48 49 49 48 49 49 48 49 49 48 49 49 48 49 49 48 49 49 48 49 49 48 49 49 48 49 49 48 49 49 48 49 49 48 49 49 48 49 49 48 49 49 48 49 49 48 49 49 48 49 49 48 49 49 48 49 49 48 49 49 48 49 49 48 49 49 48 49 49 48 49 49 48 49 49 48 49 49 48 49 49 48 49 49 48 49 49 48 49 49 48 49 49 48 49 49 48 49 49 48 49 49 48 49
49 48 49 49 48 49 49 48 49 49 48 49 49 48 49 49 48 49 49 48 49 49 48 49 49 48 49 49 48 49 49 48 49 49 48 49 49 48 49 49 48 49 49 48 49 49 48 49 49 48 49 49 48 49 49 48 49 49 48 49 49 48 49 49 48 49 49 48 49 49 48 49 49 48 49 49 48 49 49 48 49 49 48 49 49 48 49 49 48 49 49 48 49 49 48 49 49 48 49 49 48 49 49 48 49 49 48 49 49 48 49 49 48 49 49 48 49 49 48 49 49 48 49 49 48 49 49 48 49 49 48 49 49 48 49 49 48 49 49 48 49 49 48 49 49 48 49 49 48 49 49 48 49 49 48 49 49 48 49 49 48 49 49 48 49 49 48 49 49 48 49 49 48 49 49 48 49 49 48 49 49 48 49 49 48 49 49 48 49 49 48 49 49 48 49 49 48 49 49 48 49 49 48 49 49 48 49 49 48 49 49 48 49 49 48 49 49 48 49 49 48 49 49 48 49 49 48 49 49 48 49 49 48 49 49 48 49 49 48 49 49 48 49 49 48 49 49 48 49 49 48 49 49 48 49 49 48 49 49 48 49 49 48 49 49 48 49 49 48 49 49 48 49 49 48 49 49 48 49 49 48 49 49 48 49 49 48 49 49 48 49 49 48 49 49 48 49 49 48 49 49 48 49 49 48 49 49 48 49 49 48 49 49 48 49 49 48 49 49 48 49 49 48 49 49 48 49 49 48 49 49 48 49 49 48 49 49 48 49 49 48 49 49 48 49 49 48 49 49 48 49 49 48 49 49 48 49 49 48 49 49 48 49 49 48 49 49 48 49 49 48 49 49 48 49 49 48 49 49 48 49 49 48 49
49 48 49 49 48 49 49 48 49 49 48 49 49 48 49 49 48 49 49 48 49 49 48 49 49 48 49 49 48 49 49 48 49 49 48 49 49 48 49 49 48 49 49 48 49 49 48 49 49 48 49 49 48 49 49 48 49 49 48 49 49 48 49 49 48 49 49 48 49 49 48 49 49 48 49 49 48 49 49 48 49 49 48 49 49 48 49 49 48 49 49 48 49 49 48 49 49 48 49 49 48 49 49 48 49 49 48 49 49 48 49 49 48 49 49 48 49 49 48 49 49 48 49 49 48 49 49 48 49 49 48 49 49 48 49 49 48 49 49 48 49 49 48 49 49 48 49 49 48 49 49 48 49 49 48 49 49 48 49 49 48 49 49 48 49 49 48 49 49 48 49 49 48 49 49 48 49 49 48 49 49 48 49 49 48 49 49 48 49 49 48 49 49 48 49 49 48 49 49 48 49 49 48 49 49 48 49 49 48 49 49 48 49 49 48 49 49 48 49 49 48 49 49 48 49 49 48 49 49 48 49 49 48 49 49 48 49 49 48 49 49 48 49 49 48 49 49 48 49 49 48 49 49 48 49 49 48 49 49 48 49 49 48 49 49 48 49 49 48 49 49 48 49 49 48 49 49 48 49 49 48 49 49 48 49 49 48 49 49 48 49 49 48 49 49 48 49 49 48 49 49 48 49 49 48 49 49 48 49 49 48 49 49 48 49 49 48 49 49 48 49 49 48 49 49 48 49 49 48 49 49 48 49 49 48 49 49 48 49 49 48 49 49 48 49 49 48 49 49 48 49 49 48 49 49 48 49 49 48 49 49 48 49 49 48 49 49 48 49 49 48 49 49 48 49 49 48 49 49 48 49 49 48 49
49 48 49 49 48 49 49 48 49 49 48 49 49 48 49 49 48 49 49 48 49 49 48 49 49 48 49 49 48 49 49 48 49 49 48 49 49 48 49 49 48 49 49 48 49 49 48 49 49 48 49 49 48 49 49 48 49 49 48 49 49 48 49 49 48 49 49 48 49 49 48 49 49 48 49 49 48 49 49 48 49 49 48 49 49 48 49 49 48 49 49 48 49 49 48 49 49 48 49 49 48 49 49 48 49 49 48 49 49 48 49 49 48 49 49 48 49 49 48 49 49 48 49 49 48 49 49 48 49 49 48 49 49 48 49 49 48 49 49 48 49 49 48 49 49 48 49 49 48 49 49 48 49 49 48 49 49 48 49 49 48 49 49 48 49 49 48 49 49 48 49 49 48 49 49 48 49 49 48 49 49 48 49 49 48 49 49 48 49 49 48 49 49 48 49 49 48 49 49 48 49 49 48 49 49 48 49 49 48 49 49 48 49 49 48 49 49 48 49 49 48 49 49 48 49 49 48 49 49 48 49 49 48 49 49 48 49 49 48 49 49 48 49 49 48 49 49 48 49 49 48 49 49 48 49 49 48 49 49 48 49 49 48 49 49 48 49 49 48 49 49 48 49 49 48 49 49 48 49 49 48 49 49 48 49 49 48 49 49 48 49 49 48 49 49 48 49 49 48 49 49 48 49 49 48 49 49 48 49 49 48 49 49 48 49 49 48 49 49 48 49 49 48 49 49 48 49 49 48 49 49 48 49 49 48 49 49 48 49 49 48 49 49 48 49 49 48 49 49 48 49 49 48 49 49 48 49 49 48 49 49 48 49 49 48 49 49 48 49 49 48 49 49 48 49 49 48 49 49 48 49 49 48 49
49 48 49 49 48 49 49 48 49 49 48 49 49 48 49 49 48 49 49 48 49 49 48 49 49 48 49 49 48 49 49 48 49 49 48 49 49 48 49 49 48 49 49 48 49 49 48 49 49 48 49 49 48 49 49 48 49 49 48 49 49 48 49 49 48 49 49 48 49 49 48 49 49 48 49 49 48 49 49 48 49 49 48 49 49 48 49 49 48 49 49 48 49 49 48 49 49 48 49 49 48 49 49 48 49 49 48 49 49 48 49 49 48 49 49 48 49 49 48 49 49 48 49 49 48 49 49 48 49 49 48 49 49 48 49 49 48 49 49 48 49 49 48 49 49 48 49 49 48 49 49 48 49 49 48 49 49 48 49 49 48 49 49 48 49 49 48 49 49 48 49 49 48 49 49 48 49 49 48 49 49 48 49 49 48 49 49 48 49 49 48 49 49 48 49 49 48 49 49 48 49 49 48 49 49 48 49 49 48 49 49 48 49 49 48 49 49 48 49 49 48 49 49 48 49 49 48 49 49 48 49 49 48 49 49 48 49 49 48 49 49 48 49 49 48 49 49 48 49 49 48 49 49 48 49 49 48 49 49 48 49 49 48 49 49 48 49 49 48 49 49 48 49 49 48 49 49 48 49 49 48 49 49 48 49 49 48 49 49 48 49 49 48 49 49 48 49 49 48 49 49 48 49 49 48 49 49 48 49 49 48 49 49 48 49 49 48 49 49 48 49 49 48 49 49 48 49 49 48 49 49 48 49 49 48 49 49 48 49 49 48 49 49 48 49 49 48 49 49 48 49 49 48 49 49 48 49 49 48 49 49 48 49 49 48 49 49 48 49 49 48 49 49 48 49 49 48 49 49 48 49 49 48 49
49 48 49 49 48 49 49 48 49 49 48 49 49 48 49 49 48 49 49 48 49 49 48 49 49 48 49 49 48 49 49 48 49 49 48 49 49 48 49 49 48 49 49 48 49 49 48 49 49 48 49 49 48 49 49 48 49 49 48 49 49 48 49 49 48 49 49 48 49 49 48 49 49 48 49 49 48 49 49 48 49 49 48 49 49 48 49 49 48 49 49 48 49 49 48 49 49 48 49 49 48 49 49 48 49 49 48 49 49 48 49 49 48 49 49 48 49 49 48 49 49 48 49 49 48 49 49 48 49 49 48 49 49 48 49 49 48 49 49 48 49 49 48 49 49 48 49 49 48 49 49 48 49 49 48 49 49 48 49 49 48 49 49 48 49 49 48 49 49 48 49 49 48 49 49 48 49 49 48 49 49 48 49 49 48 49 49 48 49 49 48 49 49 48 49 49 48 49 49 48 49 49 48 49 49 48 49 49 48 49 49 48 49 49 48 49 49 48 49 49 48 49 49 48 49 49 48 49 49 48 49 49 48 49 49 48 49 49 48 49 49 48 49 49 48 49 49 48 49 49 48 49 49 48 49 49 48 49 49 48 49 49 48 49 49 48 49 49 48 49 49 48 49 49 48 49 49 48 49 49 48 49 49 48 49 49 48 49 49 48 49 49 48 49 49 48 49 49 48 49 49 48 49 49 48 49 49 48 49 49 48 49 49 48 49 49 48 49 49 48 49 49 48 49 49 48 49 49 48 49 49 48 49 49 48 49 49 48 49 49 48 49 49 48 49 49 48 49 49 48 49 49 48 49 49 48 49 49 48 49 49 48 49 49 48 49 49 48 49 49 48 49 49 48 49 49 48 49 49 48 49 49 48 49
49 48 49 49 48 49 49 48 49 49 48 49 49 48 49 49 48 49 49 48 49 49 48 49 49 48 49 49 48 49 49 48 49 49 48 49 49 48 49 49 48 49 49 48 49 49 48 49 49 48 49 49 48 49 49 48 49 49 48 49 49 48 49 49 48 49 49 48 49 49 48 49 49 48 49 49 48 49 49 48 49 49 48 49 49 48 49 49 48 49 49 48 49 49 48 49 49 48 49 49 48 49 49 48 49 49 48 49 49 48 49 49 48 49 49 48 49 49 48 49 49 48 49 49 48 49 49 48 49 49 48 49 49 48 49 49 48 49 49 48 49 49 48 49 49 48 49 49 48 49 49 48 49 49 48 49 49 48 49 49 48 49 49 48 49 49 48 49 49 48 49 49 48 49 49 48 49 49 48 49 49 48 49 49 48 49 49 48 49 49 48 49 49 48 49 49 48 49 49 48 49 49 48 49 49 48 49 49 48 49 49 48 49 49 48 49 49 48 49 49 48 49 49 48 49 49 48 49 49 48 49 49 48 49 49 48 49 49 48 49 49 48 49 49 48 49 49 48 49 49 48 49 49 48 49 49 48 49 49 48 49 49 48 49 49 48 49 49 48 49 49 48 49 49 48 49 49 48 49 49 48 49 49 48 49 49 48 49 49 48 49 49 48 49 49 48 49 49 48 49 49 48 49 49 48 49 49 48 49 49 48 49 49 48 49 49 48 49 49 48 49 49 48 49 49 48 49 49 48 49 49 48 49 49 48 49 49 48 49 49 48 49 49 48 49 49 48 49 49 48 49 49 48 49 49 48 49 49 48 49 49 48 49 49 48 49 49 48 49 49 48 49 49 48 49 49 48 49 49 48 49 49 48 49
49 48 49 49 48 49 49 48 49 49 48 49 49 48 49 49 48 49 49 48 49 49 48 49 49 48 49 49 48 49 49 48 49 49 48 49 49 48 49 49 48 49 49 48 49 49 48 49 49 48 49 49 48 49 49 48 49 49 48 49 49 48 49 49 48 49 49 48 49 49 48 49 49 48 49 49 48 49 49 48 49 49 48 49 49 48 49 49 48 49 49 48 49 49 48 49 49 48 49 49 48 49 49 48 49 49 48 49 49 48 49 49 48 49 49 48 49 49 48 49 49 48 49 49 48 49 49 48 49 49 48 49 49 48 49 49 48 49 49 48 49 49 48 49 49 48 49 49 48 49 49 48 49 49 48 49 49 48 49 49 48 49 49 48 49 49 48 49 49 48 49 49 48 49 49 48 49 49 48 49 49 48 49 49 48 49 49 48 49 49 48 49 49 48 49 49 48 49 49 48 49 49 48 49 49 48 49 49 48 49 49 48 49 49 48 49 49 48 49 49 48 49 49 48 49 49 48 49 49 48 49 49 48 49 49 48 49 49 48 49 49 48 49 49 48 49 49 48 49 49 48 49 49 48 49 49 48 49 49 48 49 49 48 49 49 48 49 49 48 49 49 48 49 49 48 49 49 48 49 49 48 49 49 48 49 49 48 49 49 48 49 49 48 49 49 48 49 49 48 49 49 48 49 49 48 49 49 48 49 49 48 49 49 48 49 49 48 49 49 48 49 49 48 49 49 48 49 49 48 49 49 48 49 49 48 49 49 48 49 49 48 49 49 48 49 49 48 49 49 48 49 49 48 49 49 48 49 49 48 49 49 48 49 49 48 49 49 48 49 49 48 49 49 48 49 49 48 49 49 48 49 49 48 49
49 48 49 49 48 49 49 48 49 49 48 49 49 48 49 49 48 49 49 48 49 49 48 49 49 48 49 49 48 49 49 48 49 49 48 49 49 48 49 49 48 49 49 48 49 49 48 49 49 48 49 49 48 49 49 48 49 49 48 49 49 48 49 49 48 49 49 48 49 49 48 49 49 48 49 49 48 49 49 48 49 49 48 49 49 48 49 49 48 49 49 48 49 49 48 49 49 48 49 49 48 49 49 48 49 49 48 49 49 48 49 49 48 49 49 48 49 49 48 49 49 48 49 49 48 49 49 48 49 49 48 49 49 48 49 49 48 49 49 48 49 49 48 49 49 48 49 49 48 49 49 48 49 49 48 49 49 48 49 49 48 49 49 48 49 49 48 49 49 48 49 49 48 49 49 48 49 49 48 49 49 48 49 49 48 49 49 48 49 49 48 49 49 48 49 49 48 49 49 48 49 49 48 49 49 48 49 49 48 49 49 48 49 49 48 49 156 154 156 156 154 156 156 154 156 156 154 156 156 154 156 156 154 156 156 154 156 156 154 156 156 154 156 156 154 156 156 154 156 156 154 156 156 154 156 156 154 156 156 154 156 49 48 49 49 48 49 49 48 49 49 48 49 49 48 49 49 48 49 49 48 49 49 48 49 49 48 49 49 48 49 49 48 49 49 48 49 49 48 49 49 48 49 49 48 49 49 48 49 49 48 49 49 48 49 49 48 49 49 48 49 49 48 49 49 48 49 49 48 49 49 48 49 49 48 49 49 48 49 49 48 49 49 48 49 49 48 49 49 48 49 49 48 49 49 48 49 49 48 49 49 48 49 49 48 49 49 48 49 49 48 49 49 48 49 49 48 49 49 48 49 49 48 49
49 48 49 49 48 49 49 48 49 49 48 49 49 48 49 49 48 49 49 48 49 49 48 49 49 48 49 49 48 49 49 48 49 49 48 49 49 48 49 49 48 49 49 48 49 49 48 49 49 48 49 49 48 49 49 48 49 49 48 49 49 48 49 49 48 49 49 48 49 49 48 49 49 48 49 49 48 49 49 48 49 49 48 49 49 48 49 49 48 49 49 48 49 49 48 49 49 48 49 49 48 49 49 48 49 49 48 49 49 48 49 156 154 156 156 154 156 156 154 156 156 154 156 156 154 156 156 154 156 156 154 156 156 154 156 156 154 156 156 154 156 156 154 156 156 154 156 156 154 156 156 154 156 156 154 156 156 154 156 156 154 156 156 154 156 156 154 156 156 154 156 156 154 156 156 154 156 156 154 156 156 154 156 156 154 156 156 154 156 156 154 156 156 154 156 156 154 156 156 154 156 156 154 156 156 154 156 156 154 156 156 154 156 156 154 156 156 154 156 156 154 156 156 154 156 156 154 156 156 154 156 156 154 156 156 154 156 156 154 156 156 154 156 156 154 156 156 154 156 156 154 156 156 154 156 156 154 156 156 154 156 156 154 156 49 48 49 49 48 49 49 48 49 49 48 49 49 48 49 49 48 49 49 48 49 49 48 49 49 48 49 49 48 49 49 48 49 49 48 49 49 48 49 49 48 49 49 48 49 49 48 49 49 48 49 49 48 49 49 48 49 49 48 49 49 48 49 49 48 49 49 48 49 49 48 49 49 48 49 49 48 49 49 48 49 49 48 49 49 48 49 49 48 49 49 48 49 49 48 49 49 48 49 49 48 49 49 48 49 49 48 49 49 48 49 49 48 49 49 48 49 49 48 49
49 48 49 49 48 49 49 48 49 49 48 49 49 48 49 49 48 49 49 48 49 49 48 49 49 48 49 49 48 49 49 48 49 49 48 49 49 48 49 49 48 49 49 48 49 49 48 49 49 48 49 49 48 49 49 48 49 49 48 49 49 48 49 49 48 49 49 48 49 49 48 49 49 48 49 49 48 49 49 48 49 49 48 49 49 48 49 49 48 49 49 48 49 49 48 49 49 48 49 49 48 49 49 48 49 49 48 49 49 48 49 156 154 156 156 154 156 156 154 156 156 154 156 156 154 156 156 154 156 156 154 156 156 154 156 156 154 156 156 154 156 156 154 156 156 154 156 156 154 156 156 154 156 156 154 156 156 154 156 148 154 156 140 146 148 140 146 148 140 146 148 140 146 148 140 146 148 140 146 148 41 101 107 41 101 107 41 101 107 41 101 107 41 101 107 41 101 107 41 101 107 41 101 107 41 101 107 41 101 107 41 101 107 41 101 107 41 101 107 156 154 156 156 154 156 156 154 156 156 154 156 156 154 156 156 154 156 156 154 156 156 154 156 156 154 156 156 154 156 156 154 156 156 154 156 156 154 156 156 154 156 156 154 156 156 154 156 49 48 49 49 48 49 49 48 49 49 48 49 49 48 49 49 48 49 49 48 49 49 48 49 49 48 49 49 48 49 49 48 49 49 48 49 49 48 49 49 48 49 49 48 49 49 48 49 49 48 49 49 48 49 49 48 49 49 48 49 49 48 49 49 48 49 49 48 49 49 48 49 49 48 49 49 48 49 49 48 49 49 48 49 49 48 49 49 48 49 49 48 49 49 48 49 49 48 49 49 48 49 49 48 49 49 48 49 49 48 49 49 48 49 49 48 49
49 48 49 49 48 49 49 48 49 49 48 49 49 48 49 49 48 49 49 48 49 49 48 49 49 48 49 49 48 49 49 48 49 49 48 49 49 48 49 49 48 49 49 48 49 49 48 49 49 48 49 49 48 49 49 48 49 49 48 49 49 48 49 49 48 49 49 48 49 49 48 49 49 48 49 49 48 49 49 48 49 49 48 49 49 48 49 49 48 49 49 48 49 49 48 49 49 48 49 49 48 49 49 48 49 49 48 49 156 154 156 156 154 156 156 154 156 156 154 156 156 154 156 156 154 156 156 154 156 156 154 156 156 154 156 156 154 156 156 154 156 156 154 156 156 154 156 156 154 156 156 154 156 156 154 156 156 154 156 49 105 115 49 105 115 49 105 115 49 105 115 49 105 115 49 105 115 49 105 115 49 105 115 49 105 115 49 109 115 49 109 115 49 109 115 49 109 115 49 109 115 49 109 115 49 109 115 49 109 115 49 109 115 49 109 115 49 109 115 107 130 132 156 154 156 156 154 156 156 154 156 156 154 156 156 154 156 156 154 156 156 154 156 156 154 156 156 154 156 156 154 156 156 154 156 156 154 156 156 154 156 156 154 156 156 154 156 49 48 49 49 48 49 49 48 49 49 48 49 49 48 49 49 48 49 49 48 49 49 48 49 49 48 49 49 48 49 49 48 49 49 48 49 49 48 49 49 48 49 49 48 49 49 48 49 49 48 49 49 48 49 49 48 49 49 48 49 49 48 49 49 48 49 49 48 49 49 48 49 49 48 49 49 48 49 49 48 49 49 48 49 49 48 49 49 48 49 49 48 49 49 48 49 49 48 49 49 48 49 49 48 49 49 48 49 49 48 49 49 48 49 49 48 49
49 48 49 49 48 49 49 48 49 49 48 49 49 48 49 49 48 49 49 48 49 49 48 49 49 48 49 49 48 49 49 48 49 49 48 49 49 48 49 49 48 49 49 48 49 49 48 49 49 48 49 49 48 49 49 48 49 49 48 49 49 48 49 49 48 49 49 48 49 49 48 49 49 48 49 49 48 49 49 48 49 49 48 49 49 48 49 49 48 49 49 48 49 49 48 49 49 48 49 49 48 49 49 48 49 49 48 49 156 154 156 156 154 156 156 154 156 156 154 156 156 154 156 156 154 156 156 154 156 156 154 156 156 154 156 156 154 156 156 154 156 156 154 156 156 154 156 156 154 156 156 154 156 156 154 156 156 154 156 140 150 148 49 117 123 49 117 123 49 117 123 49 117 123 165 178 181 222 219 222 123 150 156 49 117 123 49 117 123 49 117 123 57 121 123 99 138 148 156 174 181 156 174 181 206 207 206 222 219 222 165 178 181 57 121 123 57 121 123 49 117 123 107 134 140 156 154 156 156 154 156 156 154 156 156 154 156 156 154 156 156 154 156 156 154 156 156 154 156 156 154 156 156 154 156 156 154 156 156 154 156 156 154 156 156 154 156 156 154 156 49 48 49 49 48 49 49 48 49 49 48 49 49 48 49 49 48 49 49 48 49 49 48 49 49 48 49 49 48 49 49 48 49 49 48 49 49 48 49 49 48 49 49 48 49 49 48 49 49 48 49 49 48 49 49 48 49 49 48 49 49 48 49 49 48 49 49 48 49 49 48 49 49 48 49 49 48 49 49 48 49 49 48 49 49 48 49 49 48 49 49 48 49 49 48 49 49 48 49 49 48 49 49 48 49 49 48 49 49 48 49 49 48 49
49 48 49 49 48 49 49 48 49 49 48 49 49 48 49 49 48 49 49 48 49 49 48 49 49 48 49 49 48 49 49 48 49 49 48 49 49 48 49 49 48 49 49 48 49 49 48 49 49 48 49 49 48 49 49 48 49 49 48 49 49 48 49 49 48 49 49 48 49 49 48 49 49 48 49 49 48 49 49 48 49 49 48 49 49 48 49 49 48 49 49 48 49 49 48 49 49 48 49 49 48 49 49 48 49 49 48 49 156 154 156 156 154 156 156 154 156 156 154 156 156 154 156 156 154 156 156 154 156 156 154 156 156 154 156 156 154 156 156 154 156 156 154 156 156 154 156 156 154 156 156 154 156 156 154 156 156 154 156 156 154 156 140 150 148 57 125 132 57 125 132 57 125 132 206 207 214 123 158 165 66 130 132 66 130 132 66 130 140 74 130 140 74 130 140 74 130 140 82 134 140 74 134 140 74 134 140 74 134 140 181 190 189 156 174 181 66 130 140 66 130 132 107 138 140 156 154 156 156 154 156 156 154 156 156 154 156 156 154 156 156 154 156 156 154 156 156 154 156 156 154 156 156 154 156 156 154 156 156 154 156 156 154 156 156 154 156 156 154 156 49 48 49 49 48 49 49 48 49 49 48 49 49 48 49 49 48 49 49 48 49 49 48 49 49 48 49 49 48 49 49 48 49 49 48 49 49 48 49 49 48 49 49 48 49 49 48 49 49 48 49 49 48 49 49 48 49 49 48 49 49 48 49 49 48 49 49 48 49 49 48 49 49 48 49 49 48 49 49 48 49 49 48 49 49 48 49 49 48 49 49 48 49 49 48 49 49 48 49 49 48 49 49 48 49 49 48 49 49 48 49 49 48 49
49 48 49 49 48 49 49 48 49 49 48 49 49 48 49 49 48 49 49 48 49 49 48 49 49 48 49 49 48 49 49 48 49 49 48 49 49 48 49 49 48 49 49 48 49 49 48 49 49 48 49 49 48 49 49 48 49 49 48 49 49 48 49 49 48 49 49 48 49 49 48 49 49 48 49 49 48 49 49 48 49 49 48 49 49 48 49 49 48 49 49 48 49 49 48 49 49 48 49 49 48 49 49 48 49 49 48 49 156 154 156 156 154 156 156 154 156 156 154 156 156 154 156 156 154 156 156 154 156 156 154 156 156 154 156 156 154 156 156 154 156 156 154 156 156 154 156 156 154 156 156 154 156 156 154 156 156 154 156 156 154 156 140 150 156 66 134 140 66 134 140 74 134 140 222 219 222 222 219 222 99 146 148 90 142 148 99 146 148 99 146 148 99 146 156 99 146 156 99 146 156 99 146 148 107 150 156 107 150 156 206 211 214 222 219 222 140 166 173 74 138 148 74 138 140 115 146 148 156 154 156 156 154 156 156 154 156 156 154 156 156 154 156 156 154 156 156 154 156 156 154 156 156 154 156 156 154 156 156 154 156 156 154 156 156 154 156 156 154 156 156 154 156 49 48 49 49 48 49 49 48 49 49 48 49 49 48 49 49 48 49 49 48 49 49 48 49 49 48 49 49 48 49 49 48 49 49 48 49 49 48 49 49 48 49 49 48 49 49 48 49 49 48 49 49 48 49 49 48 49 49 48 49 49 48 49 49 48 49 49 48 49 49 48 49 49 48 49 49 48 49 49 48 49 49 48 49 49 48 49 49 48 49 49 48 49 49 48 49 49 48 49 49 48 49 49 48 49 49 48 49 49 48 49
49 48 49 49 48 49 49 48 49 49 48 49 49 48 49 49 48 49 49 48 49 49 48 49 49 48 49 49 48 49 49 48 49 49 48 49 49 48 49 49 48 49 49 48 49 49 48 49 49 48 49 49 48 49 49 48 49 49 48 49 49 48 49 49 48 49 49 48 49 49 48 49 49 48 49 49 48 49 49 48 49 49 48 49 49 48 49 49 48 49 49 48 49 49 48 49 49 48 49 49 48 49 49 48 49 156 154 156 156 154 156 156 154 156 156 154 156 156 154 156 156 154 156 156 154 156 156 154 156 156 154 156 156 154 156 156 154 156 156 154 156 156 154 156 156 154 156 156 154 156 156 154 156 156 154 156 156 154 156 156 154 156 156 158 156 148 154 156 82 142 148 90 146 156 99 150 156 132 162 165 222 219 222 156 178 181 132 162 165 132 166 173 132 166 173 140 170 173 140 170 173 140 166 173 132 166 173 206 211 214 222 219 222 214 215 214 123 162 165 107 154 156 99 150 156 90 146 156 156 158 156 156 158 156 156 154 156 156 154 156 156 154 156 156 154 156 156 154 156 156 154 156 156 154 156 156 154 156 156 154 156 156 154 156 156 154 156 156 154 156 156 154 156 156 154 156 49 48 49 49 48 49 49 48 49 49 48 49 49 48 49 49 48 49 49 48 49 49 48 49 49 48 49 49 48 49 49 48 49 49 48 49 49 48 49 49 48 49 49 48 49 49 48 49 49 48 49 49 48 49 49 48 49 49 48 49 49 48 49 49 48 49 49 48 49 49 48 49 49 48 49 49 48 49 49 48 49 49 48 49 49 48 49 49 48 49 49 48 49 49 48 49 49 48 49 49 48 49 49 48 49 49 48 49
49 48 49 49 48 49 49 48 49 49 48 49 49 48 49 49 48 49 49 48 49 49 48 49 49 48 49 49 48 49 49 48 49 49 48 49 49 48 49 49 48 49 49 48 49 49 48 49 49 48 49 49 48 49 49 48 49 49 48 49 49 48 49 49 48 49 49 48 49 49 48 49 49 48 49 49 48 49 49 48 49 49 48 49 49 48 49 49 48 49 49 48 49 49 48 49 49 48 49 49 48 49 49 48 49 156 154 156 156 154 156 156 154 156 156 154 156 156 154 156 156 154 156 156 154 156 156 154 156 156 154 156 156 154 156 156 154 156 156 154 156 156 154 156 156 154 156 156 154 156 156 154 156 156 154 156 156 158 156 156 158 156 156 158 156 148 158 156 90 146 156 107 154 165 115 158 165 123 162 165 140 170 173 148 174 181 198 203 206 222 219 222 222 219 222 214 215 214 214 215 214 214 215 214 222 219 222 222 219 222 214 215 214 173 190 198 148 174 181 140 170 173 123 166 173 115 162 165 132 158 165 165 162 165 156 158 156 156 158 156 156 154 156 156 154 156 156 154 156 156 154 156 156 154 156 156 154 156 156 154 156 156 154 156 156 154 156 156 154 156 156 154 156 156 154 156 49 48 49 49 48 49 49 48 49 49 48 49 49 48 49 49 48 49 49 48 49 49 48 49 49 48 49 49 48 49 49 48 49 49 48 49 49 48 49 49 48 49 49 48 49 49 48 49 49 48 49 49 48 49 49 48 49 49 48 49 49 48 49 49 48 49 49 48 49 49 48 49 49 48 49 49 48 49 49 48 49 49 48 49 49 48 49 49 48 49 49 48 49 49 48 49 49 48 49 49 48 49 49 48 49 49 48 49
49 48 49 49 48 49 49 48 49 49 48 49 49 48 49 49 48 49 49 48 49 49 48 49 49 48 49 49 48 49 49 48 49 49 48 49 49 48 49 49 48 49 49 48 49 49 48 49 49 48 49 49 48 49 49 48 49 49 48 49 49 48 49 49 48 49 49 48 49 49 48 49 49 48 49 49 48 49 49 48 49 49 48 49 49 48 49 49 48 49 49 48 49 49 48 49 49 48 49 49 48 49 49 48 49 156 154 156 156 154 156 156 154 156 156 154 156 156 154 156 156 154 156 156 154 156 156 154 156 156 154 156 156 154 156 156 154 156 156 154 156 156 154 156 156 154 156 156 154 156 156 154 156 156 158 156 156 158 156 156 158 156 148 162 165 107 158 165 115 162 165 123 166 173 132 170 173 189 199 198 198 199 206 132 146 148 33 77 82 16 69 74 16 69 74 16 69 74 16 69 74 16 69 74 16 69 74 16 69 74 16 69 74 8 69 74 99 117 115 16 77 82 82 113 115 173 190 198 123 166 173 132 162 165 165 162 165 156 158 156 156 158 156 156 154 156 156 154 156 156 154 156 156 154 156 156 154 156 156 154 156 156 154 156 156 154 156 156 154 156 156 154 156 156 154 156 156 154 156 49 48 49 49 48 49 49 48 49 49 48 49 49 48 49 49 48 49 49 48 49 49 48 49 49 48 49 49 48 49 49 48 49 49 48 49 49 48 49 49 48 49 49 48 49 49 48 49 49 48 49 49 48 49 49 48 49 49 48 49 49 48 49 49 48 49 49 48 49 49 48 49 49 48 49 49 48 49 49 48 49 49 48 49 49 48 49 49 48 49 49 48 49 49 48 49 49 48 49 49 48 49 49 48 49
49 48 49 49 48 49 49 48 49 49 48 49 49 48 49 49 48 49 49 48 49 49 48 49 49 48 49 49 48 49 49 48 49 49 48 49 49 48 49 49 48 49 49 48 49 49 48 49 49 48 49 49 48 49 49 48 49 49 48 49 49 48 49 49 48 49 49 48 49 49 48 49 49 48 49 49 48 49 49 48 49 49 48 49 49 48 49 49 48 49 49 48 49 49 48 49 49 48 49 49 48 49 49 48 49 156 154 156 156 154 156 156 154 156 156 154 156 156 154 156 156 154 156 156 154 156 156 154 156 156 154 156 156 154 156 156 154 156 156 154 156 156 154 156 156 154 156 156 154 156 156 158 156 156 158 156 156 158 156 165 162 165 156 162 165 140 174 181 173 186 189 57 101 107 16 85 90 16 85 90 16 85 90 16 93 99 16 93 99 16 93 99 16 93 99 16 93 99 82 117 123 140 158 156 181 182 189 74 109 115 16 93 99 16 93 99 16 93 99 16 93 99 16 93 99 16 97 107 16 97 107 16 97 107 165 166 165 165 162 165 156 158 156 156 158 156 156 154 156 156 154 156 156 154 156 156 154 156 156 154 156 156 154 156 156 154 156 156 154 156 156 154 156 156 154 156 156 154 156 49 48 49 49 48 49 49 48 49 49 48 49 49 48 49 49 48 49 49 48 49 49 48 49 49 48 49 49 48 49 49 48 49 49 48 49 49 48 49 49 48 49 49 48 49 49 48 49 49 48 49 49 48 49 49 48 49 49 48 49 49 48 49 49 48 49 49 48 49 49 48 49 49 48 49 49 48 49 49 48 49 49 48 49 49 48 49 49 48 49 49 48 49 49 48 49 49 48 49 49 48 49 49 48 49
49 48 49 49 48 49 49 48 49 49 48 49 49 48 49 49 48 49 49 48 49 49 48 49 49 48 49 49 48 49 49 48 49 49 48 49 49 48 49 49 48 49 49 48 49 49 48 49 49 48 49 49 48 49 49 48 49 49 48 49 49 48 49 49 48 49 49 48 49 49 48 49 49 48 49 49 48 49 49 48 49 49 48 49 49 48 49 49 48 49 49 48 49 49 48 49 49 48 49 49 48 49 49 48 49 156 154 156 156 154 156 156 154 156 156 154 156 156 154 156 156 154 156 156 154 156 156 154 156 156 154 156 156 154 156 156 154 156 156 154 156 156 154 156 156 154 156 156 154 156 156 158 156 156 158 156 156 158 156 165 162 165 148 154 156 16 101 107 16 101 107 16 101 107 16 101 107 16 101 107 16 101 107 16 101 107 16 101 107 24 105 115 24 105 115 24 105 115 24 105 115 24 105 115 24 105 115 24 105 115 24 105 115 24 105 115 24 105 115 24 105 115 24 105 115 24 105 115 24 109 115 24 109 115 99 134 140 165 162 165 165 162 165 156 158 156 156 154 156 156 154 156 156 154 156 156 154 156 156 154 156 156 154 156 156 154 156 156 154 156 156 154 156 156 154 156 156 154 156 156 154 156 49 48 49 49 48 49 49 48 49 49 48 49 49 48 49 49 48 49 49 48 49 49 48 49 49 48 49 49 48 49 49 48 49 49 48 49 49 48 49 49 48 49 49 48 49 49 48 49 49 48 49 49 48 49 49 48 49 49 48 49 49 48 49 49 48 49 49 48 49 49 48 49 49 48 49 49 48 49 49 48 49 49 48 49 49 48 49 49 48 49 49 48 49 49 48 49 49 48 49 49 48 49
49 48 49 49 48 49 49 48 49 49 48 49 49 48 49 49 48 49 49 48 49 49 48 49 49 48 49 49 48 49 49 48 49 49 48 49 49 48 49 49 48 49 49 48 49 49 48 49 49 48 49 49 48 49 49 48 49 49 48 49 49 48 49 49 48 49 49 48 49 49 48 49 49 48 49 49 48 49 49 48 49 49 48 49 49 48 49 49 48 49 49 48 49 49 48 49 49 48 49 49 48 49 156 154 156 156 154 156 156 154 156 156 154 156 156 154 156 156 154 156 156 154 156 156 154 156 156 154 156 156 154 156 156 154 156 156 154 156 156 154 156 156 154 156 156 154 156 156 154 156 156 158 156 156 158 156 165 162 165 165 162 165 148 154 156 24 113 123 24 113 123 24 113 123 24 113 123 24 113 123 24 113 123 24 113 123 24 113 123 24 113 123 24 113 123 57 125 132 148 170 173 173 182 189 173 182 189 132 158 165 33 117 123 24 117 123 24 117 123 24 117 123 24 117 123 24 117 123 24 117 123 24 117 123 24 121 123 99 138 140 156 158 156 156 158 156 156 158 156 156 154 156 156 154 156 156 154 156 156 154 156 156 154 156 156 154 156 156 154 156 156 154 156 156 154 156 156 154 156 156 154 156 156 154 156 49 48 49 49 48 49 49 48 49 49 48 49 49 48 49 49 48 49 49 48 49 49 48 49 49 48 49 49 48 49 49 48 49 49 48 49 49 48 49 49 48 49 49 48 49 49 48 49 49 48 49 49 48 49 49 48 49 49 48 49 49 48 49 49 48 49 49 48 49 49 48 49 49 48 49 49 48 49 49 48 49 49 48 49 49 48 49 49 48 49 49 48 49 49 48 49 49 48 49
49 48 49 49 48 49 49 48 49 49 48 49 49 48 49 49 48 49 49 48 49 49 48 49 49 48 49 49 48 49 49 48 49 49 48 49 49 48 49 49 48 49 49 48 49 49 48 49 49 48 49 49 48 49 49 48 49 49 48 49 49 48 49 49 48 49 49 48 49 49 48 49 49 48 49 49 48 49 49 48 49 49 48 49 49 48 49 49 48 49 49 48 49 49 48 49 49 48 49 49 48 49 156 154 156 156 154 156 156 154 156 156 154 156 156 154 156 156 154 156 156 154 156 156 154 156 156 154 156 156 154 156 156 154 156 156 154 156 156 154 156 156 154 156 156 154 156 156 154 156 156 158 156 156 158 156 156 158 156 140 154 156 24 121 123 24 121 123 24 121 132 24 121 132 24 121 132 24 121 132 24 121 132 24 121 132 24 121 132 24 121 132 24 121 132 24 121 132 24 121 132 24 125 132 24 125 132 24 125 132 24 125 132 24 125 132 24 125 132 24 125 132 24 125 132 24 125 132 24 125 132 24 125 132 24 125 132 99 138 148 156 158 156 156 158 156 156 154 156 156 154 156 156 154 156 156 154 156 156 154 156 156 154 156 156 154 156 156 154 156 156 154 156 156 154 156 156 154 156 156 154 156 156 154 156 49 48 49 49 48 49 49 48 49 49 48 49 49 48 49 49 48 49 49 48 49 49 48 49 49 48 49 49 48 49 49 48 49 49 48 49 49 48 49 49 48 49 49 48 49 49 48 49 49 48 49 49 48 49 49 48 49 49 48 49 49 48 49 49 48 49 49 48 49 49 48 49 49 48 49 49 48 49 49 48 49 49 48 49 49 48 49 49 48 49 49 48 49 49 48 49 49 48 49
49 48 49 49 48 49 49 48 49 49 48 49 49 48 49 49 48 49 49 48 49 49 48 49 49 48 49 49 48 49 49 48 49 49 48 49 49 48 49 49 48 49 49 48 49 49 48 49 49 48 49 49 48 49 49 48 49 49 48 49 49 48 49 49 48 49 49 48 49 49 48 49 49 48 49 49 48 49 49 48 49 49 48 49 49 48 49 49 48 49 49 48 49 49 48 49 49 48 49 49 48 49 156 154 156 156 154 156 156 154 156 156 154 156 156 154 156 156 154 156 156 154 156 156 154 156 156 154 156 156 154 156 156 154 156 156 154 156 156 154 156 156 154 156 156 154 156 156 154 156 156 154 156 156 154 156 156 158 156 140 154 156 24 125 132 24 125 132 24 125 132 24 125 132 24 125 140 24 125 140 24 130 140 24 130 140 24 130 140 24 130 140 24 125 140 57 134 140 90 146 148 90 146 148 90 146 148 123 162 165 24 130 140 24 130 140 24 130 140 24 130 140 24 130 140 24 130 140 24 130 140 24 130 140 24 130 140 24 130 140 99 142 148 156 158 156 156 154 156 156 154 156 156 154 156 156 154 156 156 154 156 156 154 156 156 154 156 156 154 156 156 154 156 156 154 156 156 154 156 156 154 156 156 154 156 156 154 156 49 48 49 49 48 49 49 48 49 49 48 49 49 48 49 49 48 49 49 48 49 49 48 49 49 48 49 49 48 49 49 48 49 49 48 49 49 48 49 49 48 49 49 48 49 49 48 49 49 48 49 49 48 49 49 48 49 49 48 49 49 48 49 49 48 49 49 48 49 49 48 49 49 48 49 49 48 49 49 48 49 49 48 49 49 48 49 49 48 49 49 48 49 49 48 49
49 48 49 49 48 49 49 48 49 49 48 49 49 48 49 49 48 49 49 48 49 49 48 49 49 48 49 49 48 49 49 48 49 49 48 49 49 48 49 49 48 49 49 48 49 49 48 49 49 48 49 49 48 49 49 48 49 49 48 49 49 48 49 49 48 49 49 48 49 49 48 49 49 48 49 49 48 49 49 48 49 49 48 49 49 48 49 49 48 49 49 48 49 49 48 49 49 48 49 49 48 49 156 154 156 156 154 156 156 154 156 156 154 156 156 154 156 156 154 156 156 154 156 156 154 156 156 154 156 156 154 156 156 154 156 156 154 156 156 154 156 156 154 156 156 154 156 156 154 156 156 154 156 156 154 156 156 154 156 140 150 156 24 130 140 24 130 140 24 130 140 24 130 140 24 130 140 24 130 140 33 134 140 33 134 140 33 134 140 33 134 140 33 134 140 57 138 148 189 199 198 156 182 181 132 166 173 123 162 165 33 134 140 33 134 140 33 134 140 33 134 140 33 134 140 33 134 140 33 134 140 33 134 140 33 134 140 33 134 140 33 134 140 156 154 156 156 154 156 156 154 156 156 154 156 156 154 156 156 154 156 156 154 156 156 154 156 156 154 156 156 154 156 156 154 156 156 154 156 156 154 156 156 154 156 156 154 156 156 154 156 49 48 49 49 48 49 49 48 49 49 48 49 49 48 49 49 48 49 49 48 49 49 48 49 49 48 49 49 48 49 49 48 49 49 48 49 49 48 49 49 48 49 49 48 49 49 48 49 49 48 49 49 48 49 49 48 49 49 48 49 49 48 49 49 48 49 49 48 49 49 48 49 49 48 49 49 48 49 49 48 49 49 48 49 49 48 49 49 48 49 49 48 49
49 48 49 49 48 49 49 48 49 49 48 49 49 48 49 49 48 49 49 48 49 49 48 49 49 48 49 49 48 49 49 48 49 49 48 49 49 48 49 49 48 49 49 48 49 49 48 49 49 48 49 49 48 49 49 48 49 49 48 49 49 48 49 49 48 49 49 48 49 49 48 49 49 48 49 49 48 49 49 48 49 49 48 49 49 48 49 49 48 49 49 48 49 49 48 49 49 48 49 156 154 156 156 154 156 156 154 156 156 154 156 156 154 156 156 154 156 156 154 156 156 154 156 156 154 156 156 154 156 156 154 156 156 154 156 156 154 156 156 154 156 156 154 156 156 154 156 156 154 156 156 154 156 156 154 156 156 154 156 140 150 156 33 134 140 33 134 140 33 134 140 33 134 140 33 134 140 33 134 140 33 134 140 33 134 140 33 134 140 33 134 140 33 134 140 33 134 140 33 134 140 33 134 140 33 134 140 33 134 140 33 134 140 33 134 140 33 134 140 33 134 140 33 138 140 33 138 140 33 138 140 33 138 140 33 134 140 33 134 140 99 142 148 99 142 148 156 154 156 156 154 156 156 154 156 156 154 156 156 154 156 156 154 156 156 154 156 156 154 156 156 154 156 156 154 156 156 154 156 156 154 156 156 154 156 156 154 156 156 154 156 49 48 49 49 48 49 49 48 49 49 48 49 49 48 49 49 48 49 49 48 49 49 48 49 49 48 49 49 48 49 49 48 49 49 48 49 49 48 49 49 48 49 49 48 49 49 48 49 49 48 49 49 48 49 49 48 49 49 48 49 49 48 49 49 48 49 49 48 49 49 48 49 49 48 49 49 48 49 49 48 49 49 48 49 49 48 49 49 48 49 49 48 49
49 48 49 49 48 49 49 48 49 49 48 49 49 48 49 49 48 49 49 48 49 49 48 49 49 48 49 49 48 49 49 48 49 49 48 49 49 48 49 49 48 49 49 48 49 49 48 49 49 48 49 49 48 49 49 48 49 49 48 49 49 48 49 49 48 49 49 48 49 49 48 49 49 48 49 49 48 49 49 48 49 49 48 49 49 48 49 49 48 49 49 48 49 49 48 49 49 48 49 156 154 156 156 154 156 156 154 156 156 154 156 156 154 156 156 154 156 156 154 156 156 154 156 156 154 156 156 154 156 156 154 156 156 154 156 156 154 156 156 154 156 156 154 156 156 154 156 156 154 156 156 154 156 156 154 156 140 150 156 33 138 148 33 138 148 33 138 148 33 138 148 33 138 148 33 138 148 33 138 148 33 138 148 33 138 148 33 138 148 33 138 148 33 138 148 33 138 148 33 138 148 33 138 148 165 186 189 33 138 148 33 138 148 33 138 148 33 138 148 33 138 148 33 138 148 33 138 148 33 138 148 33 138 148 33 138 148 33 138 148 99 146 148 156 154 156 156 154 156 156 154 156 156 154 156 156 154 156 156 154 156 156 154 156 156 154 156 156 154 156 156 154 156 156 154 156 156 154 156 156 154 156 156 154 156 156 154 156 156 154 156 156 154 156 49 48 49 49 48 49 49 48 49 49 48 49 49 48 49 49 48 49 49 48 49 49 48 49 49 48 49 49 48 49 49 48 49 49 48 49 49 48 49 49 48 49 49 48 49 49 48 49 49 48 49 49 48 49 49 48 49 49 48 49 49 48 49 49 48 49 49 48 49 49 48 49 49 48 49 49 48 49 49 48 49 49 48 49 49 48 49 49 48 49
49 48 49 49 48 49 49 48 49 49 48 49 49 48 49 49 48 49 49 48 49 49 48 49 49 48 49 49 48 49 49 48 49 49 48 49 49 48 49 49 48 49 49 48 49 49 48 49 49 48 49 49 48 49 49 48 49 49 48 49 49 48 49 49 48 49 49 48 49 49 48 49 49 48 49 49 48 49 49 48 49 49 48 49 49 48 49 49 48 49 49 48 49 49 48 49 49 48 49 156 154 156 156 154 156 156 154 156 156 154 156 156 154 156 156 154 156 156 154 156 156 154 156 156 154 156 156 154 156 156 154 156 156 154 156 156 154 156 156 154 156 156 154 156 156 154 156 156 154 156 156 154 156 156 154 156 140 150 156 33 138 148 33 138 148 33 138 148 33 138 148 33 138 148 33 138 148 33 138 148 33 138 148 33 138 148 33 138 148 33 138 148 33 138 148 33 138 148 33 138 148 33 138 148 33 138 148 33 138 148 33 138 148 33 138 148 33 138 148 33 138 148 33 138 148 33 138 148 33 138 148 33 138 148 33 138 148 33 138 148 99 146 148 156 154 156 156 154 156 156 154 156 156 154 156 156 154 156 156 154 156 156 154 156 156 154 156 156 154 156 156 154 156 156 154 156 156 154 156 156 154 156 156 154 156 156 154 156 156 154 156 156 154 156 49 48 49 49 48 49 49 48 49 49 48 49 49 48 49 49 48 49 49 48 49 49 48 49 49 48 49 49 48 49 49 48 49 49 48 49 49 48 49 49 48 49 49 48 49 49 48 49 49 48 49 49 48 49 49 48 49 49 48 49 49 48 49 49 48 49 49 48 49 49 48 49 49 48 49 49 48 49 49 48 49 49 48 49 49 48 49 49 48 49
49 48 49 49 48 49 49 48 49 49 48 49 49 48 49 49 48 49 49 48 49 49 48 49 49 48 49 49 48 49 49 48 49 49 48 49 49 48 49 49 48 49 49 48 49 49 48 49 49 48 49 49 48 49 49 48 49 49 48 49 49 48 49 49 48 49 49 48 49 49 48 49 49 48 49 49 48 49 49 48 49 49 48 49 49 48 49 49 48 49 49 48 49 49 48 49 49 48 49 156 154 156 156 154 156 156 154 156 156 154 156 156 154 156 156 154 156 156 154 156 156 154 156 156 154 156 156 154 156 156 154 156 156 154 156 156 154 156 156 154 156 156 154 156 156 154 156 156 154 156 156 154 156 156 154 156 140 150 156 33 138 148 33 138 148 33 138 148 33 138 148 33 138 148 33 138 148 33 138 148 33 138 148 33 138 148 33 138 148 33 138 148 33 138 148 33 138 148 33 138 148 33 138 148 181 199 198 33 138 148 33 138 148 33 138 148 33 138 148 33 138 148 33 138 148 33 138 148 33 138 148 33 138 148 33 138 148 33 138 148 99 146 148 156 154 156 156 154 156 156 154 156 156 154 156 156 154 156 156 154 156 156 154 156 156 154 156 156 154 156 156 154 156 156 154 156 156 154 156 156 154 156 156 154 156 156 154 156 156 154 156 156 154 156 156 154 156 49 48 49 49 48 49 49 48 49 49 48 49 49 48 49 49 48 49 49 48 49 49 48 49 49 48 49 49 48 49 49 48 49 49 48 49 49 48 49 49 48 49 49 48 49 49 48 49 49 48 49 49 48 49 49 48 49 49 48 49 49 48 49 49 48 49 49 48 49 49 48 49 49 48 49 49 48 49 49 48 49 49 48 49 49 48 49
49 48 49 49 48 49 49 48 49 49 48 49 49 48 49 49 48 49 49 48 49 49 48 49 49 48 49 49 48 49 49 48 49 49 48 49 49 48 49 49 48 49 49 48 49 49 48 49 49 48 49 49 48 49 49 48 49 49 48 49 49 48 49 49 48 49 49 48 49 49 48 49 49 48 49 49 48 49 49 48 49 49 48 49 49 48 49 49 48 49 49 48 49 49 48 49 156 154 156 156 154 156 156 154 156 156 154 156 156 154 156 156 154 156 156 154 156 156 154 156 156 154 156 156 154 156 156 154 156 156 154 156 156 154 156 156 154 156 156 154 156 156 154 156 156 154 156 156 154 156 156 154 156 156 154 156 140 150 156 33 138 148 33 138 148 33 138 148 33 138 148 33 138 148 33 138 148 33 138 148 33 138 148 33 138 148 33 138 148 33 138 148 33 138 148 33 138 148 33 138 148 33 138 148 33 138 148 33 138 148 33 138 148 33 138 148 33 138 148 33 138 148 33 138 148 33 138 148 33 138 148 33 138 148 33 138 148 99 146 148 99 146 148 156 154 156 156 154 156 156 154 156 156 154 156 156 154 156 156 154 156 156 154 156 156 154 156 156 154 156 156 154 156 156 154 156 156 154 156 156 154 156 156 154 156 156 154 156 156 154 156 156 154 156 156 154 156 156 154 156 49 48 49 49 48 49 49 48 49 49 48 49 49 48 49 49 48 49 49 48 49 49 48 49 49 48 49 49 48 49 49 48 49 49 48 49 49 48 49 49 48 49 49 48 49 49 48 49 49 48 49 49 48 49 49 48 49 49 48 49 49 48 49 49 48 49 49 48 49 49 48 49 49 48 49 49 48 49 49 48 49 49 48 49
49 48 49 49 48 49 49 48 49 49 48 49 49 48 49 49 48 49 49 48 49 49 48 49 49 48 49 49 48 49 49 48 49 49 48 49 49 48 49 49 48 49 49 48 49 49 48 49 49 48 49 49 48 49 49 48 49 49 48 49 49 48 49 49 48 49 49 48 49 49 48 49 49 48 49 49 48 49 49 48 49 49 48 49 49 48 49 49 48 49 49 48 49 49 48 49 156 154 156 156 154 156 156 154 156 156 154 156 156 154 156 156 154 156 156 154 156 156 154 156 156 154 156 156 154 156 156 154 156 156 154 156 156 154 156 156 154 156 156 154 156 156 154 156 156 154 156 156 154 156 156 154 156 148 154 156 49 138 148 33 138 148 33 138 148 33 138 148 33 138 148 33 138 148 33 138 148 33 138 148 33 138 148 140 150 156 140 150 156 140 150 156 140 150 156 140 150 156 140 150 156 140 150 156 140 150 156 140 150 156 140 150 156 140 150 156 156 154 156 156 154 156 156 154 156 156 154 156 156 154 156 156 154 156 156 154 156 156 154 156 156 154 156 156 154 156 156 154 156 156 154 156 156 154 156 156 154 156 156 154 156 156 154 156 156 154 156 156 154 156 156 154 156 156 154 156 156 154 156 156 154 156 156 154 156 156 154 156 156 154 156 156 154 156 156 154 156 156 154 156 49 48 49 49 48 49 49 48 49 49 48 49 49 48 49 49 48 49 49 48 49 49 48 49 49 48 49 49 48 49 49 48 49 49 48 49 49 48 49 49 48 49 49 48 49 49 48 49 49 48 49 49 48 49 49 48 49 49 48 49 49 48 49 49 48 49 49 48 49 49 48 49 49 48 49 49 48 49 49 48 49 49 48 49
49 48 49 49 48 49 49 48 49 49 48 49 49 48 49 49 48 49 49 48 49 49 48 49 49 48 49 49 48 49 49 48 49 49 48 49 49 48 49 49 48 49 49 48 49 49 48 49 49 48 49 49 48 49 49 48 49 49 48 49 49 48 49 49 48 49 49 48 49 49 48 49 49 48 49 49 48 49 49 48 49 49 48 49 49 48 49 49 48 49 49 48 49 49 48 49 156 154 156 156 154 156 156 154 156 156 154 156 156 154 156 156 154 156 156 154 156 156 154 156 156 154 156 156 154 156 156 154 156 156 154 156 156 154 156 156 154 156 156 154 156 156 154 156 156 154 156 156 154 156 156 154 156 156 154 156 156 154 156 156 154 156 156 154 156 156 154 156 156 154 156 156 154 156 156 154 156 156 154 156 156 154 156 156 154 156 156 154 156 156 154 156 156 154 156 156 154 156 156 154 156 156 154 156 156 154 156 156 154 156 156 154 156 156 154 156 156 154 156 156 154 156 156 154 156 156 154 156 156 154 156 156 154 156 156 154 156 156 154 156 156 154 156 156 154 156 156 154 156 156 154 156 156 154 156 156 154 156 156 154 156 156 154 156 156 154 156 156 154 156 156 154 156 156 154 156 156 154 156 156 154 156 156 154 156 156 154 156 156 154 156 156 154 156 156 154 156 156 154 156 49 48 49 49 48 49 49 48 49 49 48 49 49 48 49 49 48 49 49 48 49 49 48 49 49 48 49 49 48 49 49 48 49 49 48 49 49 48 49 49 48 49 49 48 49 49 48 49 49 48 49 49 48 49 49 48 49 49 48 49 49 48 49 49 48 49 49 48 49 49 48 49 49 48 49 49 48 49 49 48 49 49 48 49
49 48 49 49 48 49 49 48 49 49 48 49 49 48 49 49 48 49 49 48 49 49 48 49 49 48 49 49 48 49 49 48 49 49 48 49 49 48 49 49 48 49 49 48 49 49 48 49 49 48 49 49 48 49 49 48 49 49 48 49 49 48 49 49 48 49 49 48 49 49 48 49 49 48 49 49 48 49 49 48 49 49 48 49 49 48 49 49 48 49 49 48 49 49 48 49 156 154 156 156 154 156 156 154 156 156 154 156 156 154 156 156 154 156 156 154 156 156 154 156 156 154 156 156 154 156 156 154 156 156 154 156 156 154 156 156 154 156 156 154 156 156 154 156 156 154 156 156 154 156 156 154 156 156 154 156 156 154 156 156 154 156 156 154 156 156 154 156 156 154 156 156 154 156 156 154 156 156 154 156 156 154 156 156 154 156 156 154 156 156 154 156 156 154 156 156 154 156 156 154 156 156 154 156 156 154 156 156 154 156 156 154 156 156 154 156 156 154 156 156 154 156 156 154 156 156 154 156 156 154 156 156 154 156 156 154 156 156 154 156 156 154 156 156 154 156 156 154 156 156 154 156 156 154 156 156 154 156 156 154 156 156 154 156 156 154 156 156 154 156 156 154 156 156 154 156 156 154 156 156 154 156 156 154 156 156 154 156 156 154 156 156 154 156 156 154 156 156 154 156 49 48 49 49 48 49 49 48 49 49 48 49 49 48 49 49 48 49 49 48 49 49 48 49 49 48 49 49 48 49 49 48 49 49 48 49 49 48 49 49 48 49 49 48 49 49 48 49 49 48 49 49 48 49 49 48 49 49 48 49 49 48 49 49 48 49 49 48 49 49 48 49 49 48 49 49 48 49 49 48 49 49 48 49
49 48 49 49 48 49 49 48 49 49 48 49 49 48 49 49 48 49 49 48 49 49 48 49 49 48 49 49 48 49 49 48 49 49 48 49 49 48 49 49 48 49 49 48 49 49 48 49 49 48 49 49 48 49 49 48 49 49 48 49 49 48 49 49 48 49 49 48 49 49 48 49 49 48 49 49 48 49 49 48 49 49 48 49 49 48 49 49 48 49 49 48 49 156 154 156 156 154 156 156 154 156 156 154 156 156 154 156 156 154 156 156 154 156 156 154 156 156 154 156 156 154 156 156 154 156 156 154 156 156 154 156 156 154 156 156 154 156 156 154 156 156 154 156 156 154 156 156 154 156 156 154 156 156 154 156 156 154 156 156 154 156 156 154 156 156 154 156 156 154 156 156 154 156 156 154 156 156 154 156 156 154 156 156 154 156 156 154 156 156 154 156 156 154 156 156 154 156 156 154 156 156 154 156 156 154 156 156 154 156 156 154 156 156 154 156 156 154 156 156 154 156 156 154 156 156 154 156 156 154 156 156 154 156 156 154 156 156 154 156 156 154 156 156 154 156 156 154 156 156 154 156 156 154 156 156 154 156 156 154 156 156 154 156 156 154 156 156 154 156 156 154 156 156 154 156 156 154 156 156 154 156 156 154 156 156 154 156 156 154 156 156 154 156 156 154 156 156 154 156 49 48 49 49 48 49 49 48 49 49 48 49 49 48 49 49 48 49 49 48 49 49 48 49 49 48 49 49 48 49 49 48 49 49 48 49 49 48 49 49 48 49 49 48 49 49 48 49 49 48 49 49 48 49 49 48 49 49 48 49 49 48 49 49 48 49 49 48 49 49 48 49 49 48 49 49 48 49 49 48 49 49 48 49
49 48 49 49 48 49 49 48 49 49 48 49 49 48 49 49 48 49 49 48 49 49 48 49 49 48 49 49 48 49 49 48 49 49 48 49 49 48 49 49 48 49 49 48 49 49 48 49 49 48 49 49 48 49 49 48 49 49 48 49 49 48 49 49 48 49 49 48 49 49 48 49 49 48 49 49 48 49 49 48 49 49 48 49 49 48 49 49 48 49 49 48 49 49 48 49 156 154 156 156 154 156 156 154 156 156 154 156 156 154 156 156 154 156 156 154 156 156 154 156 156 154 156 156 154 156 156 154 156 156 154 156 156 154 156 156 154 156 156 154 156 156 154 156 156 154 156 156 154 156 156 154 156 156 154 156 156 154 156 156 154 156 156 154 156 156 154 156 156 154 156 156 154 156 156 154 156 156 154 156 156 154 156 156 154 156 156 154 156 156 154 156 156 154 156 156 154 156 156 154 156 156 154 156 156 154 156 156 154 156 156 154 156 156 154 156 156 154 156 156 154 156 156 154 156 156 154 156 156 154 156 156 154 156 156 154 156 156 154 156 156 154 156 156 154 156 156 154 156 156 154 156 156 154 156 156 154 156 156 154 156 156 154 156 156 154 156 156 154 156 156 154 156 156 154 156 156 154 156 156 154 156 156 154 156 156 154 156 156 154 156 156 154 156 156 154 156 156 154 156 49 48 49 49 48 49 49 48 49 49 48 49 49 48 49 49 48 49 49 48 49 49 48 49 49 48 49 49 48 49 49 48 49 49 48 49 49 48 49 49 48 49 49 48 49 49 48 49 49 48 49 49 48 49 49 48 49 49 48 49 49 48 49 49 48 49 49 48 49 49 48 49 49 48 49 49 48 49 49 48 49 49 48 49
49 48 49 49 48 49 49 48 49 49 48 49 49 48 49 49 48 49 49 48 49 49 48 49 49 48 49 49 48 49 49 48 49 49 48 49 49 48 49 49 48 49 49 48 49 49 48 49 49 48 49 49 48 49 49 48 49 49 48 49 49 48 49 49 48 49 49 48 49 49 48 49 49 48 49 49 48 49 49 48 49 49 48 49 49 48 49 49 48 49 49 48 49 49 48 49 156 154 156 156 154 156 156 154 156 156 154 156 156 154 156 156 154 156 156 154 156 156 154 156 156 154 156 156 154 156 156 154 156 156 154 156 156 154 156 156 154 156 156 154 156 156 154 156 156 154 156 156 154 156 156 154 156 156 154 156 156 154 156 156 154 156 156 154 156 156 154 156 156 154 156 156 154 156 156 154 156 156 154 156 156 154 156 156 154 156 156 154 156 156 154 156 156 154 156 156 154 156 156 154 156 156 154 156 156 154 156 156 154 156 156 154 156 156 154 156 156 154 156 156 154 156 156 154 156 156 154 156 156 154 156 156 154 156 156 154 156 156 154 156 156 154 156 156 154 156 156 154 156 156 154 156 156 154 156 156 154 156 156 154 156 156 154 156 156 154 156 156 154 156 156 154 156 156 154 156 156 154 156 156 154 156 156 154 156 156 154 156 156 154 156 156 154 156 156 154 156 156 154 156 49 48 49 49 48 49 49 48 49 49 48 49 49 48 49 49 48 49 49 48 49 49 48 49 49 48 49 49 48 49 49 48 49 49 48 49 49 48 49 49 48 49 49 48 49 49 48 49 49 48 49 49 48 49 49 48 49 49 48 49 49 48 49 49 48 49 49 48 49 49 48 49 49 48 49 49 48 49 49 48 49 49 48 49
49 48 49 49 48 49 49 48 49 49 48 49 49 48 49 49 48 49 49 48 49 49 48 49 49 48 49 49 48 49 49 48 49 49 48 49 49 48 49 49 48 49 49 48 49 49 48 49 49 48 49 49 48 49 49 48 49 49 48 49 49 48 49 49 48 49 49 48 49 49 48 49 49 48 49 49 48 49 49 48 49 49 48 49 49 48 49 49 48 49 49 48 49 49 48 49 156 154 156 156 154 156 156 154 156 156 154 156 156 154 156 156 154 156 156 154 156 156 154 156 156 154 156 156 154 156 156 154 156 156 154 156 156 154 156 156 154 156 156 154 156 156 154 156 156 154 156 156 154 156 156 154 156 156 154 156 156 154 156 156 154 156 156 154 156 156 154 156 156 154 156 156 154 156 156 154 156 156 154 156 156 154 156 156 154 156 156 154 156 156 154 156 156 154 156 156 154 156 156 154 156 156 154 156 156 154 156 156 154 156 156 154 156 156 154 156 156 154 156 156 154 156 156 154 156 156 154 156 156 154 156 156 154 156 156 154 156 156 154 156 156 154 156 156 154 156 156 154 156 156 154 156 156 154 156 156 154 156 156 154 156 156 154 156 156 154 156 156 154 156 156 154 156 156 154 156 156 154 156 156 154 156 156 154 156 156 154 156 156 154 156 156 154 156 156 154 156 156 154 156 49 48 49 49 48 49 49 48 49 49 48 49 49 48 49 49 48 49 49 48 49 49 48 49 49 48 49 49 48 49 49 48 49 49 48 49 49 48 49 49 48 49 49 48 49 49 48 49 49 48 49 49 48 49 49 48 49 49 48 49 49 48 49 49 48 49 49 48 49 49 48 49 49 48 49 49 48 49 49 48 49 49 48 49
49 48 49 49 48 49 49 48 49 49 48 49 49 48 49 49 48 49 49 48 49 49 48 49 49 48 49 49 48 49 49 48 49 49 48 49 49 48 49 49 48 49 49 48 49 49 48 49 49 48 49 49 48 49 49 48 49 49 48 49 49 48 49 49 48 49 49 48 49 49 48 49 49 48 49 49 48 49 49 48 49 49 48 49 49 48 49 49 48 49 49 48 49 49 48 49 156 154 156 156 154 156 156 154 156 156 154 156 156 154 156 156 154 156 156 154 156 156 154 156 156 154 156 156 154 156 156 154 156 156 154 156 156 154 156 156 154 156 156 154 156 156 154 156 156 154 156 156 154 156 156 154 156 156 154 156 156 154 156 156 154 156 156 154 156 156 154 156 156 154 156 156 154 156 156 154 156 156 154 156 156 154 156 156 154 156 156 154 156 156 154 156 156 154 156 156 154 156 156 154 156 156 154 156 156 154 156 156 154 156 156 154 156 156 154 156 156 154 156 156 154 156 156 154 156 156 154 156 156 154 156 156 154 156 156 154 156 156 154 156 156 154 156 156 154 156 156 154 156 156 154 156 156 154 156 156 154 156 156 154 156 156 154 156 156 154 156 156 154 156 156 154 156 156 154 156 156 154 156 156 154 156 156 154 156 156 154 156 156 154 156 156 154 156 156 154 156 156 154 156 49 48 49 49 48 49 49 48 49 49 48 49 49 48 49 49 48 49 49 48 49 49 48 49 49 48 49 49 48 49 49 48 49 49 48 49 49 48 49 49 48 49 49 48 49 49 48 49 49 48 49 49 48 49 49 48 49 49 48 49 49 48 49 49 48 49 49 48 49 49 48 49 49 48 49 49 48 49 49 48 49 49 48 49
49 48 49 49 48 49 49 48 49 49 48 49 49 48 49 49 48 49 49 48 49 49 48 49 49 48 49 49 48 49 49 48 49 49 48 49 49 48 49 49 48 49 49 48 49 49 48 49 49 48 49 49 48 49 49 48 49 49 48 49 49 48 49 49 48 49 49 48 49 49 48 49 49 48 49 49 48 49 49 48 49 49 48 49 49 48 49 49 48 49 49 48 49 49 48 49 156 154 156 156 154 156 156 154 156 156 154 156 156 154 156 156 154 156 156 154 156 156 154 156 156 154 156 156 154 156 156 154 156 156 154 156 156 154 156 156 154 156 156 154 156 156 154 156 156 154 156 156 154 156 156 154 156 156 154 156 156 154 156 156 154 156 156 154 156 156 154 156 156 154 156 156 154 156 156 154 156 156 154 156 156 154 156 156 154 156 156 154 156 156 154 156 156 154 156 156 154 156 156 154 156 156 154 156 156 154 156 156 154 156 156 154 156 156 154 156 156 154 156 156 154 156 156 154 156 156 154 156 156 154 156 156 154 156 156 154 156 156 154 156 156 154 156 156 154 156 156 154 156 156 154 156 156 154 156 156 154 156 156 154 156 156 154 156 156 154 156 156 154 156 156 154 156 156 154 156 156 154 156 156 154 156 156 154 156 156 154 156 156 154 156 156 154 156 156 154 156 156 154 156 49 48 49 49 48 49 49 48 49 49 48 49 49 48 49 49 48 49 49 48 49 49 48 49 49 48 49 49 48 49 49 48 49 49 48 49 49 48 49 49 48 49 49 48 49 49 48 49 49 48 49 49 48 49 49 48 49 49 48 49 49 48 49 49 48 49 49 48 49 49 48 49 49 48 49 49 48 49 49 48 49 49 48 49
49 48 49 49 48 49 49 48 49 49 48 49 49 48 49 49 48 49 49 48 49 49 48 49 49 48 49 49 48 49 49 48 49 49 48 49 49 48 49 49 48 49 49 48 49 49 48 49 49 48 49 49 48 49 49 48 49 49 48 49 49 48 49 49 48 49 49 48 49 49 48 49 49 48 49 49 48 49 49 48 49 49 48 49 49 48 49 49 48 49 49 48 49 49 48 49 156 154 156 156 154 156 156 154 156 156 154 156 156 154 156 156 154 156 156 154 156 156 154 156 156 154 156 156 154 156 156 154 156 156 154 156 156 154 156 156 154 156 156 154 156 156 154 156 156 154 156 156 154 156 156 154 156 156 154 156 156 154 156 156 154 156 156 154 156 156 154 156 156 154 156 156 154 156 156 154 156 156 154 156 156 154 156 156 154 156 156 154 156 156 154 156 156 154 156 156 154 156 156 154 156 156 154 156 156 154 156 156 154 156 156 154 156 156 154 156 156 154 156 156 154 156 156 154 156 156 154 156 156 154 156 156 154 156 156 154 156 156 154 156 156 154 156 156 154 156 156 154 156 156 154 156 156 154 156 156 154 156 156 154 156 156 154 156 156 154 156 156 154 156 156 154 156 156 154 156 156 154 156 156 154 156 156 154 156 156 154 156 156 154 156 156 154 156 156 154 156 49 48 49 49 48 49 49 48 49 49 48 49 49 48 49 49 48 49 49 48 49 49 48 49 49 48 49 49 48 49 49 48 49 49 48 49 49 48 49 49 48 49 49 48 49 49 48 49 49 48 49 49 48 49 49 48 49 49 48 49 49 48 49 49 48 49 49 48 49 49 48 49 49 48 49 49 48 49 49 48 49 49 48 49 49 48 49
49 48 49 49 48 49 49 48 49 49 48 49 49 48 49 49 48 49 49 48 49 49 48 49 49 48 49 49 48 49 49 48 49 49 48 49 49 48 49 49 48 49 49 48 49 49 48 49 49 48 49 49 48 49 49 48 49 49 48 49 49 48 49 49 48 49 49 48 49 49 48 49 49 48 49 49 48 49 49 48 49 49 48 49 49 48 49 49 48 49 49 48 49 49 48 49 156 154 156 156 154 156 156 154 156 156 154 156 156 154 156 156 154 156 156 154 156 156 154 156 156 154 156 156 154 156 156 154 156 156 154 156 156 154 156 156 154 156 156 154 156 156 154 156 156 154 156 156 154 156 156 154 156 156 154 156 156 154 156 156 154 156 156 154 156 156 154 156 156 154 156 156 154 156 156 154 156 156 154 156 156 154 156 156 154 156 156 154 156 156 154 156 156 154 156 156 154 156 156 154 156 156 154 156 156 154 156 156 154 156 156 154 156 156 154 156 156 154 156 156 154 156 156 154 156 156 154 156 156 154 156 156 154 156 156 154 156 156 154 156 156 154 156 156 154 156 156 154 156 156 154 156 156 154 156 156 154 156 156 154 156 156 154 156 156 154 156 156 154 156 156 154 156 156 154 156 156 154 156 156 154 156 156 154 156 156 154 156 156 154 156 156 154 156 156 154 156 49 48 49 49 48 49 49 48 49 49 48 49 49 48 49 49 48 49 49 48 49 49 48 49 49 48 49 49 48 49 49 48 49 49 48 49 49 48 49 49 48 49 49 48 49 49 48 49 49 48 49 49 48 49 49 48 49 49 48 49 49 48 49 49 48 49 49 48 49 49 48 49 49 48 49 49 48 49 49 48 49 49 48 49 49 48 49
49 48 49 49 48 49 49 48 49 49 48 49 49 48 49 49 48 49 49 48 49 49 48 49 49 48 49 49 48 49 49 48 49 49 48 49 49 48 49 49 48 49 49 48 49 49 48 49 49 48 49 49 48 49 49 48 49 49 48 49 49 48 49 49 48 49 49 48 49 49 48 49 49 48 49 49 48 49 49 48 49 49 48 49 49 48 49 49 48 49 49 48 49 49 48 49 156 154 156 156 154 156 156 154 156 156 154 156 156 154 156 156 154 156 156 154 156 156 154 156 156 154 156 156 154 156 156 154 156 156 154 156 156 154 156 156 154 156 156 154 156 156 154 156 156 154 156 156 154 156 156 154 156 156 154 156 156 154 156 156 154 156 156 154 156 156 154 156 156 154 156 156 154 156 156 154 156 156 154 156 156 154 156 156 154 156 156 154 156 156 154 156 156 154 156 156 154 156 156 154 156 156 154 156 156 154 156 156 154 156 156 154 156 156 154 156 156 154 156 156 154 156 156 154 156 156 154 156 156 154 156 156 154 156 156 154 156 156 154 156 156 154 156 156 154 156 156 154 156 156 154 156 156 154 156 156 154 156 156 154 156 156 154 156 156 154 156 156 154 156 156 154 156 156 154 156 156 154 156 156 154 156 156 154 156 156 154 156 156 154 156 156 154 156 156 154 156 49 48 49 49 48 49 49 48 49 49 48 49 49 48 49 49 48 49 49 48 49 49 48 49 49 48 49 49 48 49 49 48 49 49 48 49 49 48 49 49 48 49 49 48 49 49 48 49 49 48 49 49 48 49 49 48 49 49 48 49 49 48 49 49 48 49 49 48 49 49 48 49 49 48 49 49 48 49 49 48 49 49 48 49 49 48 49
49 48 49 49 48 49 49 48 49 49 48 49 49 48 49 49 48 49 49 48 49 49 48 49 49 48 49 49 48 49 49 48 49 49 48 49 49 48 49 49 48 49 49 48 49 49 48 49 49 48 49 49 48 49 49 48 49 49 48 49 49 48 49 49 48 49 49 48 49 49 48 49 49 48 49 49 48 49 49 48 49 49 48 49 49 48 49 49 48 49 49 48 49 49 48 49 49 48 49 156 154 156 156 154 156 156 154 156 156 154 156 156 154 156 156 154 156 156 154 156 156 154 156 156 154 156 156 154 156 156 154 156 156 154 156 156 154 156 156 154 156 156 154 156 156 154 156 156 154 156 156 154 156 156 154 156 156 154 156 156 154 156 156 154 156 156 154 156 156 154 156 156 154 156 156 154 156 156 154 156 156 154 156 156 154 156 156 154 156 156 154 156 156 154 156 156 154 156 156 154 156 156 154 156 156 154 156 156 154 156 156 154 156 156 154 156 156 154 156 156 154 156 156 154 156 156 154 156 156 154 156 156 154 156 156 154 156 156 154 156 156 154 156 156 154 156 156 154 156 156 154 156 156 154 156 156 154 156 156 154 156 156 154 156 156 154 156 156 154 156 156 154 156 156 154 156 156 154 156 156 154 156 156 154 156 156 154 156 156 154 156 156 154 156 156 154 156 49 48 49 49 48 49 49 48 49 49 48 49 49 48 49 49 48 49 49 48 49 49 48 49 49 48 49 49 48 49 49 48 49 49 48 49 49 48 49 49 48 49 49 48 49 49 48 49 49 48 49 49 48 49 49 48 49 49 48 49 49 48 49 49 48 49 49 48 49 49 48 49 49 48 49 49 48 49 49 48 49 49 48 49 49 48 49
49 48 49 49 48 49 49 48 49 49 48 49 49 48 49 49 48 49 49 48 49 49 48 49 49 48 49 49 48 49 49 48 49 49 48 49 49 48 49 49 48 49 49 48 49 49 48 49 49 48 49 49 48 49 49 48 49 49 48 49 49 48 49 49 48 49 49 48 49 49 48 49 49 48 49 49 48 49 49 48 49 49 48 49 49 48 49 49 48 49 49 48 49 49 48 49 49 48 49 156 154 156 156 154 156 156 154 156 156 154 156 156 154 156 156 154 156 156 154 156 156 154 156 156 154 156 156 154 156 156 154 156 156 154 156 156 154 156 156 154 156 156 154 156 156 154 156 156 154 156 156 154 156 156 154 156 156 154 156 156 154 156 156 154 156 156 154 156 156 154 156 156 154 156 156 154 156 156 154 156 156 154 156 156 154 156 156 154 156 156 154 156 156 154 156 156 154 156 156 154 156 156 158 156 156 158 156 156 158 156 156 158 156 156 158 156 156 158 156 156 154 156 156 154 156 156 154 156 156 154 156 156 154 156 156 154 156 156 154 156 156 154 156 156 154 156 156 154 156 156 154 156 156 154 156 156 154 156 156 154 156 156 154 156 156 154 156 156 154 156 156 154 156 156 154 156 156 154 156 156 154 156 156 154 156 156 154 156 156 154 156 156 154 156 156 154 156 49 48 49 49 48 49 49 48 49 49 48 49 49 48 49 49 48 49 49 48 49 49 48 49 49 48 49 49 48 49 49 48 49 49 48 49 49 48 49 49 48 49 49 48 49 49 48 49 49 48 49 49 48 49 49 48 49 49 48 49 49 48 49 49 48 49 49 48 49 49 48 49 49 48 49 49 48 49 49 48 49 49 48 49 49 48 49
49 48 49 49 48 49 49 48 49 49 48 49 49 48 49 49 48 49 49 48 49 49 48 49 49 48 49 49 48 49 49 48 49 49 48 49 49 48 49 49 48 49 49 48 49 49 48 49 49 48 49 49 48 49 49 48 49 49 48 49 49 48 49 49 48 49 49 48 49 49 48 49 49 48 49 49 48 49 49 48 49 49 48 49 49 48 49 49 48 49 49 48 49 49 48 49 49 48 49 156 154 156 156 154 156 156 154 156 156 154 156 156 154 156 156 154 156 156 154 156 156 154 156 156 154 156 156 154 156 156 154 156 156 154 156 156 154 156 156 154 156 156 154 156 156 154 156 156 154 156 156 154 156 156 154 156 156 154 156 156 154 156 156 154 156 156 154 156 156 154 156 156 154 156 156 154 156 156 154 156 156 154 156 156 154 156 156 154 156 156 154 156 156 158 156 156 158 156 156 158 156 156 158 156 156 158 156 156 158 156 156 158 156 156 158 156 156 158 156 156 158 156 156 158 156 156 158 156 156 158 156 156 158 156 156 158 156 156 158 156 156 154 156 156 154 156 156 154 156 156 154 156 156 154 156 156 154 156 156 154 156 156 154 156 156 154 156 156 154 156 156 154 156 156 154 156 156 154 156 156 154 156 156 154 156 156 154 156 156 154 156 156 154 156 156 154 156 49 48 49 49 48 49 49 48 49 49 48 49 49 48 49 49 48 49 49 48 49 49 48 49 49 48 49 49 48 49 49 48 49 49 48 49 49 48 49 49 48 49 49 48 49 49 48 49 49 48 49 49 48 49 49 48 49 49 48 49 49 48 49 49 48 49 49 48 49 49 48 49 49 48 49 49 48 49 49 48 49 49 48 49 49 48 49
49 48 49 49 48 49 49 48 49 49 48 49 49 48 49 49 48 49 49 48 49 49 48 49 49 48 49 49 48 49 49 48 49 49 48 49 49 48 49 49 48 49 49 48 49 49 48 49 49 48 49 49 48 49 49 48 49 49 48 49 49 48 49 49 48 49 49 48 49 49 48 49 49 48 49 49 48 49 49 48 49 49 48 49 49 48 49 49 48 49 49 48 49 49 48 49 49 48 49 156 154 156 156 154 156 156 154 156 156 154 156 156 154 156 156 154 156 156 154 156 156 154 156 156 154 156 156 154 156 156 154 156 156 154 156 156 154 156 156 154 156 156 154 156 156 154 156 156 154 156 156 154 156 156 154 156 156 154 156 156 154 156 156 154 156 156 154 156 156 154 156 156 154 156 156 154 156 156 154 156 156 154 156 156 158 156 156 158 156 156 158 156 156 158 156 156 158 156 156 158 156 156 158 156 156 158 156 156 158 156 156 158 156 165 162 165 165 162 165 165 162 165 165 162 165 156 158 156 156 158 156 156 158 156 156 158 156 156 158 156 156 158 156 156 158 156 156 154 156 156 154 156 156 154 156 156 154 156 156 154 156 156 154 156 156 154 156 156 154 156 156 154 156 140 150 148 140 146 148 148 154 156 156 154 156 156 154 156 156 154 156 156 154 156 156 154 156 49 48 49 49 48 49 49 48 49 49 48 49 49 48 49 49 48 49 49 48 49 49 48 49 49 48 49 49 48 49 49 48 49 49 48 49 49 48 49 49 48 49 49 48 49 49 48 49 49 48 49 49 48 49 49 48 49 49 48 49 49 48 49 49 48 49 49 48 49 49 48 49 49 48 49 49 48 49 49 48 49 49 48 49 49 48 49
49 48 49 49 48 49 49 48 49 49 48 49 49 48 49 49 48 49 49 48 49 49 48 49 49 48 49 49 48 49 49 48 49 49 48 49 49 48 49 49 48 49 49 48 49 49 48 49 49 48 49 49 48 49 49 48 49 49 48 49 49 48 49 49 48 49 49 48 49 49 48 49 49 48 49 49 48 49 49 48 49 49 48 49 49 48 49 49 48 49 49 48 49 49 48 49 49 48 49 156 154 156 156 154 156 156 154 156 156 154 156 156 154 156 156 154 156 156 154 156 156 154 156 156 154 156 156 154 156 156 154 156 156 154 156 156 154 156 156 154 156 156 154 156 156 154 156 156 154 156 156 154 156 156 154 156 156 154 156 156 154 156 156 154 156 156 154 156 156 154 156 156 154 156 156 154 156 156 158 156 156 158 156 156 158 156 156 158 156 156 158 156 140 154 156 140 154 156 148 154 156 148 154 156 148 154 156 148 154 156 148 154 156 165 170 173 156 162 165 156 162 165 156 162 165 148 162 165 148 158 165 148 158 156 148 158 156 148 158 156 148 154 156 148 154 156 148 154 156 140 154 156 140 150 156 140 150 148 140 150 148 57 121 132 49 117 123 49 117 123 49 113 123 49 105 115 41 101 107 66 105 107 148 154 156 156 154 156 156 154 156 156 154 156 49 48 49 49 48 49 49 48 49 49 48 49 49 48 49 49 48 49 49 48 49 49 48 49 49 48 49 49 48 49 49 48 49 49 48 49 49 48 49 49 48 49 49 48 49 49 48 49 49 48 49 49 48 49 49 48 49 49 48 49 49 48 49 49 48 49 49 48 49 49 48 49 49 48 49 49 48 49 49 48 49 49 48 49 49 48 49 49 48 49
49 48 49 49 48 49 49 48 49 49 48 49 49 48 49 49 48 49 49 48 49 49 48 49 49 48 49 49 48 49 49 48 49 49 48 49 49 48 49 49 48 49 49 48 49 49 48 49 49 48 49 49 48 49 49 48 49 49 48 49 49 48 49 49 48 49 49 48 49 49 48 49 49 48 49 49 48 49 49 48 49 49 48 49 49 48 49 49 48 49 49 48 49 49 48 49 49 48 49 156 154 156 156 154 156 156 154 156 156 154 156 156 154 156 156 154 156 148 154 156 140 150 156 140 150 156 140 150 156 140 150 156 140 150 156 140 150 156 140 150 156 140 150 156 140 150 156 140 150 156 140 150 156 140 150 156 140 150 156 140 150 156 140 150 156 140 150 156 140 150 156 140 150 156 24 130 140 24 125 140 24 125 132 24 125 132 24 121 132 24 121 123 24 121 123 24 117 123 24 113 123 24 109 115 24 105 115 16 101 107 16 97 99 148 166 173 140 174 181 107 162 165 107 158 165 107 158 165 99 154 156 99 154 156 90 150 156 90 146 156 82 146 148 82 142 148 82 142 148 66 134 140 66 130 140 66 125 132 57 125 132 57 121 132 49 117 123 49 117 123 49 109 115 49 105 115 49 105 107 41 101 107 140 146 148 156 154 156 156 154 156 156 154 156 49 48 49 49 48 49 49 48 49 49 48 49 49 48 49 49 48 49 49 48 49 49 48 49 49 48 49 49 48 49 49 48 49 49 48 49 49 48 49 49 48 49 49 48 49 49 48 49 49 48 49 49 48 49 49 48 49 49 48 49 49 48 49 49 48 49 49 48 49 49 48 49 49 48 49 49 48 49 49 48 49 49 48 49 49 48 49 49 48 49
49 48 49 49 48 49 49 48 49 49 48 49 49 48 49 49 48 49 49 48 49 49 48 49 49 48 49 49 48 49 49 48 49 49 48 49 49 48 49 49 48 49 49 48 49 49 48 49 49 48 49 49 48 49 49 48 49 49 48 49 49 48 49 49 48 49 49 48 49 49 48 49 49 48 49 49 48 49 49 48 49 49 48 49 49 48 49 49 48 49 49 48 49 49 48 49 49 48 49 156 154 156 156 154 156 156 154 156 156 154 156 156 154 156 148 154 156 49 138 148 33 138 148 33 138 148 33 138 148 33 138 148 33 138 148 33 138 148 33 138 148 33 138 148 33 138 148 33 138 148 33 138 148 33 138 148 33 134 140 33 134 140 33 134 140 33 134 140 33 134 140 24 130 140 24 130 140 24 130 140 24 125 132 24 125 132 24 125 132 24 121 132 24 121 123 24 117 123 24 113 123 24 109 115 24 105 115 16 101 107 16 97 107 24 93 99 173 186 189 140 174 181 115 162 173 115 162 173 115 162 165 115 162 165 115 158 165 107 154 165 99 150 156 90 146 156 74 138 148 74 134 140 66 130 140 66 130 132 57 125 132 57 121 132 57 121 123 49 113 123 49 109 115 49 105 115 49 105 107 41 101 107 140 146 148 156 154 156 156 154 156 156 154 156 49 48 49 49 48 49 49 48 49 49 48 49 49 48 49 49 48 49 49 48 49 49 48 49 49 48 49 49 48 49 49 48 49 49 48 49 49 48 49 49 48 49 49 48 49 49 48 49 49 48 49 49 48 49 49 48 49 49 48 49 49 48 49 49 48 49 49 48 49 49 48 49 49 48 49 49 48 49 49 48 49 49 48 49 49 48 49 49 48 49
49 48 49 49 48 49 49 48 49 49 48 49 49 48 49 49 48 49 49 48 49 49 48 49 49 48 49 49 48 49 49 48 49 49 48 49 49 48 49 49 48 49 49 48 49 49 48 49 49 48 49 49 48 49 49 48 49 49 48 49 49 48 49 49 48 49 49 48 49 49 48 49 49 48 49 49 48 49 49 48 49 49 48 49 49 48 49 49 48 49 49 48 49 49 48 49 49 48 49 156 154 156 156 154 156 156 154 156 156 154 156 156 154 156 140 150 156 33 138 148 33 138 148 33 138 148 33 138 148 33 138 148 33 138 148 33 138 148 33 138 148 33 138 148 33 138 148 33 138 148 33 138 148 33 138 148 33 134 140 33 134 140 33 134 140 33 134 140 33 134 140 24 130 140 24 130 140 24 130 140 24 125 132 24 125 132 24 125 132 24 121 132 24 121 123 24 117 123 24 113 123 24 109 115 24 105 115 16 101 107 16 97 107 16 93 99 16 85 90 132 146 148 132 146 148 189 199 198 132 170 173 132 166 173 123 162 165 115 158 165 107 154 156 90 146 148 82 142 148 82 138 148 90 142 148 74 134 140 57 125 132 57 121 132 49 117 123 49 113 123 49 109 115 49 105 115 49 105 107 41 101 107 140 146 148 156 154 156 156 154 156 156 154 156 49 48 49 49 48 49 49 48 49 49 48 49 49 48 49 49 48 49 49 48 49 49 48 49 49 48 49 49 48 49 49 48 49 49 48 49 49 48 49 49 48 49 49 48 49 49 48 49 49 48 49 49 48 49 49 48 49 49 48 49 49 48 49 49 48 49 49 48 49 49 48 49 49 48 49 49 48 49 49 48 49 49 48 49 49 48 49 49 48 49
49 48 49 49 48 49 49 48 49 49 48 49 49 48 49 49 48 49 49 48 49 49 48 49 49 48 49 49 48 49 49 48 49 49 48 49 49 48 49 49 48 49 49 48 49 49 48 49 49 48 49 49 48 49 49 48 49 49 48 49 49 48 49 49 48 49 49 48 49 49 48 49 49 48 49 49 48 49 49 48 49 49 48 49 49 48 49 49 48 49 49 48 49 49 48 49 49 48 49 156 154 156 156 154 156 156 154 156 156 154 156 156 154 156 140 150 156 33 138 148 33 138 148 33 138 148 33 138 148 33 138 148 33 138 148 33 138 148 33 138 148 33 138 148 33 138 148 33 138 148 33 138 148 33 138 148 33 134 140 33 134 140 33 134 140 33 134 140 33 134 140 24 130 140 24 130 140 24 130 140 24 125 140 24 125 132 24 125 132 24 121 132 24 121 123 24 117 123 24 113 123 24 109 115 24 105 115 16 101 107 16 97 107 16 93 99 16 85 90 16 85 90 16 77 82 198 199 206 156 182 189 140 170 173 132 166 173 123 162 165 123 162 165 181 190 198 206 211 214 222 219 222 214 215 214 222 219 222 222 219 222 222 219 222 165 178 181 57 113 123 49 109 115 49 105 115 49 105 107 41 101 107 156 154 156 156 154 156 156 154 156 156 154 156 49 48 49 49 48 49 49 48 49 49 48 49 49 48 49 49 48 49 49 48 49 49 48 49 49 48 49 49 48 49 49 48 49 49 48 49 49 48 49 49 48 49 49 48 49 49 48 49 49 48 49 49 48 49 49 48 49 49 48 49 49 48 49 49 48 49 49 48 49 49 48 49 49 48 49 49 48 49 49 48 49 49 48 49 49 48 49 49 48 49
49 48 49 49 48 49 49 48 49 49 48 49 49 48 49 49 48 49 49 48 49 49 48 49 49 48 49 49 48 49 49 48 49 49 48 49 49 48 49 49 48 49 49 48 49 49 48 49 49 48 49 49 48 49 49 48 49 49 48 49 49 48 49 49 48 49 49 48 49 49 48 49 49 48 49 49 48 49 49 48 49 49 48 49 49 48 49 49 48 49 49 48 49 49 48 49 49 48 49 49 48 49 156 154 156 156 154 156 156 154 156 156 154 156 140 150 156 33 138 148 33 138 148 33 138 148 33 138 148 33 138 148 33 138 148 33 138 148 33 138 148 33 138 148 33 138 148 33 138 148 33 138 148 33 138 148 33 134 140 33 134 140 33 134 140 33 134 140 33 134 140 24 130 140 24 130 140 24 130 140 24 125 140 24 125 132 24 125 132 24 121 132 24 121 123 24 117 123 24 113 123 24 109 115 24 105 115 16 101 107 16 97 107 16 97 107 16 93 99 16 85 90 16 77 82 132 146 148 198 203 206 148 174 181 140 170 173 181 195 198 222 219 222 189 199 206 140 170 173 99 146 148 82 138 140 82 134 140 181 195 198 222 219 222 222 219 222 173 182 189 49 109 115 49 105 115 49 105 107 140 146 148 156 154 156 156 154 156 156 154 156 156 154 156 49 48 49 49 48 49 49 48 49 49 48 49 49 48 49 49 48 49 49 48 49 49 48 49 49 48 49 49 48 49 49 48 49 49 48 49 49 48 49 49 48 49 49 48 49 49 48 49 49 48 49 49 48 49 49 48 49 49 48 49 49 48 49 49 48 49 49 48 49 49 48 49 49 48 49 49 48 49 49 48 49 49 48 49 49 48 49 49 48 49
49 48 49 49 48 49 49 48 49 49 48 49 49 48 49 49 48 49 49 48 49 49 48 49 49 48 49 49 48 49 49 48 49 49 48 49 49 48 49 49 48 49 49 48 49 49 48 49 49 48 49 49 48 49 49 48 49 49 48 49 49 48 49 49 48 49 49 48 49 49 48 49 49 48 49 49 48 49 49 48 49 49 48 49 49 48 49 49 48 49 49 48 49 49 48 49 49 48 49 49 48 49 156 154 156 156 154 156 156 154 156 156 154 156 140 150 156 33 138 148 33 138 148 33 138 148 33 138 148 33 138 148 33 138 148 33 138 148 33 138 148 33 138 148 33 138 148 33 138 148 33 138 148 33 138 148 33 134 140 33 134 140 33 134 140 33 134 140 33 134 140 33 134 140 24 130 140 24 130 140 24 125 140 24 125 132 24 125 132 24 121 132 24 121 123 24 117 123 24 113 123 24 109 115 24 105 115 16 101 107 16 101 107 16 97 107 16 93 99 16 85 90 16 77 82 33 77 82 181 182 181 189 199 198 222 219 222 214 219 222 156 178 181 115 154 156 99 150 156 90 142 148 82 138 140 66 130 132 66 125 132 132 154 156 214 215 214 189 195 198 49 109 115 49 105 107 41 101 107 140 146 148 156 154 156 156 154 156 156 154 156 156 154 156 49 48 49 49 48 49 49 48 49 49 48 49 49 48 49 49 48 49 49 48 49 49 48 49 49 48 49 49 48 49 49 48 49 49 48 49 49 48 49 49 48 49 49 48 49 49 48 49 49 48 49 49 48 49 49 48 49 49 48 49 49 48 49 49 48 49 49 48 49 49 48 49 49 48 49 49 48 49 49 48 49 49 48 49 49 48 49 49 48 49
49 48 49 49 48 49 49 48 49 49 48 49 49 48 49 49 48 49 49 48 49 49 48 49 49 48 49 49 48 49 49 48 49 49 48 49 49 48 49 49 48 49 49 48 49 49 48 49 49 48 49 49 48 49 49 48 49 49 48 49 49 48 49 49 48 49 49 48 49 49 48 49 49 48 49 49 48 49 49 48 49 49 48 49 49 48 49 49 48 49 49 48 49 49 48 49 49 48 49 49 48 49 156 154 156 156 154 156 156 154 156 156 154 156 140 150 156 33 138 148 33 138 148 33 138 148 33 138 148 33 138 148 33 138 148 33 138 148 33 138 148 33 138 148 33 138 148 33 138 148 33 138 148 33 138 148 33 134 140 33 134 140 33 134 140 33 134 140 33 134 140 33 134 140 24 130 140 24 130 140 24 125 140 24 125 132 24 125 132 24 121 132 24 121 123 24 117 123 24 113 123 24 109 115 24 109 115 24 105 115 16 101 107 16 97 107 16 93 99 16 85 90 16 77 82 16 69 74 140 146 148 222 219 222 222 219 222 165 182 189 123 162 165 115 158 165 107 150 156 90 142 148 74 134 140 66 130 132 66 125 132 57 121 123 49 117 123 115 142 148 49 105 115 49 105 107 41 101 107 140 146 148 156 154 156 156 154 156 156 154 156 156 154 156 49 48 49 49 48 49 49 48 49 49 48 49 49 48 49 49 48 49 49 48 49 49 48 49 49 48 49 49 48 49 49 48 49 49 48 49 49 48 49 49 48 49 49 48 49 49 48 49 49 48 49 49 48 49 49 48 49 49 48 49 49 48 49 49 48 49 49 48 49 49 48 49 49 48 49 49 48 49 49 48 49 49 48 49 49 48 49 49 48 49
49 48 49 49 48 49 49 48 49 49 48 49 49 48 49 49 48 49 49 48 49 49 48 49 49 48 49 49 48 49 49 48 49 49 48 49 49 48 49 49 48 49 49 48 49 49 48 49 49 48 49 49 48 49 49 48 49 49 48 49 49 48 49 49 48 49 49 48 49 49 48 49 49 48 49 49 48 49 49 48 49 49 48 49 49 48 49 49 48 49 49 48 49 49 48 49 49 48 49 49 48 49 156 154 156 156 154 156 156 154 156 156 154 156 140 150 156 33 138 148 33 138 148 33 138 148 33 138 148 33 138 148 33 138 148 33 138 148 33 138 148 33 138 148 33 138 148 33 138 148 33 138 148 33 138 148 33 134 140 33 134 140 33 134 140 33 134 140 33 134 140 33 134 140 24 130 140 24 130 140 24 130 140 24 125 132 24 125 132 24 121 132 24 121 123 24 117 123 24 113 123 24 113 123 24 109 115 24 105 115 16 101 107 16 97 107 16 93 99 16 85 90 16 77 82 16 69 74 222 219 222 222 219 222 198 203 206 148 170 173 132 166 173 123 158 165 115 154 156 90 138 148 82 134 140 74 130 140 66 125 132 57 121 123 49 117 123 49 109 115 49 105 115 49 105 107 41 101 107 140 146 148 156 154 156 156 154 156 156 154 156 49 48 49 49 48 49 49 48 49 49 48 49 49 48 49 49 48 49 49 48 49 49 48 49 49 48 49 49 48 49 49 48 49 49 48 49 49 48 49 49 48 49 49 48 49 49 48 49 49 48 49 49 48 49 49 48 49 49 48 49 49 48 49 49 48 49 49 48 49 49 48 49 49 48 49 49 48 49 49 48 49 49 48 49 49 48 49 49 48 49 49 48 49
49 48 49 49 48 49 49 48 49 49 48 49 49 48 49 49 48 49 49 48 49 49 48 49 49 48 49 49 48 49 49 48 49 49 48 49 49 48 49 49 48 49 49 48 49 49 48 49 49 48 49 49 48 49 49 48 49 49 48 49 49 48 49 49 48 49 49 48 49 49 48 49 49 48 49 49 48 49 49 48 49 49 48 49 49 48 49 49 48 49 49 48 49 49 48 49 49 48 49 49 48 49 156 154 156 156 154 156 156 154 156 156 154 156 140 150 156 140 150 156 33 138 148 33 138 148 33 138 148 33 138 148 33 138 148 33 138 148 33 138 148 33 138 148 33 138 148 33 138 148 33 138 148 33 138 148 33 138 148 33 134 140 33 134 140 33 134 140 74 142 148 57 138 148 24 130 140 90 146 156 57 134 140 24 125 132 24 125 132 24 121 132 57 125 132 57 125 132 57 125 132 24 113 123 24 109 115 24 105 115 74 121 123 148 162 165 148 158 165 66 101 107 16 77 82 33 69 74 222 219 222 222 219 222 165 182 189 148 174 181 140 166 173 123 162 165 99 146 156 90 142 148 82 134 140 74 130 140 66 125 132 57 121 123 49 113 123 49 109 115 49 105 115 49 105 107 41 101 107 140 146 148 156 154 156 156 154 156 156 154 156 49 48 49 49 48 49 49 48 49 49 48 49 49 48 49 49 48 49 49 48 49 49 48 49 49 48 49 49 48 49 49 48 49 49 48 49 49 48 49 49 48 49 49 48 49 49 48 49 49 48 49 49 48 49 49 48 49 49 48 49 49 48 49 49 48 49 49 48 49 49 48 49 49 48 49 49 48 49 49 48 49 49 48 49 49 48 49 49 48 49 49 48 49
49 48 49 49 48 49 49 48 49 49 48 49 49 48 49 49 48 49 49 48 49 49 48 49 49 48 49 49 48 49 49 48 49 49 48 49 49 48 49 49 48 49 49 48 49 49 48 49 49 48 49 49 48 49 49 48 49 49 48 49 49 48 49 49 48 49 49 48 49 49 48 49 49 48 49 49 48 49 49 48 49 49 48 49 49 48 49 49 48 49 49 48 49 49 48 49 49 48 49 49 48 49 156 154 156 156 154 156 156 154 156 156 154 156 156 154 156 140 150 156 33 138 148 33 138 148 33 138 148 33 138 148 115 162 165 33 138 148 33 138 148 33 138 148 33 138 148 115 158 165 33 138 148 33 138 148 82 150 156 148 174 181 33 134 140 33 134 140 107 154 165 189 199 198 41 134 140 140 170 173 90 146 148 24 125 132 24 125 132 24 121 132 24 121 132 148 170 173 148 170 173 24 113 123 24 109 115 24 105 115 115 142 148 132 150 156 82 117 123 148 162 165 16 69 74 0 56 57 206 207 206 214 215 214 165 182 189 148 174 181 123 162 165 115 154 156 99 146 156 90 142 148 82 134 140 74 130 140 66 125 132 49 117 123 49 113 123 49 109 115 49 105 115 49 105 107 41 101 107 140 146 148 156 154 156 156 154 156 156 154 156 49 48 49 49 48 49 49 48 49 49 48 49 49 48 49 49 48 49 49 48 49 49 48 49 49 48 49 49 48 49 49 48 49 49 48 49 49 48 49 49 48 49 49 48 49 49 48 49 49 48 49 49 48 49 49 48 49 49 48 49 49 48 49 49 48 49 49 48 49 49 48 49 49 48 49 49 48 49 49 48 49 49 48 49 49 48 49 49 48 49 49 48 49
49 48 49 49 48 49 49 48 49 49 48 49 49 48 49 49 48 49 49 48 49 49 48 49 49 48 49 49 48 49 49 48 49 49 48 49 49 48 49 49 48 49 49 48 49 49 48 49 49 48 49 49 48 49 49 48 49 49 48 49 49 48 49 49 48 49 49 48 49 49 48 49 49 48 49 49 48 49 49 48 49 49 48 49 49 48 49 49 48 49 49 48 49 49 48 49 49 48 49 49 48 49 156 154 156 156 154 156 156 154 156 156 154 156 156 154 156 140 150 156 33 138 148 33 138 148 33 138 148 33 138 148 165 186 189 33 138 148 33 138 148 33 138 148 33 138 148 33 138 148 165 186 189 33 138 148 82 150 156 148 174 181 33 134 140 33 134 140 107 154 165 156 182 181 165 186 189 140 170 173 90 146 148 24 125 132 24 125 132 24 125 132 33 121 132 173 182 189 173 182 189 24 113 123 24 109 115 24 105 115 115 142 148 123 146 148 181 182 189 16 77 82 16 69 74 0 56 57 206 207 214 214 215 214 165 182 189 140 170 173 123 162 165 115 154 156 99 146 156 90 142 148 82 134 140 74 130 140 99 138 148 132 158 165 115 142 148 49 109 115 49 105 115 49 105 107 41 101 107 156 154 156 156 154 156 156 154 156 156 154 156 49 48 49 49 48 49 49 48 49 49 48 49 49 48 49 49 48 49 49 48 49 49 48 49 49 48 49 49 48 49 49 48 49 49 48 49 49 48 49 49 48 49 49 48 49 49 48 49 49 48 49 49 48 49 49 48 49 49 48 49 49 48 49 49 48 49 49 48 49 49 48 49 49 48 49 49 48 49 49 48 49 49 48 49 49 48 49 49 48 49 49 48 49
49 48 49 49 48 49 49 48 49 49 48 49 49 48 49 49 48 49 49 48 49 49 48 49 49 48 49 49 48 49 49 48 49 49 48 49 49 48 49 49 48 49 49 48 49 49 48 49 49 48 49 49 48 49 49 48 49 49 48 49 49 48 49 49 48 49 49 48 49 49 48 49 49 48 49 49 48 49 49 48 49 49 48 49 49 48 49 49 48 49 49 48 49 49 48 49 49 48 49 49 48 49 156 154 156 156 154 156 156 154 156 156 154 156 156 154 156 140 150 156 33 138 148 33 138 148 33 138 148 33 138 148 165 186 189 33 138 148 33 138 148 33 138 148 33 138 148 33 138 148 165 186 189 33 138 148 90 150 156 140 174 181 33 134 140 33 134 140 107 154 165 132 166 173 115 158 165 198 203 206 90 146 148 90 146 148 24 125 132 24 125 132 165 178 181 41 121 132 33 117 123 165 178 181 24 109 115 24 105 115 107 138 140 74 109 115 165 174 173 33 81 90 16 69 74 16 60 66 214 215 214 222 219 222 148 174 181 140 166 173 123 158 165 107 154 156 99 146 148 90 138 148 82 134 140 66 125 132 156 174 181 222 219 222 189 195 198 49 109 115 49 105 115 49 105 107 140 146 148 156 154 156 156 154 156 156 154 156 156 154 156 49 48 49 49 48 49 49 48 49 49 48 49 49 48 49 49 48 49 49 48 49 49 48 49 49 48 49 49 48 49 49 48 49 49 48 49 49 48 49 49 48 49 49 48 49 49 48 49 49 48 49 49 48 49 49 48 49 49 48 49 49 48 49 49 48 49 49 48 49 49 48 49 49 48 49 49 48 49 49 48 49 49 48 49 49 48 49 49 48 49 49 48 49
49 48 49 49 48 49 49 48 49 49 48 49 49 48 49 49 48 49 49 48 49 49 48 49 49 48 49 49 48 49 49 48 49 49 48 49 49 48 49 49 48 49 49 48 49 49 48 49 49 48 49 49 48 49 49 48 49 49 48 49 49 48 49 49 48 49 49 48 49 49 48 49 49 48 49 49 48 49 49 48 49 49 48 49 49 48 49 49 48 49 49 48 49 49 48 49 49 48 49 49 48 49 49 48 49 156 154 156 156 154 156 156 154 156 156 154 156 140 150 156 33 138 148 33 138 148 33 138 148 33 138 148 181 199 198 165 186 189 165 186 189 49 142 148 33 138 148 33 138 148 132 166 173 165 186 189 173 190 189 74 146 148 33 134 140 33 134 140 33 134 140 33 134 140 24 130 140 24 130 140 24 130 140 24 125 140 24 125 132 24 125 132 24 121 132 24 121 123 24 117 123 24 113 123 24 109 115 24 105 115 16 101 107 16 93 99 16 85 90 16 77 82 16 69 74 123 130 132 222 219 222 214 219 222 148 174 181 132 166 173 123 158 165 107 150 156 99 146 148 90 138 148 66 130 132 66 125 132 156 174 181 222 219 222 189 195 198 49 109 115 49 105 115 41 101 107 140 146 148 156 154 156 156 154 156 156 154 156 156 154 156 49 48 49 49 48 49 49 48 49 49 48 49 49 48 49 49 48 49 49 48 49 49 48 49 49 48 49 49 48 49 49 48 49 49 48 49 49 48 49 49 48 49 49 48 49 49 48 49 49 48 49 49 48 49 49 48 49 49 48 49 49 48 49 49 48 49 49 48 49 49 48 49 49 48 49 49 48 49 49 48 49 49 48 49 49 48 49 49 48 49 49 48 49
49 48 49 49 48 49 49 48 49 49 48 49 49 48 49 49 48 49 49 48 49 49 48 49 49 48 49 49 48 49 49 48 49 49 48 49 49 48 49 49 48 49 49 48 49 49 48 49 49 48 49 49 48 49 49 48 49 49 48 49 49 48 49 49 48 49 49 48 49 49 48 49 49 48 49 49 48 49 49 48 49 49 48 49 49 48 49 49 48 49 49 48 49 49 48 49 49 48 49 49 48 49 49 48 49 156 154 156 156 154 156 156 154 156 156 154 156 140 150 156 33 138 148 33 138 148 33 138 148 33 138 148 33 138 148 33 138 148 33 138 148 33 138 148 33 138 148 33 138 148 33 138 148 33 138 148 33 138 148 33 134 140 33 134 140 33 134 140 33 134 140 33 134 140 33 134 140 24 130 140 24 130 140 24 130 140 24 125 132 24 125 132 24 121 132 24 121 123 24 117 123 24 113 123 24 109 115 24 105 115 16 97 107 16 93 99 16 85 90 16 77 82 16 69 74 165 166 165 214 215 214 222 219 222 206 211 214 132 166 173 115 154 165 107 150 156 90 142 148 74 134 140 66 130 132 66 125 132 156 174 181 222 219 222 189 195 198 49 109 115 49 105 107 41 101 107 140 146 148 156 154 156 156 154 156 156 154 156 156 154 156 49 48 49 49 48 49 49 48 49 49 48 49 49 48 49 49 48 49 49 48 49 49 48 49 49 48 49 49 48 49 49 48 49 49 48 49 49 48 49 49 48 49 49 48 49 49 48 49 49 48 49 49 48 49 49 48 49 49 48 49 49 48 49 49 48 49 49 48 49 49 48 49 49 48 49 49 48 49 49 48 49 49 48 49 49 48 49 49 48 49 49 48 49
49 48 49 49 48 49 49 48 49 49 48 49 49 48 49 49 48 49 49 48 49 49 48 49 49 48 49 49 48 49 49 48 49 49 48 49 49 48 49 49 48 49 49 48 49 49 48 49 49 48 49 49 48 49 49 48 49 49 48 49 49 48 49 49 48 49 49 48 49 49 48 49 49 48 49 49 48 49 49 48 49 49 48 49 49 48 49 49 48 49 49 48 49 49 48 49 49 48 49 49 48 49 49 48 49 156 154 156 156 154 156 156 154 156 156 154 156 140 150 156 33 138 148 33 138 148 33 138 148 33 138 148 33 138 148 33 138 148 33 138 148 33 138 148 33 138 148 33 138 148 33 138 148 33 138 148 33 138 148 33 134 140 33 134 140 33 134 140 33 134 140 33 134 140 33 134 140 24 130 140 24 130 140 24 130 140 24 125 132 24 125 132 24 121 132 24 121 123 24 117 123 24 113 123 24 105 115 16 101 107 16 97 107 16 93 99 16 85 90 16 77 82 8 69 74 173 190 198 165 186 189 214 219 222 222 219 222 206 211 214 148 174 173 99 146 156 173 182 189 181 190 189 206 207 206 222 219 222 222 219 222 206 211 214 107 138 140 49 105 115 49 105 107 41 101 107 140 146 148 156 154 156 156 154 156 156 154 156 49 48 49 49 48 49 49 48 49 49 48 49 49 48 49 49 48 49 49 48 49 49 48 49 49 48 49 49 48 49 49 48 49 49 48 49 49 48 49 49 48 49 49 48 49 49 48 49 49 48 49 49 48 49 49 48 49 49 48 49 49 48 49 49 48 49 49 48 49 49 48 49 49 48 49 49 48 49 49 48 49 49 48 49 49 48 49 49 48 49 49 48 49 49 48 49
49 48 49 49 48 49 49 48 49 49 48 49 49 48 49 49 48 49 49 48 49 49 48 49 49 48 49 49 48 49 49 48 49 49 48 49 49 48 49 49 48 49 49 48 49 49 48 49 49 48 49 49 48 49 49 48 49 49 48 49 49 48 49 49 48 49 49 48 49 49 48 49 49 48 49 49 48 49 49 48 49 49 48 49 49 48 49 49 48 49 49 48 49 49 48 49 49 48 49 49 48 49 49 48 49 156 154 156 156 154 156 156 154 156 156 154 156 140 150 156 33 138 148 33 138 148 33 138 148 33 138 148 33 138 148 33 138 148 33 138 148 33 138 148 33 138 148 33 138 148 33 138 148 33 138 148 33 138 148 33 134 140 33 134 140 33 134 140 33 134 140 33 134 140 33 134 140 24 130 140 24 130 140 24 125 140 24 125 132 24 125 132 24 121 132 24 121 123 24 117 123 24 109 115 24 105 115 16 101 107 16 97 107 16 93 99 16 85 90 16 77 82 206 211 214 156 178 181 148 174 181 156 178 181 123 162 165 173 190 198 214 215 214 222 219 222 222 219 222 222 219 222 222 219 222 214 215 214 165 178 181 66 121 132 49 109 115 49 105 115 49 105 107 41 101 107 140 146 148 156 154 156 156 154 156 156 154 156 49 48 49 49 48 49 49 48 49 49 48 49 49 48 49 49 48 49 49 48 49 49 48 49 49 48 49 49 48 49 49 48 49 49 48 49 49 48 49 49 48 49 49 48 49 49 48 49 49 48 49 49 48 49 49 48 49 49 48 49 49 48 49 49 48 49 49 48 49 49 48 49 49 48 49 49 48 49 49 48 49 49 48 49 49 48 49 49 48 49 49 48 49 49 48 49
49 48 49 49 48 49 49 48 49 49 48 49 49 48 49 49 48 49 49 48 49 49 48 49 49 48 49 49 48 49 49 48 49 49 48 49 49 48 49 49 48 49 49 48 49 49 48 49 49 48 49 49 48 49 49 48 49 49 48 49 49 48 49 49 48 49 49 48 49 49 48 49 49 48 49 49 48 49 49 48 49 49 48 49 49 48 49 49 48 49 49 48 49 49 48 49 49 48 49 49 48 49 49 48 49 156 154 156 156 154 156 156 154 156 156 154 156 140 150 156 33 138 148 33 138 148 33 138 148 33 138 148 33 138 148 33 138 148 33 138 148 33 138 148 33 138 148 33 138 148 33 138 148 33 138 148 33 138 148 33 134 140 33 134 140 33 134 140 33 134 140 33 134 140 33 134 140 24 130 140 24 130 140 24 125 140 24 125 132 24 125 132 24 121 132 24 121 123 24 113 123 24 109 115 24 105 115 16 101 107 16 97 107 16 93 99 16 85 90 206 207 214 140 174 181 140 170 173 132 166 173 123 162 165 115 158 165 107 150 156 140 166 173 165 178 181 165 182 189 156 174 181 132 158 165 66 125 132 57 121 123 49 113 123 49 109 115 49 105 115 49 105 107 41 101 107 140 146 148 156 154 156 156 154 156 156 154 156 49 48 49 49 48 49 49 48 49 49 48 49 49 48 49 49 48 49 49 48 49 49 48 49 49 48 49 49 48 49 49 48 49 49 48 49 49 48 49 49 48 49 49 48 49 49 48 49 49 48 49 49 48 49 49 48 49 49 48 49 49 48 49 49 48 49 49 48 49 49 48 49 49 48 49 49 48 49 49 48 49 49 48 49 49 48 49 49 48 49 49 48 49 49 48 49
49 48 49 49 48 49 49 48 49 49 48 49 49 48 49 49 48 49 49 48 49 49 48 49 49 48 49 49 48 49 49 48 49 49 48 49 49 48 49 49 48 49 49 48 49 49 48 49 49 48 49 49 48 49 49 48 49 49 48 49 49 48 49 49 48 49 49 48 49 49 48 49 49 48 49 49 48 49 49 48 49 49 48 49 49 48 49 49 48 49 49 48 49 49 48 49 49 48 49 49 48 49 49 48 49 156 154 156 156 154 156 156 154 156 156 154 156 156 154 156 140 150 156 33 138 148 33 138 148 33 138 148 33 138 148 33 138 148 33 138 148 33 138 148 33 138 148 33 138 148 33 138 148 33 138 148 33 138 148 33 138 148 33 134 140 33 134 140 33 134 140 33 134 140 33 134 140 24 130 140 24 130 140 24 125 140 24 125 132 24 125 132 24 121 132 24 117 123 24 113 123 24 109 115 24 105 115 16 101 107 16 97 107 16 93 99 181 190 189 156 182 189 132 170 173 123 166 173 123 162 165 115 158 165 107 154 156 90 146 148 82 142 148 74 138 140 66 134 140 66 130 140 57 125 132 57 121 132 49 117 123 49 113 123 49 109 115 49 105 115 49 105 107 41 101 107 156 154 156 156 154 156 156 154 156 156 154 156 49 48 49 49 48 49 49 48 49 49 48 49 49 48 49 49 48 49 49 48 49 49 48 49 49 48 49 49 48 49 49 48 49 49 48 49 49 48 49 49 48 49 49 48 49 49 48 49 49 48 49 49 48 49 49 48 49 49 48 49 49 48 49 49 48 49 49 48 49 49 48 49 49 48 49 49 48 49 49 48 49 49 48 49 49 48 49 49 48 49 49 48 49 49 48 49
49 48 49 49 48 49 49 48 49 49 48 49 49 48 49 49 48 49 49 48 49 49 48 49 49 48 49 49 48 49 49 48 49 49 48 49 49 48 49 49 48 49 49 48 49 49 48 49 49 48 49 49 48 49 49 48 49 49 48 49 49 48 49 49 48 49 49 48 49 49 48 49 49 48 49 49 48 49 49 48 49 49 48 49 49 48 49 49 48 49 49 48 49 49 48 49 49 48 49 49 48 49 49 48 49 156 154 156 156 154 156 156 154 156 156 154 156 156 154 156 140 150 156 33 138 148 33 138 148 33 138 148 33 138 148 33 138 148 33 138 148 33 138 148 33 138 148 33 138 148 33 138 148 33 138 148 33 138 148 33 138 148 33 134 140 33 134 140 33 134 140 33 134 140 33 134 140 24 130 140 24 130 140 24 125 140 24 125 132 24 125 132 24 121 123 24 117 123 24 113 123 24 109 115 24 105 115 16 101 107 16 97 107 140 154 156 173 190 198 132 166 173 123 166 173 115 162 165 115 158 165 107 154 156 90 146 156 82 142 148 74 138 148 66 134 140 66 130 140 57 125 132 57 125 132 49 117 123 49 117 123 49 113 123 49 109 115 49 105 115 49 105 107 140 150 148 156 154 156 156 154 156 156 154 156 156 154 156 49 48 49 49 48 49 49 48 49 49 48 49 49 48 49 49 48 49 49 48 49 49 48 49 49 48 49 49 48 49 49 48 49 49 48 49 49 48 49 49 48 49 49 48 49 49 48 49 49 48 49 49 48 49 49 48 49 49 48 49 49 48 49 49 48 49 49 48 49 49 48 49 49 48 49 49 48 49 49 48 49 49 48 49 49 48 49 49 48 49 49 48 49 49 48 49
49 48 49 49 48 49 49 48 49 49 48 49 49 48 49 49 48 49 49 48 49 49 48 49 49 48 49 49 48 49 49 48 49 49 48 49 49 48 49 49 48 49 49 48 49 49 48 49 49 48 49 49 48 49 49 48 49 49 48 49 49 48 49 49 48 49 49 48 49 49 48 49 49 48 49 49 48 49 49 48 49 49 48 49 49 48 49 49 48 49 49 48 49 49 48 49 49 48 49 49 48 49 49 48 49 156 154 156 156 154 156 156 154 156 156 154 156 156 154 156 140 150 156 33 138 148 33 138 148 33 138 148 33 138 148 33 138 148 33 138 148 33 138 148 33 138 148 33 138 148 33 138 148 33 138 148 33 138 148 33 138 148 33 134 140 33 134 140 33 134 140 33 134 140 33 134 140 24 130 140 24 130 140 24 125 140 24 125 132 24 121 132 24 121 123 24 117 123 24 113 123 24 109 115 24 105 115 16 101 107 99 130 132 173 190 198 123 166 173 115 162 173 115 162 165 107 158 165 123 154 156 123 150 156 115 150 156 115 146 148 115 146 148 107 142 148 107 142 148 107 138 140 107 138 140 107 134 140 107 134 140 107 134 132 107 130 132 107 130 132 123 138 140 156 154 156 156 154 156 156 154 156 156 154 156 156 154 156 49 48 49 49 48 49 49 48 49 49 48 49 49 48 49 49 48 49 49 48 49 49 48 49 49 48 49 49 48 49 49 48 49 49 48 49 49 48 49 49 48 49 49 48 49 49 48 49 49 48 49 49 48 49 49 48 49 49 48 49 49 48 49 49 48 49 49 48 49 49 48 49 49 48 49 49 48 49 49 48 49 49 48 49 49 48 49 49 48 49 49 48 49 49 48 49
49 48 49 49 48 49 49 48 49 49 48 49 49 48 49 49 48 49 49 48 49 49 48 49 49 48 49 49 48 49 49 48 49 49 48 49 49 48 49 49 48 49 49 48 49 49 48 49 49 48 49 49 48 49 49 48 49 49 48 49 49 48 49 49 48 49 49 48 49 49 48 49 49 48 49 49 48 49 49 48 49 49 48 49 49 48 49 49 48 49 49 48 49 49 48 49 49 48 49 49 48 49 49 48 49 49 48 49 156 154 156 156 154 156 156 154 156 156 154 156 140 154 156 33 138 148 33 138 148 33 138 148 33 138 148 33 138 148 33 138 148 33 138 148 33 138 148 33 138 148 33 138 148 33 138 148 33 138 148 33 138 148 99 142 148 99 142 148 99 142 148 99 142 148 99 142 148 99 142 148 99 142 148 99 142 148 99 138 148 99 138 140 99 138 140 99 138 140 99 134 140 99 134 140 99 134 140 107 130 132 173 182 181 165 162 165 165 162 165 165 162 165 165 162 165 165 162 165 156 158 156 156 158 156 156 158 156 156 158 156 156 154 156 156 154 156 156 154 156 156 154 156 156 154 156 156 154 156 156 154 156 156 154 156 156 154 156 156 154 156 156 154 156 156 154 156 156 154 156 156 154 156 156 154 156 156 154 156 49 48 49 49 48 49 49 48 49 49 48 49 49 48 49 49 48 49 49 48 49 49 48 49 49 48 49 49 48 49 49 48 49 49 48 49 49 48 49 49 48 49 49 48 49 49 48 49 49 48 49 49 48 49 49 48 49 49 48 49 49 48 49 49 48 49 49 48 49 49 48 49 49 48 49 49 48 49 49 48 49 49 48 49 49 48 49 49 48 49 49 48 49 49 48 49
49 48 49 49 48 49 49 48 49 49 48 49 49 48 49 49 48 49 49 48 49 49 48 49 49 48 49 49 48 49 49 48 49 49 48 49 49 48 49 49 48 49 49 48 49 49 48 49 49 48 49 49 48 49 49 48 49 49 48 49 49 48 49 49 48 49 49 48 49 49 48 49 49 48 49 49 48 49 49 48 49 49 48 49 49 48 49 49 48 49 49 48 49 49 48 49 49 48 49 49 48 49 49 48 49 49 48 49 156 154 156 156 154 156 156 154 156 156 154 156 156 154 156 115 150 156 99 146 148 99 146 148 99 146 148 99 146 148 99 146 148 99 146 148 156 154 156 156 154 156 156 154 156 156 154 156 156 154 156 156 154 156 156 154 156 156 154 156 156 154 156 156 154 156 156 154 156 156 154 156 156 158 156 156 158 156 156 158 156 156 158 156 165 162 165 165 162 165 165 162 165 165 162 165 165 162 165 165 162 165 165 162 165 165 162 165 165 162 165 165 162 165 156 158 156 156 158 156 156 158 156 156 158 156 156 158 156 156 154 156 156 154 156 156 154 156 156 154 156 156 154 156 156 154 156 156 154 156 156 154 156 156 154 156 156 154 156 156 154 156 156 154 156 156 154 156 156 154 156 156 154 156 156 154 156 49 48 49 49 48 49 49 48 49 49 48 49 49 48 49 49 48 49 49 48 49 49 48 49 49 48 49 49 48 49 49 48 49 49 48 49 49 48 49 49 48 49 49 48 49 49 48 49 49 48 49 49 48 49 49 48 49 49 48 49 49 48 49 49 48 49 49 48 49 49 48 49 49 48 49 49 48 49 49 48 49 49 48 49 49 48 49 49 48 49 49 48 49 49 48 49 49 48 49
49 48 49 49 48 49 49 48 49 49 48 49 49 48 49 49 48 49 49 48 49 49 48 49 49 48 49 49 48 49 49 48 49 49 48 49 49 48 49 49 48 49 49 48 49 49 48 49 49 48 49 49 48 49 49 48 49 49 48 49 49 48 49 49 48 49 49 48 49 49 48 49 49 48 49 49 48 49 49 48 49 49 48 49 49 48 49 49 48 49 49 48 49 49 48 49 49 48 49 49 48 49 49 48 49 49 48 49 156 154 156 156 154 156 156 154 156 156 154 156 156 154 156 156 154 156 156 154 156 156 154 156 156 154 156 156 154 156 156 154 156 156 154 156 156 154 156 156 154 156 156 154 156 156 154 156 156 154 156 156 154 156 156 154 156 156 154 156 156 154 156 156 154 156 156 154 156 156 154 156 156 154 156 156 158 156 156 158 156 156 158 156 156 158 156 156 158 156 156 158 156 156 158 156 156 158 156 156 158 156 156 158 156 156 158 156 156 158 156 156 158 156 156 158 156 156 158 156 156 158 156 156 154 156 156 154 156 156 154 156 156 154 156 156 154 156 156 154 156 156 154 156 156 154 156 156 154 156 156 154 156 156 154 156 156 154 156 156 154 156 156 154 156 156 154 156 156 154 156 156 154 156 156 154 156 49 48 49 49 48 49 49 48 49 49 48 49 49 48 49 49 48 49 49 48 49 49 48 49 49 48 49 49 48 49 49 48 49 49 48 49 49 48 49 49 48 49 49 48 49 49 48 49 49 48 49 49 48 49 49 48 49 49 48 49 49 48 49 49 48 49 49 48 49 49 48 49 49 48 49 49 48 49 49 48 49 49 48 49 49 48 49 49 48 49 49 48 49 49 48 49 49 48 49
49 48 49 49 48 49 49 48 49 49 48 49 49 48 49 49 48 49 49 48 49 49 48 49 49 48 49 49 48 49 49 48 49 49 48 49 49 48 49 49 48 49 49 48 49 49 48 49 49 48 49 49 48 49 49 48 49 49 48 49 49 48 49 49 48 49 49 48 49 49 48 49 49 48 49 49 48 49 49 48 49 49 48 49 49 48 49 49 48 49 49 48 49 49 48 49 49 48 49 49 48 49 49 48 49 49 48 49 156 154 156 156 154 156 156 154 156 156 154 156 156 154 156 156 154 156 156 154 156 156 154 156 156 154 156 156 154 156 156 154 156 156 154 156 156 154 156 156 154 156 156 154 156 156 154 156 156 154 156 156 154 156 156 154 156 156 154 156 156 154 156 156 154 156 156 154 156 156 154 156 156 154 156 156 154 156 156 154 156 156 154 156 156 154 156 156 158 156 156 158 156 156 158 156 156 158 156 156 158 156 156 158 156 156 158 156 156 158 156 156 158 156 156 154 156 156 154 156 156 154 156 156 154 156 156 154 156 156 154 156 156 154 156 156 154 156 156 154 156 156 154 156 156 154 156 156 154 156 156 154 156 156 154 156 156 154 156 156 154 156 156 154 156 156 154 156 156 154 156 156 154 156 156 154 156 49 48 49 49 48 49 49 48 49 49 48 49 49 48 49 49 48 49 49 48 49 49 48 49 49 48 49 49 48 49 49 48 49 49 48 49 49 48 49 49 48 49 49 48 49 49 48 49 49 48 49 49 48 49 49 48 49 49 48 49 49 48 49 49 48 49 49 48 49 49 48 49 49 48 49 49 48 49 49 48 49 49 48 49 49 48 49 49 48 49 49 48 49 49 48 49 49 48 49
49 48 49 49 48 49 49 48 49 49 48 49 49 48 49 49 48 49 49 48 49 49 48 49 49 48 49 49 48 49 49 48 49 49 48 49 49 48 49 49 48 49 49 48 49 49 48 49 49 48 49 49 48 49 49 48 49 49 48 49 49 48 49 49 48 49 49 48 49 49 48 49 49 48 49 49 48 49 49 48 49 49 48 49 49 48 49 49 48 49 49 48 49 49 48 49 49 48 49 49 48 49 49 48 49 49 48 49 156 154 156 156 154 156 156 154 156 156 154 156 156 154 156 156 154 156 156 154 156 156 154 156 156 154 156 156 154 156 156 154 156 156 154 156 156 154 156 156 154 156 156 154 156 156 154 156 156 154 156 156 154 156 156 154 156 156 154 156 156 154 156 156 154 156 156 154 156 156 154 156 156 154 156 156 154 156 156 154 156 156 154 156 156 154 156 156 154 156 156 154 156 156 154 156 156 158 156 156 154 156 156 154 156 156 154 156 156 154 156 156 154 156 156 154 156 156 154 156 156 154 156 156 154 156 156 154 156 156 154 156 156 154 156 156 154 156 156 154 156 156 154 156 156 154 156 156 154 156 156 154 156 156 154 156 156 154 156 156 154 156 156 154 156 156 154 156 156 154 156 156 154 156 156 154 156 49 48 49 49 48 49 49 48 49 49 48 49 49 48 49 49 48 49 49 48 49 49 48 49 49 48 49 49 48 49 49 48 49 49 48 49 49 48 49 49 48 49 49 48 49 49 48 49 49 48 49 49 48 49 49 48 49 49 48 49 49 48 49 49 48 49 49 48 49 49 48 49 49 48 49 49 48 49 49 48 49 49 48 49 49 48 49 49 48 49 49 48 49 49 48 49 49 48 49
49 48 49 49 48 49 49 48 49 49 48 49 49 48 49 49 48 49 49 48 49 49 48 49 49 48 49 49 48 49 49 48 49 49 48 49 49 48 49 49 48 49 49 48 49 49 48 49 49 48 49 49 48 49 49 48 49 49 48 49 49 48 49 49 48 49 49 48 49 49 48 49 49 48 49 49 48 49 49 48 49 49 48 49 49 48 49 49 48 49 49 48 49 49 48 49 49 48 49 49 48 49 49 48 49 49 48 49 156 154 156 156 154 156 156 154 156 156 154 156 156 154 156 156 154 156 156 154 156 156 154 156 156 154 156 156 154 156 156 154 156 156 154 156 156 154 156 156 154 156 156 154 156 156 154 156 156 154 156 156 154 156 156 154 156 156 154 156 156 154 156 156 154 156 156 154 156 156 154 156 156 154 156 156 154 156 156 154 156 156 154 156 156 154 156 156 154 156 156 154 156 156 154 156 156 154 156 156 154 156 156 154 156 156 154 156 156 154 156 156 154 156 156 154 156 156 154 156 156 154 156 156 154 156 156 154 156 156 154 156 156 154 156 156 154 156 156 154 156 156 154 156 156 154 156 156 154 156 156 154 156 156 154 156 156 154 156 156 154 156 156 154 156 156 154 156 156 154 156 156 154 156 156 154 156 49 48 49 49 48 49 49 48 49 49 48 49 49 48 49 49 48 49 49 48 49 49 48 49 49 48 49 49 48 49 49 48 49 49 48 49 49 48 49 49 48 49 49 48 49 49 48 49 49 48 49 49 48 49 49 48 49 49 48 49 49 48 49 49 48 49 49 48 49 49 48 49 49 48 49 49 48 49 49 48 49 49 48 49 49 48 49 49 48 49 49 48 49 49 48 49 49 48 49
49 48 49 49 48 49 49 48 49 49 48 49 49 48 49 49 48 49 49 48 49 49 48 49 49 48 49 49 48 49 49 48 49 49 48 49 49 48 49 49 48 49 49 48 49 49 48 49 49 48 49 49 48 49 49 48 49 49 48 49 49 48 49 49 48 49 49 48 49 49 48 49 49 48 49 49 48 49 49 48 49 49 48 49 49 48 49 49 48 49 49 48 49 49 48 49 49 48 49 49 48 49 49 48 49 49 48 49 156 154 156 156 154 156 156 154 156 156 154 156 156 154 156 156 154 156 156 154 156 156 154 156 156 154 156 156 154 156 156 154 156 156 154 156 156 154 156 156 154 156 156 154 156 156 154 156 156 154 156 156 154 156 156 154 156 156 154 156 156 154 156 156 154 156 156 154 156 156 154 156 156 154 156 156 154 156 156 154 156 156 154 156 156 154 156 156 154 156 156 154 156 156 154 156 156 154 156 156 154 156 156 154 156 156 154 156 156 154 156 156 154 156 156 154 156 156 154 156 156 154 156 156 154 156 156 154 156 156 154 156 156 154 156 156 154 156 156 154 156 156 154 156 156 154 156 156 154 156 156 154 156 156 154 156 156 154 156 156 154 156 156 154 156 156 154 156 156 154 156 156 154 156 156 154 156 49 48 49 49 48 49 49 48 49 49 48 49 49 48 49 49 48 49 49 48 49 49 48 49 49 48 49 49 48 49 49 48 49 49 48 49 49 48 49 49 48 49 49 48 49 49 48 49 49 48 49 49 48 49 49 48 49 49 48 49 49 48 49 49 48 49 49 48 49 49 48 49 49 48 49 49 48 49 49 48 49 49 48 49 49 48 49 49 48 49 49 48 49 49 48 49 49 48 49
49 48 49 49 48 49 49 48 49 49 48 49 49 48 49 49 48 49 49 48 49 49 48 49 49 48 49 49 48 49 49 48 49 49 48 49 49 48 49 49 48 49 49 48 49 49 48 49 49 48 49 49 48 49 49 48 49 49 48 49 49 48 49 49 48 49 49 48 49 49 48 49 49 48 49 49 48 49 49 48 49 49 48 49 49 48 49 49 48 49 49 48 49 49 48 49 49 48 49 49 48 49 49 48 49 49 48 49 156 154 156 156 154 156 156 154 156 156 154 156 156 154 156 156 154 156 156 154 156 156 154 156 156 154 156 156 154 156 156 154 156 156 154 156 156 154 156 156 154 156 156 154 156 156 154 156 156 154 156 156 154 156 156 154 156 156 154 156 156 154 156 156 154 156 156 154 156 156 154 156 156 154 156 156 154 156 156 154 156 156 154 156 156 154 156 156 154 156 156 154 156 156 154 156 156 154 156 156 154 156 156 154 156 156 154 156 156 154 156 156 154 156 156 154 156 156 154 156 156 154 156 156 154 156 156 154 156 156 154 156 156 154 156 156 154 156 156 154 156 156 154 156 156 154 156 156 154 156 156 154 156 156 154 156 156 154 156 156 154 156 156 154 156 156 154 156 156 154 156 156 154 156 156 154 156 49 48 49 49 48 49 49 48 49 49 48 49 49 48 49 49 48 49 49 48 49 49 48 49 49 48 49 49 48 49 49 48 49 49 48 49 49 48 49 49 48 49 49 48 49 49 48 49 49 48 49 49 48 49 49 48 49 49 48 49 49 48 49 49 48 49 49 48 49 49 48 49 49 48 49 49 48 49 49 48 49 49 48 49 49 48 49 49 48 49 49 48 49 49 48 49 49 48 49
49 48 49 49 48 49 49 48 49 49 48 49 49 48 49 49 48 49 49 48 49 49 48 49 49 48 49 49 48 49 49 48 49 49 48 49 49 48 49 49 48 49 49 48 49 49 48 49 49 48 49 49 48 49 49 48 49 49 48 49 49 48 49 49 48 49 49 48 49 49 48 49 49 48 49 49 48 49 49 48 49 49 48 49 49 48 49 49 48 49 49 48 49 49 48 49 49 48 49 49 48 49 49 48 49 49 48 49 49 48 49 156 154 156 156 154 156 156 154 156 156 154 156 156 154 156 156 154 156 156 154 156 156 154 156 156 154 156 156 154 156 156 154 156 156 154 156 156 154 156 156 154 156 156 154 156 156 154 156 156 154 156 156 154 156 156 154 156 156 154 156 156 154 156 156 154 156 156 154 156 156 154 156 156 154 156 156 154 156 156 154 156 156 154 156 156 154 156 156 154 156 156 154 156 156 154 156 156 154 156 156 154 156 156 154 156 156 154 156 156 154 156 156 154 156 156 154 156 156 154 156 156 154 156 156 154 156 156 154 156 156 154 156 156 154 156 156 154 156 156 154 156 156 154 156 156 154 156 156 154 156 156 154 156 156 154 156 156 154 156 156 154 156 156 154 156 156 154 156 156 154 156 156 154 156 49 48 49 49 48 49 49 48 49 49 48 49 49 48 49 49 48 49 49 48 49 49 48 49 49 48 49 49 48 49 49 48 49 49 48 49 49 48 49 49 48 49 49 48 49 49 48 49 49 48 49 49 48 49 49 48 49 49 48 49 49 48 49 49 48 49 49 48 49 49 48 49 49 48 49 49 48 49 49 48 49 49 48 49 49 48 49 49 48 49 49 48 49 49 48 49 49 48 49
49 48 49 49 48 49 49 48 49 49 48 49 49 48 49 49 48 49 49 48 49 49 48 49 49 48 49 49 48 49 49 48 49 49 48 49 49 48 49 49 48 49 49 48 49 49 48 49 49 48 49 49 48 49 49 48 49 49 48 49 49 48 49 49 48 49 49 48 49 49 48 49 49 48 49 49 48 49 49 48 49 49 48 49 49 48 49 49 48 49 49 48 49 49 48 49 49 48 49 49 48 49 49 48 49 49 48 49 49 48 49 156 154 156 156 154 156 156 154 156 156 154 156 156 154 156 156 154 156 156 154 156 156 154 156 156 154 156 156 154 156 156 154 156 156 154 156 156 154 156 156 154 156 156 154 156 156 154 156 156 154 156 156 154 156 156 154 156 156 154 156 156 154 156 156 154 156 156 154 156 156 154 156 156 154 156 156 154 156 156 154 156 156 154 156 156 154 156 156 154 156 156 154 156 156 154 156 156 154 156 156 154 156 156 154 156 156 154 156 156 154 156 156 154 156 156 154 156 156 154 156 156 154 156 156 154 156 156 154 156 156 154 156 156 154 156 156 154 156 156 154 156 156 154 156 156 154 156 156 154 156 156 154 156 156 154 156 156 154 156 156 154 156 156 154 156 156 154 156 156 154 156 49 48 49 49 48 49 49 48 49 49 48 49 49 48 49 49 48 49 49 48 49 49 48 49 49 48 49 49 48 49 49 48 49 49 48 49 49 48 49 49 48 49 49 48 49 49 48 49 49 48 49 49 48 49 49 48 49 49 48 49 49 48 49 49 48 49 49 48 49 49 48 49 49 48 49 49 48 49 49 48 49 49 48 49 49 48 49 49 48 49 49 48 49 49 48 49 49 48 49 49 48 49
49 48 49 49 48 49 49 48 49 49 48 49 49 48 49 49 48 49 49 48 49 49 48 49 49 48 49 49 48 49 49 48 49 49 48 49 49 48 49 49 48 49 49 48 49 49 48 49 49 48 49 49 48 49 49 48 49 49 48 49 49 48 49 49 48 49 49 48 49 49 48 49 49 48 49 49 48 49 49 48 49 49 48 49 49 48 49 49 48 49 49 48 49 49 48 49 49 48 49 49 48 49 49 48 49 49 48 49 49 48 49 156 154 156 156 154 156 156 154 156 156 154 156 156 154 156 156 154 156 156 154 156 156 154 156 156 154 156 156 154 156 156 154 156 156 154 156 156 154 156 156 154 156 156 154 156 156 154 156 156 154 156 156 154 156 156 154 156 156 154 156 156 154 156 156 154 156 156 154 156 156 154 156 156 154 156 156 154 156 156 154 156 156 154 156 156 154 156 156 154 156 156 154 156 156 154 156 156 154 156 156 154 156 156 154 156 156 154 156 156 154 156 156 154 156 156 154 156 156 154 156 156 154 156 156 154 156 156 154 156 156 154 156 156 154 156 156 154 156 156 154 156 156 154 156 156 154 156 156 154 156 156 154 156 156 154 156 156 154 156 156 154 156 156 154 156 156 154 156 156 154 156 49 48 49 49 48 49 49 48 49 49 48 49 49 48 49 49 48 49 49 48 49 49 48 49 49 48 49 49 48 49 49 48 49 49 48 49 49 48 49 49 48 49 49 48 49 49 48 49 49 48 49 49 48 49 49 48 49 49 48 49 49 48 49 49 48 49 49 48 49 49 48 49 49 48 49 49 48 49 49 48 49 49 48 49 49 48 49 49 48 49 49 48 49 49 48 49 49 48 49 49 48 49
49 48 49 49 48 49 49 48 49 49 48 49 49 48 49 49 48 49 49 48 49 49 48 49 49 48 49 49 48 49 49 48 49 49 48 49 49 48 49 49 48 49 49 48 49 49 48 49 49 48 49 49 48 49 49 48 49 49 48 49 49 48 49 49 48 49 49 48 49 49 48 49 49 48 49 49 48 49 49 48 49 49 48 49 49 48 49 49 48 49 49 48 49 49 48 49 49 48 49 49 48 49 49 48 49 49 48 49 49 48 49 156 154 156 156 154 156 156 154 156 156 154 156 156 154 156 156 154 156 156 154 156 156 154 156 156 154 156 156 154 156 156 154 156 156 154 156 156 154 156 156 154 156 156 154 156 156 154 156 156 154 156 156 154 156 156 154 156 156 154 156 156 154 156 156 154 156 156 154 156 156 154 156 156 154 156 156 154 156 156 154 156 156 154 156 156 154 156 156 154 156 156 154 156 156 154 156 156 154 156 156 154 156 156 154 156 156 154 156 156 154 156 156 154 156 156 154 156 156 154 156 156 154 156 156 154 156 156 154 156 156 154 156 156 154 156 156 154 156 156 154 156 156 154 156 156 154 156 156 154 156 156 154 156 156 154 156 156 154 156 156 154 156 156 154 156 156 154 156 156 154 156 49 48 49 49 48 49 49 48 49 49 48 49 49 48 49 49 48 49 49 48 49 49 48 49 49 48 49 49 48 49 49 48 49 49 48 49 49 48 49 49 48 49 49 48 49 49 48 49 49 48 49 49 48 49 49 48 49 49 48 49 49 48 49 49 48 49 49 48 49 49 48 49 49 48 49 49 48 49 49 48 49 49 48 49 49 48 49 49 48 49 49 48 49 49 48 49 49 48 49 49 48 49
49 48 49 49 48 49 49 48 49 49 48 49 49 48 49 49 48 49 49 48 49 49 48 49 49 48 49 49 48 49 49 48 49 49 48 49 49 48 49 49 48 49 49 48 49 49 48 49 49 48 49 49 48 49 49 48 49 49 48 49 49 48 49 49 48 49 49 48 49 49 48 49 49 48 49 49 48 49 49 48 49 49 48 49 49 48 49 49 48 49 49 48 49 49 48 49 49 48 49 49 48 49 49 48 49 49 48 49 49 48 49 156 154 156 156 154 156 156 154 156 156 154 156 156 154 156 156 154 156 156 154 156 156 154 156 156 154 156 156 154 156 156 154 156 156 154 156 156 154 156 156 154 156 156 154 156 156 154 156 156 154 156 156 154 156 156 154 156 156 154 156 156 154 156 156 154 156 156 154 156 156 154 156 156 154 156 156 154 156 156 154 156 156 154 156 156 154 156 156 154 156 156 154 156 156 154 156 156 154 156 156 154 156 156 154 156 156 154 156 156 154 156 156 154 156 156 154 156 156 154 156 156 154 156 156 154 156 156 154 156 156 154 156 156 154 156 156 154 156 156 154 156 156 154 156 156 154 156 156 154 156 156 154 156 156 154 156 156 154 156 156 154 156 156 154 156 156 154 156 156 154 156 49 48 49 49 48 49 49 48 49 49 48 49 49 48 49 49 48 49 49 48 49 49 48 49 49 48 49 49 48 49 49 48 49 49 48 49 49 48 49 49 48 49 49 48 49 49 48 49 49 48 49 49 48 49 49 48 49 49 48 49 49 48 49 49 48 49 49 48 49 49 48 49 49 48 49 49 48 49 49 48 49 49 48 49 49 48 49 49 48 49 49 48 49 49 48 49 49 48 49 49 48 49
49 48 49 49 48 49 49 48 49 49 48 49 49 48 49 49 48 49 49 48 49 49 48 49 49 48 49 49 48 49 49 48 49 49 48 49 49 48 49 49 48 49 49 48 49 49 48 49 49 48 49 49 48 49 49 48 49 49 48 49 49 48 49 49 48 49 49 48 49 49 48 49 49 48 49 49 48 49 49 48 49 49 48 49 49 48 49 49 48 49 49 48 49 49 48 49 49 48 49 49 48 49 49 48 49 49 48 49 49 48 49 156 154 156 156 154 156 156 154 156 156 154 156 156 154 156 156 154 156 156 154 156 156 154 156 156 154 156 156 154 156 156 154 156 156 154 156 156 154 156 156 154 156 156 154 156 156 154 156 156 154 156 156 154 156 156 154 156 156 154 156 156 154 156 156 154 156 156 154 156 156 154 156 156 154 156 156 154 156 156 154 156 156 154 156 156 154 156 156 154 156 156 154 156 156 154 156 156 154 156 156 154 156 156 154 156 156 154 156 156 154 156 156 154 156 156 154 156 156 154 156 156 154 156 156 154 156 156 154 156 156 154 156 156 154 156 156 154 156 156 154 156 156 154 156 156 154 156 156 154 156 156 154 156 156 154 156 156 154 156 156 154 156 156 154 156 156 154 156 156 154 156 49 48 49 49 48 49 49 48 49 49 48 49 49 48 49 49 48 49 49 48 49 49 48 49 49 48 49 49 48 49 49 48 49 49 48 49 49 48 49 49 48 49 49 48 49 49 48 49 49 48 49 49 48 49 49 48 49 49 48 49 49 48 49 49 48 49 49 48 49 49 48 49 49 48 49 49 48 49 49 48 49 49 48 49 49 48 49 49 48 49 49 48 49 49 48 49 49 48 49 49 48 49
49 48 49 49 48 49 49 48 49 49 48 49 49 48 49 49 48 49 49 48 49 49 48 49 49 48 49 49 48 49 49 48 49 49 48 49 49 48 49 49 48 49 49 48 49 49 48 49 49 48 49 49 48 49 49 48 49 49 48 49 49 48 49 49 48 49 49 48 49 49 48 49 49 48 49 49 48 49 49 48 49 49 48 49 49 48 49 49 48 49 49 48 49 49 48 49 49 48 49 49 48 49 49 48 49 49 48 49 49 48 49 156 154 156 156 154 156 156 154 156 156 154 156 156 154 156 156 154 156 156 154 156 156 154 156 156 154 156 156 154 156 156 154 156 156 154 156 156 154 156 156 154 156 156 154 156 156 154 156 156 154 156 156 154 156 156 154 156 156 154 156 156 154 156 156 154 156 156 154 156 156 154 156 156 154 156 156 154 156 156 154 156 156 154 156 156 154 156 156 154 156 156 154 156 156 154 156 156 154 156 156 154 156 156 154 156 156 154 156 156 154 156 156 154 156 156 154 156 156 154 156 156 154 156 156 154 156 156 154 156 156 154 156 156 154 156 156 154 156 156 154 156 156 154 156 156 154 156 156 154 156 156 154 156 156 154 156 49 48 49 49 48 49 49 48 49 49 48 49 49 48 49 49 48 49 49 48 49 49 48 49 49 48 49 49 48 49 49 48 49 49 48 49 49 48 49 49 48 49 49 48 49 49 48 49 49 48 49 49 48 49 49 48 49 49 48 49 49 48 49 49 48 49 49 48 49 49 48 49 49 48 49 49 48 49 49 48 49 49 48 49 49 48 49 49 48 49 49 48 49 49 48 49 49 48 49 49 48 49 49 48 49 49 48 49 49 48 49 49 48 49 49 48 49
49 48 49 49 48 49 49 48 49 49 48 49 49 48 49 49 48 49 49 48 49 49 48 49 49 48 49 49 48 49 49 48 49 49 48 49 49 48 49 49 48 49 49 48 49 49 48 49 49 48 49 49 48 49 49 48 49 49 48 49 49 48 49 49 48 49 49 48 49 49 48 49 49 48 49 49 48 49 49 48 49 49 48 49 49 48 49 49 48 49 49 48 49 49 48 49 49 48 49 49 48 49 49 48 49 49 48 49 49 48 49 156 154 156 156 154 156 156 154 156 156 154 156 156 154 156 156 154 156 156 154 156 156 154 156 156 154 156 156 154 156 156 154 156 156 154 156 156 154 156 156 154 156 156 154 156 156 154 156 156 154 156 156 154 156 156 154 156 156 154 156 156 154 156 156 154 156 156 154 156 156 154 156 156 154 156 156 154 156 156 154 156 156 154 156 156 154 156 156 154 156 156 154 156 49 48 49 49 48 49 49 48 49 49 48 49 49 48 49 49 48 49 49 48 49 49 48 49 49 48 49 49 48 49 49 48 49 49 48 49 49 48 49 49 48 49 49 48 49 49 48 49 49 48 49 49 48 49 49 48 49 49 48 49 49 48 49 49 48 49 49 48 49 49 48 49 49 48 49 49 48 49 49 48 49 49 48 49 49 48 49 49 48 49 49 48 49 49 48 49 49 48 49 49 48 49 49 48 49 49 48 49 49 48 49 49 48 49 49 48 49 49 48 49 49 48 49 49 48 49 49 48 49 49 48 49 49 48 49 49 48 49 49 48 49 49 48 49 49 48 49 49 48 49 49 48 49 49 48 49 49 48 49 49 48 49 49 48 49 49 48 49 49 48 49 49 48 49 49 48 49 49 48 49
49 48 49 49 48 49 49 48 49 49 48 49 49 48 49 49 48 49 49 48 49 49 48 49 49 48 49 49 48 49 49 48 49 49 48 49 49 48 49 49 48 49 49 48 49 49 48 49 49 48 49 49 48 49 49 48 49 49 48 49 49 48 49 49 48 49 49 48 49 49 48 49 49 48 49 49 48 49 49 48 49 49 48 49 49 48 49 49 48 49 49 48 49 49 48 49 49 48 49 49 48 49 49 48 49 49 48 49 49 48 49 49 48 49 156 154 156 156 154 156 156 154 156 156 154 156 156 154 156 156 154 156 156 154 156 156 154 156 156 154 156 156 154 156 49 48 49 49 48 49 49 48 49 49 48 49 49 48 49 49 48 49 49 48 49 49 48 49 49 48 49 49 48 49 49 48 49 49 48 49 49 48 49 49 48 49 49 48 49 49 48 49 49 48 49 49 48 49 49 48 49 49 48 49 49 48 49 49 48 49 49 48 49 49 48 49 49 48 49 49 48 49 49 48 49 49 48 49 49 48 49 49 48 49 49 48 49 49 48 49 49 48 49 49 48 49 49 48 49 49 48 49 49 48 49 49 48 49 49 48 49 49 48 49 49 48 49 49 48 49 49 48 49 49 48 49 49 48 49 49 48 49 49 48 49 49 48 49 49 48 49 49 48 49 49 48 49 49 48 49 49 48 49 49 48 49 49 48 49 49 48 49 49 48 49 49 48 49 49 48 49 49 48 49 49 48 49 49 48 49 49 48 49 49 48 49 49 48 49 49 48 49 49 48 49 49 48 49 49 48 49 49 48 49 49 48 49 49 48 49 49 48 49 49 48 49 49 48 49 49 48 49 49 48 49 49 48 49 49 48 49 49 48 49
49 48 49 49 48 49 49 48 49 49 48 49 49 48 49 49 48 49 49 48 49 49 48 49 49 48 49 49 48 49 49 48 49 49 48 49 49 48 49 49 48 49 49 48 49 49 48 49 49 48 49 49 48 49 49 48 49 49 48 49 49 48 49 49 48 49 49 48 49 49 48 49 49 48 49 49 48 49 49 48 49 49 48 49 49 48 49 49 48 49 49 48 49 49 48 49 49 48 49 49 48 49 49 48 49 49 48 49 49 48 49 49 48 49 49 48 49 49 48 49 49 48 49 49 48 49 49 48 49 49 48 49 49 48 49 49 48 49 49 48 49 49 48 49 49 48 49 49 48 49 49 48 49 49 48 49 49 48 49 49 48 49 49 48 49 49 48 49 49 48 49 49 48 49 49 48 49 49 48 49 49 48 49 49 48 49 49 48 49 49 48 49 49 48 49 49 48 49 49 48 49 49 48 49 49 48 49 49 48 49 49 48 49 49 48 49 49 48 49 49 48 49 49 48 49 49 48 49 49 48 49 49 48 49 49 48 49 49 48 49 49 48 49 49 48 49 49 48 49 49 48 49 49 48 49 49 48 49 49 48 49 49 48 49 49 48 49 49 48 49 49 48 49 49 48 49 49 48 49 49 48 49 49 48 49 49 48 49 49 48 49 49 48 49 49 48 49 49 48 49 49 48 49 49 48 49 49 48 49 49 48 49 49 48 49 49 48 49 49 48 49 49 48 49 49 48 49 49 48 49 49 48 49 49 48 49 49 48 49 49 48 49 49 48 49 49 48 49 49 48 49 49 48 49 49 48 49 49 48 49 49 48 49 49 48 49 49 48 49 49 48 49 49 48 49 49 48 49 49 48 49 49 48 49
49 48 49 49 48 49 49 48 49 49 48 49 49 48 49 49 48 49 49 48 49 49 48 49 49 48 49 49 48 49 49 48 49 49 48 49 49 48 49 49 48 49 49 48 49 49 48 49 49 48 49 49 48 49 49 48 49 49 48 49 49 48 49 49 48 49 49 48 49 49 48 49 49 48 49 49 48 49 49 48 49 49 48 49 49 48 49 49 48 49 49 48 49 49 48 49 49 48 49 49 48 49 49 48 49 49 48 49 49 48 49 49 48 49 49 48 49 49 48 49 49 48 49 49 48 49 49 48 49 49 48 49 49 48 49 49 48 49 49 48 49 49 48 49 49 48 49 49 48 49 49 48 49 49 48 49 49 48 49 49 48 49 49 48 49 49 48 49 49 48 49 49 48 49 49 48 49 49 48 49 49 48 49 49 48 49 49 48 49 49 48 49 49 48 49 49 48 49 49 48 49 49 48 49 49 48 49 49 48 49 49 48 49 49 48 49 49 48 49 49 48 49 49 48 49 49 48 49 49 48 49 49 48 49 49 48 49 49 48 49 49 48 49 49 48 49 49 48 49 49 48 49 49 48 49 49 48 49 49 48 49 49 48 49 49 48 49 49 48 49 49 48 49 49 48 49 49 48 49 49 48 49 49 48 49 49 48 49 49 48 49 49 48 49 49 48 49 49 48 49 49 48 49 49 48 49 49 48 49 49 48 49 49 48 49 49 48 49 49 48 49 49 48 49 49 48 49 49 48 49 49 48 49 49 48 49 49 48 49 49 48 49 49 48 49 49 48 49 49 48 49 49 48 49 49 48 49 49 48 49 49 48 49 49 48 49 49 48 49 49 48 49 49 48 49 49 48 49 49 48 49 49 48 49
49 48 49 49 48 49 49 48 49 49 48 49 49 48 49 49 48 49 49 48 49 49 48 49 49 48 49 49 48 49 49 48 49 49 48 49 49 48 49 49 48 49 49 48 49 49 48 49 49 48 49 49 48 49 49 48 49 49 48 49 49 48 49 49 48 49 49 48 49 49 48 49 49 48 49 49 48 49 49 48 49 49 48 49 49 48 49 49 48 49 49 48 49 49 48 49 49 48 49 49 48 49 49 48 49 49 48 49 49 48 49 49 48 49 49 48 49 49 48 49 49 48 49 49 48 49 49 48 49 49 48 49 49 48 49 49 48 49 49 48 49 49 48 49 49 48 49 49 48 49 49 48 49 49 48 49 49 48 49 49 48 49 49 48 49 49 48 49 49 48 49 49 48 49 49 48 49 49 48 49 49 48 49 49 48 49 49 48 49 49 48 49 49 48 49 49 48 49 49 48 49 49 48 49 49 48 49 49 48 49 49 48 49 49 48 49 49 48 49 49 48 49 49 48 49 49 48 49 49 48 49 49 48 49 49 48 49 49 48 49 49 48 49 49 48 49 49 48 49 49 48 49 49 48 49 49 48 49 49 48 49 49 48 49 49 48 49 49 48 49 49 48 49 49 48 49 49 48 49 49 48 49 49 48 49 49 48 49 49 48 49 49 48 49 49 48 49 49 48 49 49 48 49 49 48 49 49 48 49 49 48 49 49 48 49 49 48 49 49 48 49 49 48 49 49 48 49 49 48 49 49 48 49 49 48 49 49 48 49 49 48 49 49 48 49 49 48 49 49 48 49 49 48 49 49 48 49 49 48 49 49 48 49 49 48 49 49 48 49 49 48 49 49 48 49 49 48 49 49 48 49 49 48 49
49 48 49 49 48 49 49 48 49 49 48 49 49 48 49 49 48 49 49 48 49 49 48 49 49 48 49 49 48 49 49 48 49 49 48 49 49 48 49 49 48 49 49 48 49 49 48 49 49 48 49 49 48 49 49 48 49 49 48 49 49 48 49 49 48 49 49 48 49 49 48 49 49 48 49 49 48 49 49 48 49 49 48 49 49 48 49 49 48 49 49 48 49 49 48 49 49 48 49 49 48 49 49 48 49 49 48 49 49 48 49 49 48 49 49 48 49 49 48 49 49 48 49 49 48 49 49 48 49 49 48 49 49 48 49 49 48 49 49 48 49 49 48 49 49 48 49 49 48 49 49 48 49 49 48 49 49 48 49 49 48 49 49 48 49 49 48 49 49 48 49 49 48 49 49 48 49 49 48 49 49 48 49 49 48 49 49 48 49 49 48 49 49 48 49 49 48 49 49 48 49 49 48 49 49 48 49 49 48 49 49 48 49 49 48 49 49 48 49 49 48 49 49 48 49 49 48 49 49 48 49 49 48 49 49 48 49 49 48 49 49 48 49 49 48 49 49 48 49 49 48 49 49 48 49 49 48 49 49 48 49 49 48 49 49 48 49 49 48 49 49 48 49 49 48 49 49 48 49 49 48 49 49 48 49 49 48 49 49 48 49 49 48 49 49 48 49 49 48 49 49 48 49 49 48 49 49 48 49 49 48 49 49 48 49 49 48 49 49 48 49 49 48 49 49 48 49 49 48 49 49 48 49 49 48 49 49 48 49 49 48 49 49 48 49 49 48 49 49 48 49 49 48 49 49 48 49 49 48 49 49 48 49 49 48 49 49 48 49 49 48 49 49 48 49 49 48 49 49 48 49 49 48 49
49 48 49 49 48 49 49 48 49 49 48 49 49 48 49 49 48 49 49 48 49 49 48 49 49 48 49 49 48 49 49 48 49 49 48 49 49 48 49 49 48 49 49 48 49 49 48 49 49 48 49 49 48 49 49 48 49 49 48 49 49 48 49 49 48 49 49 48 49 49 48 49 49 48 49 49 48 49 49 48 49 49 48 49 49 48 49 49 48 49 49 48 49 49 48 49 49 48 49 49 48 49 49 48 49 49 48 49 49 48 49 49 48 49 49 48 49 49 48 49 49 48 49 49 48 49 49 48 49 49 48 49 49 48 49 49 48 49 49 48 49 49 48 49 49 48 49 49 48 49 49 48 49 49 48 49 49 48 49 49 48 49 49 48 49 49 48 49 49 48 49 49 48 49 49 48 49 49 48 49 49 48 49 49 48 49 49 48 49 49 48 49 49 48 49 49 48 49 49 48 49 49 48 49 49 48 49 49 48 49 49 48 49 49 48 49 49 48 49 49 48 49 49 48 49 49 48 49 49 48 49 49 48 49 49 48 49 49 48 49 49 48 49 49 48 49 49 48 49 49 48 49 49 48 49 49 48 49 49 48 49 49 48 49 49 48 49 49 48 49 49 48 49 49 48 49 49 48 49 49 48 49 49 48 49 49 48 49 49 48 49 49 48 49 49 48 49 49 48 49 49 48 49 49 48 49 49 48 49 49 48 49 49 48 49 49 48 49 49 48 49 49 48 49 49 48 49 49 48 49 49 48 49 49 48 49 49 48 49 49 48 49 49 48 49 49 48 49 49 48 49 49 48 49 49 48 49 49 48 49 49 48 49 49 48 49 49 48 49 49 48 49 49 48 49 49 48 49 49 48 49 49 48 49
49 48 49 49 48 49 49 48 49 49 48 49 49 48 49 49 48 49 49 48 49 49 48 49 49 48 49 49 48 49 49 48 49 49 48 49 49 48 49 49 48 49 49 48 49 49 48 49 49 48 49 49 48 49 49 48 49 49 48 49 49 48 49 49 48 49 49 48 49 49 48 49 49 48 49 49 48 49 49 48 49 49 48 49 49 48 49 49 48 49 49 48 49 49 48 49 49 48 49 49 48 49 49 48 49 49 48 49 49 48 49 49 48 49 49 48 49 49 48 49 49 48 49 49 48 49 49 48 49 49 48 49 49 48 49 49 48 49 49 48 49 49 48 49 49 48 49 49 48 49 49 48 49 49 48 49 49 48 49 49 48 49 49 48 49 49 48 49 49 48 49 49 48 49 49 48 49 49 48 49 49 48 49 49 48 49 49 48 49 49 48 49 49 48 49 49 48 49 49 48 49 49 48 49 49 48 49 49 48 49 49 48 49 49 48 49 49 48 49 49 48 49 49 48 49 49 48 49 49 48 49 49 48 49 49 48 49 49 48 49 49 48 49 49 48 49 49 48 49 49 48 49 49 48 49 49 48 49 49 48 49 49 48 49 49 48 49 49 48 49 49 48 49 49 48 49 49 48 49 49 48 49 49 48 49 49 48 49 49 48 49 49 48 49 49 48 49 49 48 49 49 48 49 49 48 49 49 48 49 49 48 49 49 48 49 49 48 49 49 48 49 49 48 49 49 48 49 49 48 49 49 48 49 49 48 49 49 48 49 49 48 49 49 48 49 49 48 49 49 48 49 49 48 49 49 48 49 49 48 49 49 48 49 49 48 49 49 48 49 49 48 49 49 48 49 49 48 49 49 48 49 49 48 49
49 48 49 49 48 49 49 48 49 49 48 49 49 48 49 49 48 49 49 48 49 49 48 49 49 48 49 49 48 49 49 48 49 49 48 49 49 48 49 49 48 49 49 48 49 49 48 49 49 48 49 49 48 49 49 48 49 49 48 49 49 48 49 49 48 49 49 48 49 49 48 49 49 48 49 49 48 49 49 48 49 49 48 49 49 48 49 49 48 49 49 48 49 49 48 49 49 48 49 49 48 49 49 48 49 49 48 49 49 48 49 49 48 49 49 48 49 49 48 49 49 48 49 49 48 49 49 48 49 49 48 49 49 48 49 49 48 49 49 48 49 49 48 49 49 48 49 49 48 49 49 48 49 49 48 49 49 48 49 49 48 49 49 48 49 49 48 49 49 48 49 49 48 49 49 48 49 49 48 49 49 48 49 49 48 49 49 48 49 49 48 49 49 48 49 49 48 49 49 48 49 49 48 49 49 48 49 49 48 49 49 48 49 49 48 49 49 48 49 49 48 49 49 48 49 49 48 49 49 48 49 49 48 49 49 48 49 49 48 49 49 48 49 49 48 49 49 48 49 49 48 49 49 48 49 49 48 49 49 48 49 49 48 49 49 48 49 49 48 49 49 48 49 49 48 49 49 48 49 49 48 49 49 48 49 49 48 49 49 48 49 49 48 49 49 48 49 49 48 49 49 48 49 49 48 49 49 48 49 49 48 49 49 48 49 49 48 49 49 48 49 49 48 49 49 48 49 49 48 49 49 48 49 49 48 49 49 48 49 49 48 49 49 48 49 49 48 49 49 48 49 49 48 49 49 48 49 49 48 49 49 48 49 49 48 49 49 48 49 49 48 49 49 48 49 49 48 49 49 48 49 49 48 49
49 48 49 49 48 49 49 48 49 49 48 49 49 48 49 49 48 49 49 48 49 49 48 49 49 48 49 49 48 49 49 48 49 49 48 49 49 48 49 49 48 49 49 48 49 49 48 49 49 48 49 49 48 49 49 48 49 49 48 49 49 48 49 49 48 49 49 48 49 49 48 49 49 48 49 49 48 49 49 48 49 49 48 49 49 48 49 49 48 49 49 48 49 49 48 49 49 48 49 49 48 49 49 48 49 49 48 49 49 48 49 49 48 49 49 48 49 49 48 49 49 48 49 49 48 49 49 48 49 49 48 49 49 48 49 49 48 49 49 48 49 49 48 49 49 48 49 49 48 49 49 48 49 49 48 49 49 48 49 49 48 49 49 48 49 49 48 49 49 48 49 49 48 49 49 48 49 49 48 49 49 48 49 49 48 49 49 48 49 49 48 49 49 48 49 49 48 49 49 48 49 49 48 49 49 48 49 49 48 49 49 48 49 49 48 49 49 48 49 49 48 49 49 48 49 49 48 49 49 48 49 49 48 49 49 48 49 49 48 49 49 48 49 49 48 49 49 48 49 49 48 49 49 48 49 49 48 49 49 48 49 49 48 49 49 48 49 49 48 49 49 48 49 49 48 49 49 48 49 49 48 49 49 48 49 49 48 49 49 48 49 49 48 49 49 48 49 49 48 49 49 48 49 49 48 49 49 48 49 49 48 49 49 48 49 49 48 49 49 48 49 49 48 49 49 48 49 49 48 49 49 48 49 49 48 49 49 48 49 49 48 49 49 48 49 49 48 49 49 48 49 49 48 49 49 48 49 49 48 49 49 48 49 49 48 49 49 48 49 49 48 49 49 48 49 49 48 49 49 48 49 49 48 49
49 48 49 49 48 49 49 48 49 49 48 49 49 48 49 49 48 49 49 48 49 49 48 49 49 48 49 49 48 49 49 48 49 49 48 49 49 48 49 49 48 49 49 48 49 49 48 49 49 48 49 49 48 49 49 48 49 49 48 49 49 48 49 49 48 49 49 48 49 49 48 49 49 48 49 49 48 49 49 48 49 49 48 49 49 48 49 49 48 49 49 48 49 49 48 49 49 48 49 49 48 49 49 48 49 49 48 49 49 48 49 49 48 49 49 48 49 49 48 49 49 48 49 49 48 49 49 48 49 49 48 49 49 48 49 49 48 49 49 48 49 49 48 49 49 48 49 49 48 49 49 48 49 49 48 49 49 48 49 49 48 49 49 48 49 49 48 49 49 48 49 49 48 49 49 48 49 49 48 49 49 48 49 49 48 49 49 48 49 49 48 49 49 48 49 49 48 49 49 48 49 49 48 49 49 48 49 49 48 49 49 48 49 49 48 49 49 48 49 49 48 49 49 48 49 49 48 49 49 48 49 49 48 49 49 48 49 49 48 49 49 48 49 49 48 49 49 48 49 49 48 49 49 48 49 49 48 49 49 48 49 49 48 49 49 48 49 49 48 49 49 48 49 49 48 49 49 48 49 49 48 49 49 48 49 49 48 49 49 48 49 49 48 49 49 48 49 49 48 49 49 48 49 49 48 49 49 48 49 49 48 49 49 48 49 49 48 49 49 48 49 49 48 49 49 48 49 49 48 49 49 48 49 49 48 49 49 48 49 49 48 49 49 48 49 49 48 49 49 48 49 49 48 49 49 48 49 49 48 49 49 48 49 49 48 49 49 48 49 49 48 49 49 48 49 49 48 49 49 48 49 49 48 49
49 48 49 49 48 49 49 48 49 49 48 49 49 48 49 49 48 49 49 48 49 49 48 49 49 48 49 49 48 49 49 48 49 49 48 49 49 48 49 49 48 49 49 48 49 49 48 49 49 48 49 49 48 49 49 48 49 49 48 49 49 48 49 49 48 49 49 48 49 49 48 49 49 48 49 49 48 49 49 48 49 49 48 49 49 48 49 49 48 49 49 48 49 49 48 49 49 48 49 49 48 49 49 48 49 49 48 49 49 48 49 49 48 49 49 48 49 49 48 49 49 48 49 49 48 49 49 48 49 49 48 49 49 48 49 49 48 49 49 48 49 49 48 49 49 48 49 49 48 49 49 48 49 49 48 49 49 48 49 49 48 49 49 48 49 49 48 49 49 48 49 49 48 49 49 48 49 49 48 49 49 48 49 49 48 49 49 48 49 49 48 49 49 48 49 49 48 49 49 48 49 49 48 49 49 48 49 49 48 49 49 48 49 49 48 49 49 48 49 49 48 49 49 48 49 49 48 49 49 48 49 49 48 49 49 48 49 49 48 49 49 48 49 49 48 49 49 48 49 49 48 49 49 48 49 49 48 49 49 48 49 49 48 49 49 48 49 49 48 49 49 48 49 49 48 49 49 48 49 49 48 49 49 48 49 49 48 49 49 48 49 49 48 49 49 48 49 49 48 49 49 48 49 49 48 49 49 48 49 49 48 49 49 48 49 49 48 49 49 48 49 49 48 49 49 48 49 49 48 49 49 48 49 49 48 49 49 48 49 49 48 49 49 48 49 49 48 49 49 48 49 49 48 49 49 48 49 49 48 49 49 48 49 49 48 49 49 48 49 49 48 49 49 48 49 49 48 49 49 48 49 49 48 49
49 48 49 49 48 49 49 48 49 49 48 49 49 48 49 49 48 49 49 48 49 49 48 49 49 48 49 49 48 49 49 48 49 49 48 49 49 48 49 49 48 49 49 48 49 49 48 49 49 48 49 49 48 49 49 48 49 49 48 49 49 48 49 49 48 49 49 48 49 49 48 49 49 48 49 49 48 49 49 48 49 49 48 49 49 48 49 49 48 49 49 48 49 49 48 49 49 48 49 49 48 49 49 48 49 49 48 49 49 48 49 49 48 49 49 48 49 49 48 49 49 48 49 49 48 49 49 48 49 49 48 49 49 48 49 49 48 49 49 48 49 49 48 49 49 48 49 49 48 49 49 48 49 49 48 49 49 48 49 49 48 49 49 48 49 49 48 49 49 48 49 49 48 49 49 48 49 49 48 49 49 48 49 49 48 49 49 48 49 49 48 49 49 48 49 49 48 49 49 48 49 49 48 49 49 48 49 49 48 49 49 48 49 49 48 49 49 48 49 49 48 49 49 48 49 49 48 49 49 48 49 49 48 49 49 48 49 49 48 49 49 48 49 49 48 49 49 48 49 49 48 49 49 48 49 49 48 49 49 48 49 49 48 49 49 48 49 49 48 49 49 48 49 49 48 49 49 48 49 49 48 49 49 48 49 49 48 49 49 48 49 49 48 49 49 48 49 49 48 49 49 48 49 49 48 49 49 48 49 49 48 49 49 48 49 49 48 49 49 48 49 49 48 49 49 48 49 49 48 49 49 48 49 49 48 49 49 48 49 49 48 49 49 48 49 49 48 49 49 48 49 49 48 49 49 48 49 49 48 49 49 48 49 49 48 49 49 48 49 49 48 49 49 48 49 49 48 49 49 48 49 49 48 49
49 48 49 49 48 49 49 48 49 49 48 49 49 48 49 49 48 49 49 48 49 49 48 49 49 48 49 49 48 49 49 48 49 49 48 49 49 48 49 49 48 49 49 48 49 49 48 49 49 48 49 49 48 49 49 48 49 49 48 49 49 48 49 49 48 49 49 48 49 49 48 49 49 48 49 49 48 49 49 48 49 49 48 49 49 48 49 49 48 49 49 48 49 49 48 49 49 48 49 49 48 49 49 48 49 49 48 49 49 48 49 49 48 49 49 48 49 49 48 49 49 48 49 49 48 49 49 48 49 49 48 49 49 48 49 49 48 49 49 48 49 49 48 49 49 48 49 49 48 49 49 48 49 49 48 49 49 48 49 49 48 49 49 48 49 49 48 49 49 48 49 49 48 49 49 48 49 49 48 49 49 48 49 49 48 49 49 48 49 49 48 49 49 48 49 49 48 49 49 48 49 49 48 49 49 48 49 49 48 49 49 48 49 49 48 49 49 48 49 49 48 49 49 48 49 49 48 49 49 48 49 49 48 49 49 48 49 49 48 49 49 48 49 49 48 49 49 48 49 49 48 49 49 48 49 49 48 49 49 48 49 49 48 49 49 48 49 49 48 49 49 48 49 49 48 49 49 48 49 49 48 49 49 48 49 49 48 49 49 48 49 49 48 49 49 48 49 49 48 49 49 48 49 49 48 49 49 48 49 49 48 49 49 48 49 49 48 49 49 48 49 49 48 49 49 48 49 49 48 49 49 48 49 49 48 49 49 48 49 49 48 49 49 48 49 49 48 49 49 48 49 49 48 49 49 48 49 49 48 49 49 48 49 49 48 49 49 48 49 49 48 49 49 48 49 49 48 49 49 48 49 49 48 49
49 48 49 49 48 49 49 48 49 49 48 49 49 48 49 49 48 49 49 48 49 49 48 49 49 48 49 49 48 49 49 48 49 49 48 49 49 48 49 49 48 49 49 48 49 49 48 49 49 48 49 49 48 49 49 48 49 49 48 49 49 48 49 49 48 49 49 48 49 49 48 49 49 48 49 49 48 49 49 48 49 49 48 49 49 48 49 49 48 49 49 48 49 49 48 49 49 48 49 49 48 49 49 48 49 49 48 49 49 48 49 49 48 49 49 48 49 49 48 49 49 48 49 49 48 49 49 48 49 49 48 49 49 48 49 49 48 49 49 48 49 49 48 49 49 48 49 49 48 49 49 48 49 49 48 49 49 48 49 49 48 49 49 48 49 49 48 49 49 48 49 49 48 49 49 48 49 49 48 49 49 48 49 49 48 49 49 48 49 49 48 49 49 48 49 49 48 49 49 48 49 49 48 49 49 48 49 49 48 49 49 48 49 49 48 49 49 48 49 49 48 49 49 48 49 49 48 49 49 48 49 49 48 49 49 48 49 49 48 49 49 48 49 49 48 49 49 48 49 49 48 49 49 48 49 49 48 49 49 48 49 49 48 49 49 48 49 49 48 49 49 48 49 49 48 49 49 48 49 49 48 49 49 48 49 49 48 49 49 48 49 49 48 49 49 48 49 49 48 49 49 48 49 49 48 49 49 48 49 49 48 49 49 48 49 49 48 49 49 48 49 49 48 49 49 48 49 49 48 49 49 48 49 49 48 49 49 48 49 49 48 49 49 48 49 49 48 49 49 48 49 49 48 49 49 48 49 49 48 49 49 48 49 49 48 49 49 48 49 49 48 49 49 48 49 49 48 49 49 48 49 49 48 49
49 48 49 49 48 49 49 48 49 49 48 49 49 48 49 49 48 49 49 48 49 49 48 49 49 48 49 49 48 49 49 48 49 49 48 49 49 48 49 49 48 49 49 48 49 49 48 49 49 48 49 49 48 49 49 48 49 49 48 49 49 48 49 49 48 49 49 48 49 49 48 49 49 48 49 49 48 49 49 48 49 49 48 49 49 48 49 49 48 49 49 48 49 49 48 49 49 48 49 49 48 49 49 48 49 49 48 49 49 48 49 49 48 49 49 48 49 49 48 49 49 48 49 49 48 49 49 48 49 49 48 49 49 48 49 49 48 49 49 48 49 49 48 49 49 48 49 49 48 49 49 48 49 49 48 49 49 48 49 49 48 49 49 48 49 49 48 49 49 48 49 49 48 49 49 48 49 49 48 49 49 48 49 49 48 49 49 48 49 49 48 49 49 48 49 49 48 49 49 48 49 49 48 49 49 48 49 49 48 49 49 48 49 49 48 49 49 48 49 49 48 49 49 48 49 49 48 49 49 48 49 49 48 49 49 48 49 49 48 49 49 48 49 49 48 49 49 48 49 49 48 49 49 48 49 49 48 49 49 48 49 49 48 49 49 48 49 49 48 49 49 48 49 49 48 49 49 48 49 49 48 49 49 48 49 49 48 49 49 48 49 49 48 49 49 48 49 49 48 49 49 48 49 49 48 49 49 48 49 49 48 49 49 48 49 49 48 49 49 48 49 49 48 49 49 48 49 49 48 49 49 48 49 49 48 49 49 48 49 49 48 49 49 48 49 49 48 49 49 48 49 49 48 49 49 48 49 49 48 49 49 48 49 49 48 49 49 48 49 49 48 49 49 48 49 49 48 49 49 48 49 49 48 49
49 48 49 49 48 49 49 48 49 49 48 49 49 48 49 49 48 49 49 48 49 49 48 49 49 48 49 49 48 49 49 48 49 49 48 49 49 48 49 49 48 49 49 48 49 49 48 49 49 48 49 49 48 49 49 48 49 49 48 49 49 48 49 49 48 49 49 48 49 49 48 49 49 48 49 49 48 49 49 48 49 49 48 49 49 48 49 49 48 49 49 48 49 49 48 49 49 48 49 49 48 49 49 48 49 49 48 49 49 48 49 49 48 49 49 48 49 49 48 49 49 48 49 49 48 49 49 48 49 49 48 49 49 48 49 49 48 49 49 48 49 49 48 49 49 48 49 49 48 49 49 48 49 49 48 49 49 48 49 49 48 49 49 48 49 49 48 49 49 48 49 49 48 49 49 48 49 49 48 49 49 48 49 49 48 49 49 48 49 49 48 49 49 48 49 49 48 49 49 48 49 49 48 49 49 48 49 49 48 49 49 48 49 49 48 49 49 48 49 49 48 49 49 48 49 49 48 49 49 48 49 49 48 49 49 48 49 49 48 49 49 48 49 49 48 49 49 48 49 49 48 49 49 48 49 49 48 49 49 48 49 49 48 49 49 48 49 49 48 49 49 48 49 49 48 49 49 48 49 49 48 49 49 48 49 49 48 49 49 48 49 49 48 49 49 48 49 49 48 49 49 48 49 49 48 49 49 48 49 49 48 49 49 48 49 49 48 49 49 48 49 49 48 49 49 48 49 49 48 49 49 48 49 49 48 49 49 48 49 49 48 49 49 48 49 49 48 49 49 48 49 49 48 49 49 48 49 49 48 49 49 48 49 49 48 49 49 48 49 49 48 49 49 48 49 49 48 49 49 48 49 49 48 49
49 48 49 49 48 49 49 48 49 49 48 49 49 48 49 49 48 49 49 48 49 49 48 49 49 48 49 49 48 49 49 48 49 49 48 49 49 48 49 49 48 49 49 48 49 49 48 49 49 48 49 49 48 49 49 48 49 49 48 49 49 48 49 49 48 49 49 48 49 49 48 49 49 48 49 49 48 49 49 48 49 49 48 49 49 48 49 49 48 49 49 48 49 49 48 49 49 48 49 49 48 49 49 48 49 49 48 49 49 48 49 49 48 49 49 48 49 49 48 49 49 48 49 49 48 49 49 48 49 49 48 49 49 48 49 49 48 49 49 48 49 49 48 49 49 48 49 49 48 49 49 48 49 49 48 49 49 48 49 49 48 49 49 48 49 49 48 49 49 48 49 49 48 49 49 48 49 49 48 49 49 48 49 49 48 49 49 48 49 49 48 49 49 48 49 49 48 49 49 48 49 49 48 49 49 48 49 49 48 49 49 48 49 49 48 49 49 48 49 49 48 49 49 48 49 49 48 49 49 48 49 49 48 49 49 48 49 49 48 49 49 48 49 49 48 49 49 48 49 49 48 49 49 48 49 49 48 49 49 48 49 49 48 49 49 48 49 49 48 49 49 48 49 49 48 49 49 48 49 49 48 49 49 48 49 49 48 49 49 48 49 49 48 49 49 48 49 49 48 49 49 48 49 49 48 49 49 48 49 49 48 49 49 48 49 49 48 49 49 48 49 49 48 49 49 48 49 49 48 49 49 48 49 49 48 49 49 48 49 49 48 49 49 48 49 49 48 49 49 48 49 49 48 49 49 48 49 49 48 49 49 48 49 49 48 49 49 48 49 49 48 49 49 48 49 49 48 49 49 48 49 49 48 49
49 48 49 49 48 49 49 48 49 49 48 49 49 48 49 49 48 49 49 48 49 49 48 49 49 48 49 49 48 49 49 48 49 49 48 49 49 48 49 49 48 49 49 48 49 49 48 49 49 48 49 49 48 49 49 48 49 49 48 49 49 48 49 49 48 49 49 48 49 49 48 49 49 48 49 49 48 49 49 48 49 49 48 49 49 48 49 49 48 49 49 48 49 49 48 49 49 48 49 49 48 49 49 48 49 49 48 49 49 48 49 49 48 49 49 48 49 49 48 49 49 48 49 49 48 49 49 48 49 49 48 49 49 48 49 49 48 49 49 48 49 49 48 49 49 48 49 49 48 49 49 48 49 49 48 49 49 48 49 49 48 49 49 48 49 49 48 49 49 48 49 49 48 49 49 48 49 49 48 49 49 48 49 49 48 49 49 48 49 49 48 49 49 48 49 49 48 49 49 48 49 49 48 49 49 48 49 49 48 49 49 48 49 49 48 49 49 48 49 49 48 49 49 48 49 49 48 49 49 48 49 49 48 49 49 48 49 49 48 49 49 48 49 49 48 49 49 48 49 49 48 49 49 48 49 49 48 49 49 48 49 49 48 49 49 48 49 49 48 49 49 48 49 49 48 49 49 48 49 49 48 49 49 48 49 49 48 49 49 48 49 49 48 49 49 48 49 49 48 49 49 48 49 49 48 49 49 48 49 49 48 49 49 48 49 49 48 49 49 48 49 49 48 49 49 48 49 49 48 49 49 48 49 49 48 49 49 48 49 49 48 49 49 48 49 49 48 49 49 48 49 49 48 49 49 48 49 49 48 49 49 48 49 49 48 49 49 48 49 49 48 49 49 48 49 49 48 49 49 48 49 49 48 49
49 48 49 49 48 49 49 48 49 49 48 49 49 48 49 49 48 49 49 48 49 49 48 49 49 48 49 49 48 49 49 48 49 49 48 49 49 48 49 49 48 49 49 48 49 49 48 49 49 48 49 49 48 49 49 48 49 49 48 49 49 48 49 49 48 49 49 48 49 49 48 49 49 48 49 49 48 49 49 48 49 49 48 49 49 48 49 49 48 49 49 48 49 49 48 49 49 48 49 49 48 49 49 48 49 49 48 49 49 48 49 49 48 49 49 48 49 49 48 49 49 48 49 49 48 49 49 48 49 49 48 49 49 48 49 49 48 49 49 48 49 49 48 49 49 48 49 49 48 49 49 48 49 49 48 49 49 48 49 49 48 49 49 48 49 49 48 49 49 48 49 49 48 49 49 48 49 49 48 49 49 48 49 49 48 49 49 48 49 49 48 49 49 48 49 49 48 49 49 48 49 49 48 49 49 48 49 49 48 49 49 48 49 49 48 49 49 48 49 49 48 49 49 48 49 49 48 49 49 48 49 49 48 49 49 48 49 49 48 49 49 48 49 49 48 49 49 48 49 49 48 49 49 48 49 49 48 49 49 48 49 49 48 49 49 48 49 49 48 49 49 48 49 49 48 49 49 48 49 49 48 49 49 48 49 49 48 49 49 48 49 49 48 49 49 48 49 49 48 49 49 48 49 49 48 49 49 48 49 49 48 49 49 48 49 49 48 49 49 48 49 49 48 49 49 48 49 49 48 49 49 48 49 49 48 49 49 48 49 49 48 49 49 48 49 49 48 49 49 48 49 49 48 49 49 48 49 49 48 49 49 48 49 49 48 49 49 48 49 49 48 49 49 48 49 49 48 49 49 48 49 49 48 49
49 48 49 49 48 49 49 48 49 49 48 49 49 48 49 49 48 49 49 48 49 49 48 49 49 48 49 49 48 49 49 48 49 49 48 49 49 48 49 49 48 49 49 48 49 49 48 49 49 48 49 49 48 49 49 48 49 49 48 49 49 48 49 49 48 49 49 48 49 49 48 49 49 48 49 49 48 49 49 48 49 49 48 49 49 48 49 49 48 49 49 48 49 49 48 49 49 48 49 49 48 49 49 48 49 49 48 49 49 48 49 49 48 49 49 48 49 49 48 49 49 48 49 49 48 49 49 48 49 49 48 49 49 48 49 49 48 49 49 48 49 49 48 49 49 48 49 49 48 49 49 48 49 49 48 49 49 48 49 49 48 49 49 48 49 49 48 49 49 48 49 49 48 49 49 48 49 49 48 49 49 48 49 49 48 49 49 48 49 49 48 49 49 48 49 49 48 49 49 48 49 49 48 49 49 48 49 49 48 49 49 48 49 49 48 49 49 48 49 49 48 49 49 48 49 49 48 49 49 48 49 49 48 49 49 48 49 49 48 49 49 48 49 49 48 49 49 48 49 49 48 49 49 48 49 49 48 49 49 48 49 49 48 49 49 48 49 49 48 49 49 48 49 49 48 49 49 48 49 49 48 49 49 48 49 49 48 49 49 48 49 49 48 49 49 48 49 49 48 49 49 48 49 49 48 49 49 48 49 49 48 49 49 48 49 49 48 49 49 48 49 49 48 49 49 48 49 49 48 49 49 48 49 49 48 49 49 48 49 49 48 49 49 48 49 49 48 49 49 48 49 49 48 49 49 48 49 49 48 49 49 48 49 49 48 49 49 48 49 49 48 49 49 48 49 49 48 49 49 48 49 49 48 49
49 48 49 49 48 49 49 48 49 49 48 49 49 48 49 49 48 49 49 48 49 49 48 49 49 48 49 49 48 49 49 48 49 49 48 49 49 48 49 49 48 49 49 48 49 49 48 49 49 48 49 49 48 49 49 48 49 49 48 49 49 48 49 49 48 49 49 48 49 49 48 49 49 48 49 49 48 49 49 48 49 49 48 49 49 48 49 49 48 49 49 48 49 49 48 49 49 48 49 49 48 49 49 48 49 49 48 49 49 48 49 49 48 49 49 48 49 49 48 49 49 48 49 49 48 49 49 48 49 49 48 49 49 48 49 49 48 49 49 48 49 49 48 49 49 48 49 49 48 49 49 48 49 49 48 49 49 48 49 49 48 49 49 48 49 49 48 49 49 48 49 49 48 49 49 48 49 49 48 49 49 48 49 49 48 49 49 48 49 49 48 49 49 48 49 49 48 49 49 48 49 49 48 49 49 48 49 49 48 49 49 48 49 49 48 49 49 48 49 49 48 49 49 48 49 49 48 49 49 48 49 49 48 49 49 48 49 49 48 49 49 48 49 49 48 49 49 48 49 49 48 49 49 48 49 49 48 49 49 48 49 49 48 49 49 48 49 49 48 49 49 48 49 49 48 49 49 48 49 49 48 49 49 48 49 49 48 49 49 48 49 49 48 49 49 48 49 49 48 49 49 48 49 49 48 49 49 48 49 49 48 49 49 48 49 49 48 49 49 48 49 49 48 49 49 48 49 49 48 49 49 48 49 49 48 49 49 48 49 49 48 49 49 48 49 49 48 49 49 48 49 49 48 49 49 48 49 49 48 49 49 48 49 49 48 49 49 48 49 49 48 49 49 48 49 49 48 49 49 48 49 49 48 49
49 48 49 49 48 49 49 48 49 49 48 49 49 48 49 49 48 49 49 48 49 49 48 49 49 48 49 49 48 49 49 48 49 49 48 49 49 48 49 49 48 49 49 48 49 49 48 49 49 48 49 49 48 49 49 48 49 49 48 49 49 48 49 49 48 49 49 48 49 49 48 49 49 48 49 49 48 49 49 48 49 49 48 49 49 48 49 49 48 49 49 48 49 49 48 49 49 48 49 49 48 49 49 48 49 49 48 49 49 48 49 49 48 49 49 48 49 49 48 49 49 48 49 49 48 49 49 48 49 49 48 49 49 48 49 49 48 49 49 48 49 49 48 49 49 48 49 49 48 49 49 48 49 49 48 49 49 48 49 49 48 49 49 48 49 49 48 49 49 48 49 49 48 49 49 48 49 49 48 49 49 48 49 49 48 49 49 48 49 49 48 49 49 48 49 49 48 49 49 48 49 49 48 49 49 48 49 49 48 49 49 48 49 49 48 49 49 48 49 49 48 49 49 48 49 49 48 49 49 48 49 49 48 49 49 48 49 49 48 49 49 48 49 49 48 49 49 48 49 49 48 49 49 48 49 49 48 49 49 48 49 49 48 49 49 48 49 49 48 49 49 48 49 49 48 49 49 48 49 49 48 49 49 48 49 49 48 49 49 48 49 49 48 49 49 48 49 49 48 49 49 48 49 49 48 49 49 48 49 49 48 49 49 48 49 49 48 49 49 48 49 49 48 49 49 48 49 49 48 49 49 48 49 49 48 49 49 48 49 49 48 49 49 48 49 49 48 49 49 48 49 49 48 49 49 48 49 49 48 49 49 48 49 49 48 49 49 48 49 49 48 49 49 48 49 49 48 49 49 48 49 49 48 49
49 48 49 49 48 49 49 48 49 49 48 49 49 48 49 49 48 49 49 48 49 49 48 49 49 48 49 49 48 49 49 48 49 49 48 49 49 48 49 49 48 49 49 48 49 49 48 49 49 48 49 49 48 49 49 48 49 49 48 49 49 48 49 49 48 49 49 48 49 49 48 49 49 48 49 49 48 49 49 48 49 49 48 49 49 48 49 49 48 49 49 48 49 49 48 49 49 48 49 49 48 49 49 48 49 49 48 49 49 48 49 49 48 49 49 48 49 49 48 49 49 48 49 49 48 49 49 48 49 49 48 49 49 48 49 49 48 49 49 48 49 49 48 49 49 48 49 49 48 49 49 48 49 49 48 49 49 48 49 49 48 49 49 48 49 49 48 49 49 48 49 49 48 49 49 48 49 49 48 49 49 48 49 49 48 49 49 48 49 49 48 49 49 48 49 49 48 49 49 48 49 49 48 49 49 48 49 49 48 49 49 48 49 49 48 49 49 48 49 49 48 49 49 48 49 49 48 49 49 48 49 49 48 49 49 48 49 49 48 49 49 48 49 49 48 49 49 48 49 49 48 49 49 48 49 49 48 49 49 48 49 49 48 49 49 48 49 49 48 49 49 48 49 49 48 49 49 48 49 49 48 49 49 48 49 49 48 49 49 48 49 49 48 49 49 48 49 49 48 49 49 48 49 49 48 49 49 48 49 49 48 49 49 48 49 49 48 49 49 48 49 49 48 49 49 48 49 49 48 49 49 48 49 49 48 49 49 48 49 49 48 49 49 48 49 49 48 49 49 48 49 49 48 49 49 48 49 49 48 49 49 48 49 49 48 49 49 48 49 49 48 49 49 48 49 49 48 49 49 48 49 49 48 49
49 48 49 49 48 49 49 48 49 49 48 49 49 48 49 49 48 49 49 48 49 49 48 49 49 48 49 49 48 49 49 48 49 49 48 49 49 48 49 49 48 49 49 48 49 49 48 49 49 48 49 49 48 49 49 48 49 49 48 49 49 48 49 49 48 49 49 48 49 49 48 49 49 48 49 49 48 49 49 48 49 49 48 49 49 48 49 49 48 49 49 48 49 49 48 49 49 48 49 49 48 49 49 48 49 49 48 49 49 48 49 49 48 49 49 48 49 49 48 49 49 48 49 49 48 49 49 48 49 49 48 49 49 48 49 49 48 49 49 48 49 49 48 49 49 48 49 49 48 49 49 48 49 49 48 49 49 48 49 49 48 49 49 48 49 49 48 49 49 48 49 49 48 49 49 48 49 49 48 49 49 48 49 49 48 49 49 48 49 49 48 49 49 48 49 49 48 49 49 48 49 49 48 49 49 48 49 49 48 49 49 48 49 49 48 49 49 48 49 49 48 49 49 48 49 49 48 49 49 48 49 49 48 49 49 48 49 49 48 49 49 48 49 49 48 49 49 48 49 49 48 49 49 48 49 49 48 49 49 48 49 49 48 49 49 48 49 49 48 49 49 48 49 49 48 49 49 48 49 49 48 49 49 48 49 49 48 49 49 48 49 49 48 49 49 48 49 49 48 49 49 48 49 49 48 49 49 48 49 49 48 49 49 48 49 49 48 49 49 48 49 49 48 49 49 48 49 49 48 49 49 48 49 49 48 49 49 48 49 49 48 49 49 48 49 49 48 49 49 48 49 49 48 49 49 48 49 49 48 49 49 48 49 49 48 49 49 48 49 49 48 49 49 48 49 49 48 49 49 48 49 49 48 49
49 48 49 49 48 49 49 48 49 49 48 49 49 48 49 49 48 49 49 48 49 49 48 49 49 48 49 49 48 49 49 48 49 49 48 49 49 48 49 49 48 49 49 48 49 49 48 49 49 48 49 49 48 49 49 48 49 49 48 49 49 48 49 49 48 49 49 48 49 49 48 49 49 48 49 49 48 49 49 48 49 49 48 49 49 48 49 49 48 49 49 48 49 49 48 49 49 48 49 49 48 49 49 48 49 49 48 49 49 48 49 49 48 49 49 48 49 49 48 49 49 48 49 49 48 49 49 48 49 49 48 49 49 48 49 49 48 49 49 48 49 49 48 49 49 48 49 49 48 49 49 48 49 49 48 49 49 48 49 49 48 49 49 48 49 49 48 49 49 48 49 49 48 49 49 48 49 49 48 49 49 48 49 49 48 49 49 48 49 49 48 49 49 48 49 49 48 49 49 48 49 49 48 49 49 48 49 49 48 49 49 48 49 49 48 49 49 48 49 49 48 49 49 48 49 49 48 49 49 48 49 49 48 49 49 48 49 49 48 49 49 48 49 49 48 49 49 48 49 49 48 49 49 48 49 49 48 49 49 48 49 49 48 49 49 48 49 49 48 49 49 48 49 49 48 49 49 48 49 49 48 49 49 48 49 49 48 49 49 48 49 49 48 49 49 48 49 49 48 49 49 48 49 49 48 49 49 48 49 49 48 49 49 48 49 49 48 49 49 48 49 49 48 49 49 48 49 49 48 49 49 48 49 49 48 49 49 48 49 49 48 49 49 48 49 49 48 49 49 48 49 49 48 49 49 48 49 49 48 49 49 48 49 49 48 49 49 48 49 49 48 49 49 48 49 49 48 49 49 48 49 49 48 49
