P3
128 128
255
49 48 49 49 48 49 49 48 49 49 48 49 49 48 49 49 48 49 49 48 49 49 48 49 49 48 49 49 48 49 49 48 49 49 48 49 49 48 49 49 48 49 49 48 49 49 48 49 49 48 49 49 48 49 49 48 49 49 48 49 49 48 49 49 48 49 49 48 49 49 48 49 49 48 49 49 48 49 49 48 49 49 48 49 49 48 49 49 48 49 49 48 49 49 48 49 49 48 49 49 48 49 49 48 49 49 48 49 49 48 49 49 48 49 49 48 49 49 48 49 49 48 49 49 48 49 49 48 49 49 48 49 49 48 49 49 48 49 49 48 49 49 48 49 49 48 49 49 48 49 49 48 49 49 48 49 49 48 49 49 48 49 49 48 49 49 48 49 49 48 49 49 48 49 49 48 49 49 48 49 49 48 49 49 48 49 49 48 49 49 48 49 49 48 49 49 48 49 49 48 49 49 48 49 49 48 49 49 48 49 49 48 49 49 48 49 49 48 49 49 48 49 49 48 49 49 48 49 49 48 49 49 48 49 49 48 49 49 48 49 49 48 49 49 48 49 49 48 49 49 48 49 49 48 49 49 48 49 49 48 49 49 48 49 49 48 49 49 48 49 49 48 49 49 48 49 49 48 49 49 48 49 49 48 49 49 48 49 49 48 49 49 48 49 49 48 49 49 48 49 49 48 49 49 48 49 49 48 49 49 48 49 49 48 49 49 48 49 49 48 49 49 48 49 49 48 49 49 48 49 49 48 49 49 48 49 49 48 49 49 48 49 49 48 49 49 48 49 49 48 49 49 48 49 49 48 49 49 48 49 49 48 49 49 48 49 49 48 49 49 48 49 49 48 49 49 48 49 49 48 49 49 48 49
49 48 49 49 48 49 49 48 49 49 48 49 49 48 49 49 48 49 49 48 49 49 48 49 49 48 49 49 48 49 49 48 49 49 48 49 49 48 49 49 48 49 49 48 49 49 48 49 49 48 49 49 48 49 49 48 49 49 48 49 49 48 49 49 48 49 49 48 49 49 48 49 49 48 49 49 48 49 49 48 49 49 48 49 49 48 49 49 48 49 49 48 49 49 48 49 49 48 49 49 48 49 49 48 49 49 48 49 49 48 49 49 48 49 49 48 49 49 48 49 49 48 49 49 48 49 49 48 49 49 48 49 49 48 49 49 48 49 49 48 49 49 48 49 49 48 49 49 48 49 49 48 49 49 48 49 49 48 49 49 48 49 49 48 49 49 48 49 49 48 49 49 48 49 49 48 49 49 48 49 49 48 49 49 48 49 49 48 49 49 48 49 49 48 49 49 48 49 49 48 49 49 48 49 49 48 49 49 48 49 49 48 49 49 48 49 49 48 49 49 48 49 49 48 49 49 48 49 49 48 49 49 48 49 49 48 49 49 48 49 49 48 49 49 48 49 49 48 49 49 48 49 49 48 49 49 48 49 49 48 49 49 48 49 49 48 49 49 48 49 49 48 49 49 48 49 49 48 49 49 48 49 49 48 49 49 48 49 49 48 49 49 48 49 49 48 49 49 48 49 49 48 49 49 48 49 49 48 49 49 48 49 49 48 49 49 48 49 49 48 49 49 48 49 49 48 49 49 48 49 49 48 49 49 48 49 49 48 49 49 48 49 49 48 49 49 48 49 49 48 49 49 48 49 49 48 49 49 48 49 49 48 49 49 48 49 49 48 49 49 48 49 49 48 49 49 48 49 49 48 49 49 48 49
49 48 49 49 48 49 49 48 49 49 48 49 49 48 49 49 48 49 49 48 49 49 48 49 49 48 49 49 48 49 49 48 49 49 48 49 49 48 49 49 48 49 49 48 49 49 48 49 49 48 49 49 48 49 49 48 49 49 48 49 49 48 49 49 48 49 49 48 49 49 48 49 49 48 49 49 48 49 49 48 49 49 48 49 49 48 49 49 48 49 49 48 49 49 48 49 49 48 49 49 48 49 49 48 49 49 48 49 49 48 49 49 48 49 49 48 49 49 48 49 49 48 49 49 48 49 49 48 49 49 48 49 49 48 49 49 48 49 49 48 49 49 48 49 49 48 49 49 48 49 49 48 49 49 48 49 49 48 49 49 48 49 49 48 49 49 48 49 49 48 49 49 48 49 49 48 49 49 48 49 49 48 49 49 48 49 49 48 49 49 48 49 49 48 49 49 48 49 49 48 49 49 48 49 49 48 49 49 48 49 49 48 49 49 48 49 49 48 49 49 48 49 49 48 49 49 48 49 49 48 49 49 48 49 49 48 49 49 48 49 49 48 49 49 48 49 49 48 49 49 48 49 49 48 49 49 48 49 49 48 49 49 48 49 49 48 49 49 48 49 49 48 49 49 48 49 49 48 49 49 48 49 49 48 49 49 48 49 49 48 49 49 48 49 49 48 49 49 48 49 49 48 49 49 48 49 49 48 49 49 48 49 49 48 49 49 48 49 49 48 49 49 48 49 49 48 49 49 48 49 49 48 49 49 48 49 49 48 49 49 48 49 49 48 49 49 48 49 49 48 49 49 48 49 49 48 49 49 48 49 49 48 49 49 48 49 49 48 49 49 48 49 49 48 49 49 48 49 49 48 49 49 48 49
49 48 49 49 48 49 49 48 49 49 48 49 49 48 49 49 48 49 49 48 49 49 48 49 49 48 49 49 48 49 49 48 49 49 48 49 49 48 49 49 48 49 49 48 49 49 48 49 49 48 49 49 48 49 49 48 49 49 48 49 49 48 49 49 48 49 49 48 49 49 48 49 49 48 49 49 48 49 49 48 49 49 48 49 49 48 49 49 48 49 49 48 49 49 48 49 49 48 49 49 48 49 49 48 49 49 48 49 49 48 49 49 48 49 49 48 49 49 48 49 49 48 49 49 48 49 49 48 49 49 48 49 49 48 49 49 48 49 49 48 49 49 48 49 49 48 49 49 48 49 49 48 49 49 48 49 49 48 49 49 48 49 49 48 49 49 48 49 49 48 49 49 48 49 49 48 49 49 48 49 49 48 49 49 48 49 49 48 49 49 48 49 49 48 49 49 48 49 49 48 49 49 48 49 49 48 49 49 48 49 49 48 49 49 48 49 49 48 49 49 48 49 49 48 49 49 48 49 49 48 49 49 48 49 49 48 49 49 48 49 49 48 49 49 48 49 49 48 49 49 48 49 49 48 49 49 48 49 49 48 49 49 48 49 49 48 49 49 48 49 49 48 49 49 48 49 49 48 49 49 48 49 49 48 49 49 48 49 49 48 49 49 48 49 49 48 49 49 48 49 49 48 49 49 48 49 49 48 49 49 48 49 49 48 49 49 48 49 49 48 49 49 48 49 49 48 49 49 48 49 49 48 49 49 48 49 49 48 49 49 48 49 49 48 49 49 48 49 49 48 49 49 48 49 49 48 49 49 48 49 49 48 49 49 48 49 49 48 49 49 48 49 49 48 49 49 48 49 49 48 49 49 48 49
49 48 49 49 48 49 49 48 49 49 48 49 49 48 49 49 48 49 49 48 49 49 48 49 49 48 49 49 48 49 49 48 49 49 48 49 49 48 49 49 48 49 49 48 49 49 48 49 49 48 49 49 48 49 49 48 49 49 48 49 49 48 49 49 48 49 49 48 49 49 48 49 49 48 49 49 48 49 49 48 49 49 48 49 49 48 49 49 48 49 49 48 49 49 48 49 49 48 49 49 48 49 49 48 49 49 48 49 49 48 49 49 48 49 49 48 49 49 48 49 49 48 49 49 48 49 49 48 49 49 48 49 49 48 49 49 48 49 49 48 49 49 48 49 49 48 49 49 48 49 49 48 49 49 48 49 49 48 49 49 48 49 49 48 49 49 48 49 49 48 49 49 48 49 49 48 49 49 48 49 49 48 49 49 48 49 49 48 49 49 48 49 49 48 49 49 48 49 49 48 49 49 48 49 49 48 49 49 48 49 49 48 49 49 48 49 49 48 49 49 48 49 49 48 49 49 48 49 49 48 49 49 48 49 49 48 49 49 48 49 49 48 49 49 48 49 49 48 49 49 48 49 49 48 49 49 48 49 49 48 49 49 48 49 49 48 49 49 48 49 49 48 49 49 48 49 49 48 49 49 48 49 49 48 49 49 48 49 49 48 49 49 48 49 49 48 49 49 48 49 49 48 49 49 48 49 49 48 49 49 48 49 49 48 49 49 48 49 49 48 49 49 48 49 49 48 49 49 48 49 49 48 49 49 48 49 49 48 49 49 48 49 49 48 49 49 48 49 49 48 49 49 48 49 49 48 49 49 48 49 49 48 49 49 48 49 49 48 49 49 48 49 49 48 49 49 48 49 49 48 49 49 48 49
49 48 49 49 48 49 49 48 49 49 48 49 49 48 49 49 48 49 49 48 49 49 48 49 49 48 49 49 48 49 49 48 49 49 48 49 49 48 49 49 48 49 49 48 49 49 48 49 49 48 49 49 48 49 49 48 49 49 48 49 49 48 49 49 48 49 49 48 49 49 48 49 49 48 49 49 48 49 49 48 49 49 48 49 49 48 49 49 48 49 49 48 49 49 48 49 49 48 49 49 48 49 49 48 49 49 48 49 49 48 49 49 48 49 49 48 49 49 48 49 49 48 49 49 48 49 49 48 49 49 48 49 49 48 49 49 48 49 49 48 49 49 48 49 49 48 49 49 48 49 49 48 49 49 48 49 49 48 49 49 48 49 49 48 49 49 48 49 49 48 49 49 48 49 49 48 49 49 48 49 49 48 49 49 48 49 49 48 49 49 48 49 49 48 49 49 48 49 49 48 49 49 48 49 49 48 49 49 48 49 49 48 49 49 48 49 49 48 49 49 48 49 49 48 49 49 48 49 49 48 49 49 48 49 49 48 49 49 48 49 49 48 49 49 48 49 49 48 49 49 48 49 49 48 49 49 48 49 49 48 49 49 48 49 49 48 49 49 48 49 49 48 49 49 48 49 49 48 49 49 48 49 49 48 49 49 48 49 49 48 49 49 48 49 49 48 49 49 48 49 49 48 49 49 48 49 49 48 49 49 48 49 49 48 49 49 48 49 49 48 49 49 48 49 49 48 49 49 48 49 49 48 49 49 48 49 49 48 49 49 48 49 49 48 49 49 48 49 49 48 49 49 48 49 49 48 49 49 48 49 49 48 49 49 48 49 49 48 49 49 48 49 49 48 49 49 48 49 49 48 49 49 48 49
49 48 49 49 48 49 49 48 49 49 48 49 49 48 49 49 48 49 49 48 49 49 48 49 49 48 49 49 48 49 49 48 49 49 48 49 49 48 49 49 48 49 49 48 49 49 48 49 49 48 49 49 48 49 49 48 49 49 48 49 49 48 49 49 48 49 49 48 49 49 48 49 49 48 49 49 48 49 49 48 49 49 48 49 49 48 49 49 48 49 49 48 49 49 48 49 49 48 49 49 48 49 49 48 49 49 48 49 49 48 49 49 48 49 49 48 49 49 48 49 49 48 49 49 48 49 49 48 49 49 48 49 49 48 49 49 48 49 49 48 49 49 48 49 49 48 49 49 48 49 49 48 49 49 48 49 49 48 49 49 48 49 49 48 49 49 48 49 49 48 49 49 48 49 49 48 49 49 48 49 49 48 49 49 48 49 49 48 49 49 48 49 49 48 49 49 48 49 49 48 49 49 48 49 49 48 49 49 48 49 49 48 49 49 48 49 49 48 49 49 48 49 49 48 49 49 48 49 49 48 49 49 48 49 49 48 49 49 48 49 49 48 49 49 48 49 49 48 49 49 48 49 49 48 49 49 48 49 49 48 49 49 48 49 49 48 49 49 48 49 49 48 49 49 48 49 49 48 49 49 48 49 49 48 49 49 48 49 49 48 49 49 48 49 49 48 49 49 48 49 49 48 49 49 48 49 49 48 49 49 48 49 49 48 49 49 48 49 49 48 49 49 48 49 49 48 49 49 48 49 49 48 49 49 48 49 49 48 49 49 48 49 49 48 49 49 48 49 49 48 49 49 48 49 49 48 49 49 48 49 49 48 49 49 48 49 49 48 49 49 48 49 49 48 49 49 48 49 49 48 49 49 48 49
49 48 49 49 48 49 49 48 49 49 48 49 49 48 49 49 48 49 49 48 49 49 48 49 49 48 49 49 48 49 49 48 49 49 48 49 49 48 49 49 48 49 49 48 49 49 48 49 49 48 49 49 48 49 49 48 49 49 48 49 49 48 49 49 48 49 49 48 49 49 48 49 49 48 49 49 48 49 49 48 49 49 48 49 49 48 49 49 48 49 49 48 49 49 48 49 49 48 49 49 48 49 49 48 49 49 48 49 49 48 49 49 48 49 49 48 49 49 48 49 49 48 49 49 48 49 49 48 49 49 48 49 49 48 49 49 48 49 49 48 49 49 48 49 49 48 49 49 48 49 49 48 49 49 48 49 49 48 49 49 48 49 49 48 49 49 48 49 49 48 49 49 48 49 49 48 49 49 48 49 49 48 49 49 48 49 49 48 49 49 48 49 49 48 49 49 48 49 49 48 49 49 48 49 49 48 49 49 48 49 49 48 49 49 48 49 49 48 49 49 48 49 49 48 49 49 48 49 49 48 49 49 48 49 49 48 49 49 48 49 49 48 49 49 48 49 49 48 49 49 48 49 49 48 49 49 48 49 49 48 49 49 48 49 49 48 49 49 48 49 49 48 49 49 48 49 49 48 49 49 48 49 49 48 49 49 48 49 49 48 49 49 48 49 49 48 49 49 48 49 49 48 49 49 48 49 49 48 49 49 48 49 49 48 49 49 48 49 49 48 49 49 48 49 49 48 49 49 48 49 49 48 49 49 48 49 49 48 49 49 48 49 49 48 49 49 48 49 49 48 49 49 48 49 49 48 49 49 48 49 49 48 49 49 48 49 49 48 49 49 48 49 49 48 49 49 48 49 49 48 49 49 48 49
49 48 49 49 48 49 49 48 49 49 48 49 49 48 49 49 48 49 49 48 49 49 48 49 49 48 49 49 48 49 49 48 49 49 48 49 49 48 49 49 48 49 49 48 49 49 48 49 49 48 49 49 48 49 49 48 49 49 48 49 49 48 49 49 48 49 49 48 49 49 48 49 49 48 49 49 48 49 49 48 49 49 48 49 49 48 49 49 48 49 49 48 49 49 48 49 49 48 49 49 48 49 49 48 49 49 48 49 49 48 49 49 48 49 49 48 49 49 48 49 49 48 49 49 48 49 49 48 49 49 48 49 49 48 49 49 48 49 49 48 49 49 48 49 49 48 49 49 48 49 49 48 49 49 48 49 49 48 49 49 48 49 49 48 49 49 48 49 49 48 49 49 48 49 49 48 49 49 48 49 49 48 49 49 48 49 49 48 49 49 48 49 49 48 49 49 48 49 49 48 49 49 48 49 49 48 49 49 48 49 49 48 49 49 48 49 49 48 49 49 48 49 49 48 49 49 48 49 49 48 49 49 48 49 49 48 49 49 48 49 49 48 49 49 48 49 49 48 49 49 48 49 49 48 49 49 48 49 49 48 49 49 48 49 49 48 49 49 48 49 49 48 49 49 48 49 49 48 49 49 48 49 49 48 49 49 48 49 49 48 49 49 48 49 49 48 49 49 48 49 49 48 49 49 48 49 49 48 49 49 48 49 49 48 49 49 48 49 49 48 49 49 48 49 49 48 49 49 48 49 49 48 49 49 48 49 49 48 49 49 48 49 49 48 49 49 48 49 49 48 49 49 48 49 49 48 49 49 48 49 49 48 49 49 48 49 49 48 49 49 48 49 49 48 49 49 48 49 49 48 49 49 48 49
49 48 49 49 48 49 49 48 49 49 48 49 49 48 49 49 48 49 49 48 49 49 48 49 49 48 49 49 48 49 49 48 49 49 48 49 49 48 49 49 48 49 49 48 49 49 48 49 49 48 49 49 48 49 49 48 49 49 48 49 49 48 49 49 48 49 49 48 49 49 48 49 49 48 49 49 48 49 49 48 49 49 48 49 49 48 49 49 48 49 49 48 49 49 48 49 49 48 49 49 48 49 49 48 49 49 48 49 49 48 49 49 48 49 49 48 49 49 48 49 49 48 49 49 48 49 49 48 49 49 48 49 49 48 49 49 48 49 49 48 49 49 48 49 49 48 49 49 48 49 49 48 49 49 48 49 49 48 49 49 48 49 49 48 49 49 48 49 49 48 49 49 48 49 49 48 49 49 48 49 49 48 49 49 48 49 49 48 49 49 48 49 49 48 49 49 48 49 49 48 49 49 48 49 49 48 49 49 48 49 49 48 49 49 48 49 49 48 49 49 48 49 49 48 49 49 48 49 49 48 49 49 48 49 49 48 49 49 48 49 49 48 49 49 48 49 49 48 49 49 48 49 49 48 49 49 48 49 49 48 49 49 48 49 49 48 49 49 48 49 49 48 49 49 48 49 49 48 49 49 48 49 49 48 49 49 48 49 49 48 49 49 48 49 49 48 49 49 48 49 49 48 49 49 48 49 49 48 49 49 48 49 49 48 49 49 48 49 49 48 49 49 48 49 49 48 49 49 48 49 49 48 49 49 48 49 49 48 49 49 48 49 49 48 49 49 48 49 49 48 49 49 48 49 49 48 49 49 48 49 49 48 49 49 48 49 49 48 49 49 48 49 49 48 49 49 48 49 49 48 49 49 48 49
49 48 49 49 48 49 49 48 49 49 48 49 49 48 49 49 48 49 49 48 49 49 48 49 49 48 49 49 48 49 49 48 49 49 48 49 49 48 49 49 48 49 49 48 49 49 48 49 49 48 49 49 48 49 49 48 49 49 48 49 49 48 49 49 48 49 49 48 49 49 48 49 49 48 49 49 48 49 49 48 49 49 48 49 49 48 49 49 48 49 49 48 49 49 48 49 49 48 49 49 48 49 49 48 49 49 48 49 49 48 49 49 48 49 49 48 49 49 48 49 49 48 49 49 48 49 49 48 49 49 48 49 49 48 49 49 48 49 49 48 49 49 48 49 49 48 49 49 48 49 49 48 49 49 48 49 49 48 49 49 48 49 49 48 49 49 48 49 49 48 49 49 48 49 49 48 49 49 48 49 49 48 49 49 48 49 49 48 49 49 48 49 49 48 49 49 48 49 49 48 49 49 48 49 49 48 49 49 48 49 49 48 49 49 48 49 49 48 49 49 48 49 49 48 49 49 48 49 49 48 49 49 48 49 49 48 49 49 48 49 49 48 49 49 48 49 49 48 49 49 48 49 49 48 49 49 48 49 49 48 49 49 48 49 49 48 49 49 48 49 49 48 49 49 48 49 49 48 49 49 48 49 49 48 49 49 48 49 49 48 49 49 48 49 49 48 49 49 48 49 49 48 49 49 48 49 49 48 49 49 48 49 49 48 49 49 48 49 49 48 49 49 48 49 49 48 49 49 48 49 49 48 49 49 48 49 49 48 49 49 48 49 49 48 49 49 48 49 49 48 49 49 48 49 49 48 49 49 48 49 49 48 49 49 48 49 49 48 49 49 48 49 49 48 49 49 48 49 49 48 49 49 48 49
49 48 49 49 48 49 49 48 49 49 48 49 49 48 49 49 48 49 49 48 49 49 48 49 49 48 49 49 48 49 49 48 49 49 48 49 49 48 49 49 48 49 49 48 49 49 48 49 49 48 49 49 48 49 49 48 49 49 48 49 49 48 49 49 48 49 49 48 49 49 48 49 49 48 49 49 48 49 49 48 49 49 48 49 49 48 49 49 48 49 49 48 49 49 48 49 49 48 49 49 48 49 49 48 49 49 48 49 49 48 49 49 48 49 49 48 49 49 48 49 49 48 49 49 48 49 49 48 49 49 48 49 49 48 49 49 48 49 49 48 49 49 48 49 49 48 49 49 48 49 49 48 49 49 48 49 49 48 49 49 48 49 49 48 49 49 48 49 49 48 49 49 48 49 49 48 49 49 48 49 49 48 49 49 48 49 49 48 49 49 48 49 49 48 49 49 48 49 49 48 49 49 48 49 49 48 49 49 48 49 49 48 49 49 48 49 49 48 49 49 48 49 49 48 49 49 48 49 49 48 49 49 48 49 49 48 49 49 48 49 49 48 49 49 48 49 49 48 49 49 48 49 49 48 49 49 48 49 49 48 49 49 48 49 49 48 49 49 48 49 49 48 49 49 48 49 49 48 49 49 48 49 49 48 49 49 48 49 49 48 49 49 48 49 49 48 49 49 48 49 49 48 49 49 48 49 49 48 49 49 48 49 49 48 49 49 48 49 49 48 49 49 48 49 49 48 49 49 48 49 49 48 49 49 48 49 49 48 49 49 48 49 49 48 49 49 48 49 49 48 49 49 48 49 49 48 49 49 48 49 49 48 49 49 48 49 49 48 49 49 48 49 49 48 49 49 48 49 49 48 49 49 48 49
49 48 49 49 48 49 49 48 49 49 48 49 49 48 49 49 48 49 49 48 49 49 48 49 49 48 49 49 48 49 49 48 49 49 48 49 49 48 49 49 48 49 49 48 49 49 48 49 49 48 49 49 48 49 49 48 49 49 48 49 49 48 49 49 48 49 49 48 49 49 48 49 49 48 49 49 48 49 49 48 49 49 48 49 49 48 49 49 48 49 49 48 49 49 48 49 49 48 49 49 48 49 49 48 49 49 48 49 49 48 49 49 48 49 49 48 49 49 48 49 49 48 49 49 48 49 49 48 49 49 48 49 49 48 49 49 48 49 49 48 49 49 48 49 49 48 49 49 48 49 49 48 49 49 48 49 49 48 49 49 48 49 49 48 49 49 48 49 49 48 49 49 48 49 49 48 49 49 48 49 49 48 49 49 48 49 49 48 49 49 48 49 49 48 49 49 48 49 49 48 49 49 48 49 49 48 49 49 48 49 49 48 49 49 48 49 49 48 49 49 48 49 49 48 49 49 48 49 49 48 49 49 48 49 49 48 49 49 48 49 49 48 49 49 48 49 49 48 49 49 48 49 49 48 49 49 48 49 49 48 49 49 48 49 49 48 49 49 48 49 49 48 49 49 48 49 49 48 49 49 48 49 49 48 49 49 48 49 49 48 49 49 48 49 49 48 49 49 48 49 49 48 49 49 48 49 49 48 49 49 48 49 49 48 49 49 48 49 49 48 49 49 48 49 49 48 49 49 48 49 49 48 49 49 48 49 49 48 49 49 48 49 49 48 49 49 48 49 49 48 49 49 48 49 49 48 49 49 48 49 49 48 49 49 48 49 49 48 49 49 48 49 49 48 49 49 48 49 49 48 49 49 48 49
49 48 49 49 48 49 49 48 49 49 48 49 49 48 49 49 48 49 49 48 49 49 48 49 49 48 49 49 48 49 49 48 49 49 48 49 49 48 49 49 48 49 49 48 49 49 48 49 49 48 49 49 48 49 49 48 49 49 48 49 49 48 49 49 48 49 49 48 49 49 48 49 49 48 49 49 48 49 49 48 49 49 48 49 49 48 49 49 48 49 49 48 49 49 48 49 49 48 49 49 48 49 49 48 49 49 48 49 49 48 49 49 48 49 49 48 49 49 48 49 49 48 49 49 48 49 49 48 49 49 48 49 49 48 49 49 48 49 49 48 49 49 48 49 49 48 49 49 48 49 49 48 49 49 48 49 49 48 49 49 48 49 49 48 49 49 48 49 49 48 49 49 48 49 49 48 49 49 48 49 49 48 49 49 48 49 49 48 49 49 48 49 49 48 49 49 48 49 49 48 49 49 48 49 49 48 49 49 48 49 49 48 49 49 48 49 49 48 49 49 48 49 49 48 49 49 48 49 49 48 49 49 48 49 49 48 49 49 48 49 49 48 49 49 48 49 49 48 49 49 48 49 49 48 49 49 48 49 49 48 49 49 48 49 49 48 49 49 48 49 49 48 49 49 48 49 49 48 49 49 48 49 49 48 49 49 48 49 49 48 49 49 48 49 49 48 49 49 48 49 49 48 49 49 48 49 49 48 49 49 48 49 49 48 49 49 48 49 49 48 49 49 48 49 49 48 49 49 48 49 49 48 49 49 48 49 49 48 49 49 48 49 49 48 49 49 48 49 49 48 49 49 48 49 49 48 49 49 48 49 49 48 49 49 48 49 49 48 49 49 48 49 49 48 49 49 48 49 49 48 49 49 48 49
49 48 49 49 48 49 49 48 49 49 48 49 49 48 49 49 48 49 49 48 49 49 48 49 49 48 49 49 48 49 49 48 49 49 48 49 49 48 49 49 48 49 49 48 49 49 48 49 49 48 49 49 48 49 49 48 49 49 48 49 49 48 49 49 48 49 49 48 49 49 48 49 49 48 49 49 48 49 49 48 49 49 48 49 49 48 49 49 48 49 49 48 49 49 48 49 49 48 49 49 48 49 49 48 49 49 48 49 49 48 49 49 48 49 49 48 49 49 48 49 49 48 49 49 48 49 49 48 49 49 48 49 49 48 49 49 48 49 49 48 49 49 48 49 49 48 49 49 48 49 49 48 49 49 48 49 49 48 49 49 48 49 49 48 49 49 48 49 49 48 49 49 48 49 49 48 49 49 48 49 49 48 49 49 48 49 49 48 49 49 48 49 49 48 49 49 48 49 49 48 49 49 48 49 49 48 49 49 48 49 49 48 49 49 48 49 49 48 49 49 48 49 49 48 49 49 48 49 49 48 49 49 48 49 49 48 49 49 48 49 49 48 49 49 48 49 49 48 49 49 48 49 49 48 49 49 48 49 49 48 49 49 48 49 49 48 49 49 48 49 49 48 49 49 48 49 49 48 49 49 48 49 49 48 49 49 48 49 49 48 49 49 48 49 49 48 49 49 48 49 49 48 49 49 48 49 49 48 49 49 48 49 49 48 49 49 48 49 49 48 49 49 48 49 49 48 49 49 48 49 49 48 49 49 48 49 49 48 49 49 48 49 49 48 49 49 48 49 49 48 49 49 48 49 49 48 49 49 48 49 49 48 49 49 48 49 49 48 49 49 48 49 49 48 49 49 48 49 49 48 49 49 48 49
49 48 49 49 48 49 49 48 49 49 48 49 49 48 49 49 48 49 49 48 49 49 48 49 49 48 49 49 48 49 49 48 49 49 48 49 49 48 49 49 48 49 49 48 49 49 48 49 49 48 49 49 48 49 49 48 49 49 48 49 49 48 49 49 48 49 49 48 49 49 48 49 49 48 49 49 48 49 49 48 49 49 48 49 49 48 49 49 48 49 49 48 49 49 48 49 49 48 49 49 48 49 49 48 49 49 48 49 49 48 49 49 48 49 49 48 49 49 48 49 49 48 49 49 48 49 49 48 49 49 48 49 49 48 49 49 48 49 49 48 49 49 48 49 49 48 49 49 48 49 49 48 49 49 48 49 49 48 49 49 48 49 49 48 49 49 48 49 49 48 49 49 48 49 49 48 49 49 48 49 49 48 49 49 48 49 49 48 49 49 48 49 49 48 49 49 48 49 49 48 49 49 48 49 49 48 49 49 48 49 49 48 49 49 48 49 49 48 49 49 48 49 49 48 49 49 48 49 49 48 49 49 48 49 49 48 49 49 48 49 49 48 49 49 48 49 49 48 49 49 48 49 49 48 49 49 48 49 49 48 49 49 48 49 49 48 49 49 48 49 49 48 49 49 48 49 49 48 49 49 48 49 49 48 49 49 48 49 49 48 49 49 48 49 49 48 49 49 48 49 49 48 49 49 48 49 49 48 49 49 48 49 49 48 49 49 48 49 49 48 49 49 48 49 49 48 49 49 48 49 49 48 49 49 48 49 49 48 49 49 48 49 49 48 49 49 48 49 49 48 49 49 48 49 49 48 49 49 48 49 49 48 49 49 48 49 49 48 49 49 48 49 49 48 49 49 48 49 49 48 49 49 48 49
49 48 49 49 48 49 49 48 49 49 48 49 49 48 49 49 48 49 49 48 49 49 48 49 49 48 49 49 48 49 49 48 49 49 48 49 49 48 49 49 48 49 49 48 49 49 48 49 49 48 49 49 48 49 49 48 49 49 48 49 49 48 49 49 48 49 49 48 49 49 48 49 49 48 49 49 48 49 49 48 49 49 48 49 49 48 49 49 48 49 49 48 49 49 48 49 49 48 49 49 48 49 49 48 49 49 48 49 49 48 49 49 48 49 49 48 49 49 48 49 49 48 49 49 48 49 49 48 49 49 48 49 49 48 49 49 48 49 49 48 49 49 48 49 49 48 49 49 48 49 49 48 49 49 48 49 49 48 49 49 48 49 49 48 49 49 48 49 49 48 49 49 48 49 49 48 49 49 48 49 49 48 49 49 48 49 49 48 49 49 48 49 49 48 49 49 48 49 49 48 49 49 48 49 49 48 49 49 48 49 49 48 49 49 48 49 49 48 49 49 48 49 49 48 49 49 48 49 49 48 49 49 48 49 49 48 49 49 48 49 49 48 49 49 48 49 49 48 49 49 48 49 49 48 49 49 48 49 49 48 49 49 48 49 49 48 49 49 48 49 49 48 49 49 48 49 49 48 49 49 48 49 49 48 49 49 48 49 49 48 49 49 48 49 49 48 49 49 48 49 49 48 49 49 48 49 49 48 49 49 48 49 49 48 49 49 48 49 49 48 49 49 48 49 49 48 49 49 48 49 49 48 49 49 48 49 49 48 49 49 48 49 49 48 49 49 48 49 49 48 49 49 48 49 49 48 49 49 48 49 49 48 49 49 48 49 49 48 49 49 48 49 49 48 49 49 48 49 49 48 49 49 48 49
49 48 49 49 48 49 49 48 49 49 48 49 49 48 49 49 48 49 49 48 49 49 48 49 49 48 49 49 48 49 49 48 49 49 48 49 49 48 49 49 48 49 49 48 49 49 48 49 49 48 49 49 48 49 49 48 49 49 48 49 49 48 49 49 48 49 49 48 49 49 48 49 49 48 49 49 48 49 49 48 49 49 48 49 49 48 49 49 48 49 49 48 49 49 48 49 49 48 49 49 48 49 49 48 49 49 48 49 49 48 49 49 48 49 49 48 49 49 48 49 49 48 49 49 48 49 49 48 49 49 48 49 49 48 49 49 48 49 49 48 49 49 48 49 49 48 49 49 48 49 49 48 49 49 48 49 49 48 49 49 48 49 49 48 49 49 48 49 49 48 49 49 48 49 49 48 49 49 48 49 49 48 49 49 48 49 49 48 49 49 48 49 49 48 49 49 48 49 49 48 49 49 48 49 49 48 49 49 48 49 49 48 49 49 48 49 49 48 49 49 48 49 49 48 49 49 48 49 49 48 49 49 48 49 49 48 49 49 48 49 49 48 49 49 48 49 49 48 49 49 48 49 49 48 49 49 48 49 49 48 49 49 48 49 49 48 49 49 48 49 49 48 49 49 48 49 49 48 49 49 48 49 49 48 49 49 48 49 49 48 49 49 48 49 49 48 49 49 48 49 49 48 49 49 48 49 49 48 49 49 48 49 49 48 49 49 48 49 49 48 49 49 48 49 49 48 49 49 48 49 49 48 49 49 48 49 49 48 49 49 48 49 49 48 49 49 48 49 49 48 49 49 48 49 49 48 49 49 48 49 49 48 49 49 48 49 49 48 49 49 48 49 49 48 49 49 48 49 49 48 49 49 48 49
49 48 49 49 48 49 49 48 49 49 48 49 49 48 49 49 48 49 49 48 49 49 48 49 49 48 49 49 48 49 49 48 49 49 48 49 49 48 49 49 48 49 49 48 49 49 48 49 49 48 49 49 48 49 49 48 49 49 48 49 49 48 49 49 48 49 49 48 49 49 48 49 49 48 49 49 48 49 49 48 49 49 48 49 49 48 49 49 48 49 49 48 49 49 48 49 49 48 49 49 48 49 49 48 49 49 48 49 49 48 49 49 48 49 49 48 49 49 48 49 49 48 49 49 48 49 49 48 49 49 48 49 49 48 49 49 48 49 49 48 49 49 48 49 49 48 49 49 48 49 49 48 49 49 48 49 49 48 49 49 48 49 49 48 49 49 48 49 49 48 49 49 48 49 49 48 49 49 48 49 49 48 49 49 48 49 49 48 49 49 48 49 49 48 49 49 48 49 49 48 49 49 48 49 49 48 49 49 48 49 49 48 49 49 48 49 49 48 49 49 48 49 49 48 49 49 48 49 49 48 49 49 48 49 49 48 49 49 48 49 49 48 49 49 48 49 49 48 49 49 48 49 49 48 49 49 48 49 49 48 49 49 48 49 49 48 49 49 48 49 49 48 49 49 48 49 49 48 49 49 48 49 49 48 49 49 48 49 49 48 49 49 48 49 49 48 49 49 48 49 49 48 49 49 48 49 49 48 49 49 48 49 49 48 49 49 48 49 49 48 49 49 48 49 49 48 49 49 48 49 49 48 49 49 48 49 49 48 49 49 48 49 49 48 49 49 48 49 49 48 49 49 48 49 49 48 49 49 48 49 49 48 49 49 48 49 49 48 49 49 48 49 49 48 49 49 48 49 49 48 49 49 48 49
49 48 49 49 48 49 49 48 49 49 48 49 49 48 49 49 48 49 49 48 49 49 48 49 49 48 49 49 48 49 49 48 49 49 48 49 49 48 49 49 48 49 49 48 49 49 48 49 49 48 49 49 48 49 49 48 49 49 48 49 49 48 49 49 48 49 49 48 49 49 48 49 49 48 49 49 48 49 49 48 49 49 48 49 49 48 49 49 48 49 49 48 49 49 48 49 49 48 49 49 48 49 49 48 49 49 48 49 49 48 49 49 48 49 49 48 49 49 48 49 49 48 49 49 48 49 49 48 49 49 48 49 49 48 49 49 48 49 49 48 49 49 48 49 49 48 49 49 48 49 49 48 49 49 48 49 49 48 49 49 48 49 49 48 49 49 48 49 49 48 49 49 48 49 49 48 49 49 48 49 49 48 49 49 48 49 49 48 49 49 48 49 49 48 49 49 48 49 49 48 49 49 48 49 49 48 49 49 48 49 49 48 49 49 48 49 49 48 49 49 48 49 49 48 49 49 48 49 49 48 49 49 48 49 49 48 49 49 48 49 49 48 49 49 48 49 49 48 49 49 48 49 49 48 49 49 48 49 49 48 49 49 48 49 49 48 49 49 48 49 49 48 49 49 48 49 49 48 49 49 48 49 49 48 49 49 48 49 49 48 49 49 48 49 49 48 49 49 48 49 49 48 49 49 48 49 49 48 49 49 48 49 49 48 49 49 48 49 49 48 49 49 48 49 49 48 49 49 48 49 49 48 49 49 48 49 49 48 49 49 48 49 49 48 49 49 48 49 49 48 49 49 48 49 49 48 49 49 48 49 49 48 49 49 48 49 49 48 49 49 48 49 49 48 49 49 48 49 49 48 49 49 48 49
49 48 49 49 48 49 49 48 49 49 48 49 49 48 49 49 48 49 49 48 49 49 48 49 49 48 49 49 48 49 49 48 49 49 48 49 49 48 49 49 48 49 49 48 49 49 48 49 49 48 49 49 48 49 49 48 49 49 48 49 49 48 49 49 48 49 49 48 49 49 48 49 49 48 49 49 48 49 49 48 49 49 48 49 49 48 49 49 48 49 49 48 49 49 48 49 49 48 49 49 48 49 49 48 49 49 48 49 49 48 49 49 48 49 49 48 49 49 48 49 49 48 49 49 48 49 49 48 49 49 48 49 49 48 49 49 48 49 49 48 49 49 48 49 49 48 49 49 48 49 49 48 49 49 48 49 49 48 49 49 48 49 49 48 49 49 48 49 49 48 49 49 48 49 49 48 49 49 48 49 49 48 49 49 48 49 49 48 49 49 48 49 49 48 49 49 48 49 49 48 49 49 48 49 49 48 49 49 48 49 49 48 49 49 48 49 49 48 49 49 48 49 49 48 49 49 48 49 49 48 49 49 48 49 49 48 49 49 48 49 49 48 49 49 48 49 49 48 49 49 48 49 49 48 49 49 48 49 49 48 49 49 48 49 49 48 49 49 48 49 49 48 49 49 48 49 49 48 49 49 48 49 49 48 49 49 48 49 49 48 49 49 48 49 49 48 49 49 48 49 49 48 49 49 48 49 49 48 49 49 48 49 49 48 49 49 48 49 49 48 49 49 48 49 49 48 49 49 48 49 49 48 49 49 48 49 49 48 49 49 48 49 49 48 49 49 48 49 49 48 49 49 48 49 49 48 49 49 48 49 49 48 49 49 48 49 49 48 49 49 48 49 49 48 49 49 48 49 49 48 49 49 48 49
49 48 49 49 48 49 49 48 49 49 48 49 49 48 49 49 48 49 49 48 49 49 48 49 49 48 49 49 48 49 49 48 49 49 48 49 49 48 49 49 48 49 49 48 49 49 48 49 49 48 49 49 48 49 49 48 49 49 48 49 49 48 49 49 48 49 49 48 49 49 48 49 49 48 49 49 48 49 49 48 49 49 48 49 49 48 49 49 48 49 49 48 49 49 48 49 49 48 49 49 48 49 49 48 49 49 48 49 49 48 49 49 48 49 49 48 49 49 48 49 49 48 49 49 48 49 49 48 49 49 48 49 49 48 49 49 48 49 49 48 49 49 48 49 49 48 49 49 48 49 49 48 49 49 48 49 49 48 49 49 48 49 49 48 49 49 48 49 49 48 49 49 48 49 49 48 49 49 48 49 49 48 49 49 48 49 49 48 49 49 48 49 49 48 49 49 48 49 49 48 49 49 48 49 49 48 49 49 48 49 49 48 49 49 48 49 49 48 49 49 48 49 49 48 49 49 48 49 49 48 49 49 48 49 49 48 49 49 48 49 49 48 49 49 48 49 49 48 49 49 48 49 49 48 49 49 48 49 49 48 49 49 48 49 49 48 49 49 48 49 49 48 49 49 48 49 49 48 49 49 48 49 49 48 49 49 48 49 49 48 49 49 48 49 49 48 49 49 48 49 49 48 49 49 48 49 49 48 49 49 48 49 49 48 49 49 48 49 49 48 49 49 48 49 49 48 49 49 48 49 49 48 49 49 48 49 49 48 49 49 48 49 49 48 49 49 48 49 49 48 49 49 48 49 49 48 49 49 48 49 49 48 49 49 48 49 49 48 49 49 48 49 49 48 49 49 48 49 49 48 49 49 48 49
49 48 49 49 48 49 49 48 49 49 48 49 49 48 49 49 48 49 49 48 49 49 48 49 49 48 49 49 48 49 49 48 49 49 48 49 49 48 49 49 48 49 49 48 49 49 48 49 49 48 49 49 48 49 49 48 49 49 48 49 49 48 49 49 48 49 49 48 49 49 48 49 49 48 49 49 48 49 49 48 49 49 48 49 49 48 49 49 48 49 49 48 49 49 48 49 49 48 49 49 48 49 49 48 49 49 48 49 49 48 49 49 48 49 49 48 49 49 48 49 49 48 49 49 48 49 49 48 49 49 48 49 49 48 49 49 48 49 49 48 49 49 48 49 49 48 49 49 48 49 49 48 49 49 48 49 49 48 49 49 48 49 49 48 49 49 48 49 49 48 49 49 48 49 49 48 49 49 48 49 49 48 49 49 48 49 49 48 49 49 48 49 49 48 49 49 48 49 49 48 49 49 48 49 49 48 49 49 48 49 49 48 49 49 48 49 49 48 49 49 48 49 49 48 49 49 48 49 49 48 49 49 48 49 49 48 49 49 48 49 49 48 49 49 48 49 49 48 49 49 48 49 49 48 49 49 48 49 49 48 49 49 48 49 49 48 49 49 48 49 49 48 49 49 48 49 49 48 49 49 48 49 49 48 49 49 48 49 49 48 49 49 48 49 49 48 49 49 48 49 49 48 49 49 48 49 49 48 49 49 48 49 49 48 49 49 48 49 49 48 49 49 48 49 49 48 49 49 48 49 49 48 49 49 48 49 49 48 49 49 48 49 49 48 49 49 48 49 49 48 49 49 48 49 49 48 49 49 48 49 49 48 49 49 48 49 49 48 49 49 48 49 49 48 49 49 48 49 49 48 49 49 48 49
49 48 49 49 48 49 49 48 49 49 48 49 49 48 49 49 48 49 49 48 49 49 48 49 49 48 49 49 48 49 49 48 49 49 48 49 49 48 49 49 48 49 49 48 49 49 48 49 49 48 49 49 48 49 49 48 49 49 48 49 49 48 49 49 48 49 49 48 49 49 48 49 49 48 49 49 48 49 49 48 49 49 48 49 49 48 49 49 48 49 49 48 49 49 48 49 49 48 49 49 48 49 49 48 49 49 48 49 49 48 49 49 48 49 49 48 49 49 48 49 49 48 49 49 48 49 49 48 49 49 48 49 49 48 49 49 48 49 49 48 49 49 48 49 49 48 49 49 48 49 49 48 49 49 48 49 49 48 49 49 48 49 49 48 49 49 48 49 49 48 49 49 48 49 49 48 49 49 48 49 49 48 49 49 48 49 49 48 49 49 48 49 49 48 49 49 48 49 49 48 49 49 48 49 49 48 49 49 48 49 49 48 49 49 48 49 49 48 49 49 48 49 49 48 49 49 48 49 49 48 49 49 48 49 49 48 49 49 48 49 49 48 49 49 48 49 49 48 49 49 48 49 49 48 49 49 48 49 49 48 49 49 48 49 49 48 49 49 48 49 49 48 49 49 48 49 49 48 49 49 48 49 49 48 49 49 48 49 49 48 49 49 48 49 49 48 49 49 48 49 49 48 49 49 48 49 49 48 49 49 48 49 49 48 49 49 48 49 49 48 49 49 48 49 49 48 49 49 48 49 49 48 49 49 48 49 49 48 49 49 48 49 49 48 49 49 48 49 49 48 49 49 48 49 49 48 49 49 48 49 49 48 49 49 48 49 49 48 49 49 48 49 49 48 49 49 48 49 49 48 49 49 48 49
49 48 49 49 48 49 49 48 49 49 48 49 49 48 49 49 48 49 49 48 49 49 48 49 49 48 49 49 48 49 49 48 49 49 48 49 49 48 49 49 48 49 49 48 49 49 48 49 49 48 49 49 48 49 49 48 49 49 48 49 49 48 49 49 48 49 49 48 49 49 48 49 49 48 49 49 48 49 49 48 49 49 48 49 49 48 49 49 48 49 49 48 49 49 48 49 49 48 49 49 48 49 49 48 49 49 48 49 49 48 49 49 48 49 49 48 49 49 48 49 49 48 49 49 48 49 49 48 49 49 48 49 49 48 49 49 48 49 49 48 49 49 48 49 49 48 49 49 48 49 49 48 49 49 48 49 49 48 49 49 48 49 49 48 49 49 48 49 49 48 49 49 48 49 49 48 49 49 48 49 49 48 49 49 48 49 49 48 49 49 48 49 49 48 49 49 48 49 49 48 49 49 48 49 49 48 49 49 48 49 49 48 49 49 48 49 49 48 49 49 48 49 49 48 49 49 48 49 49 48 49 49 48 49 49 48 49 49 48 49 49 48 49 49 48 49 49 48 49 49 48 49 49 48 49 49 48 49 49 48 49 49 48 49 49 48 49 49 48 49 49 48 49 49 48 49 49 48 49 49 48 49 49 48 49 49 48 49 49 48 49 49 48 49 49 48 49 49 48 49 49 48 49 49 48 49 49 48 49 49 48 49 49 48 49 49 48 49 49 48 49 49 48 49 49 48 49 49 48 49 49 48 49 49 48 49 49 48 49 49 48 49 49 48 49 49 48 49 49 48 49 49 48 49 49 48 49 49 48 49 49 48 49 49 48 49 49 48 49 49 48 49 49 48 49 49 48 49 49 48 49 49 48 49
49 48 49 49 48 49 49 48 49 49 48 49 49 48 49 49 48 49 49 48 49 49 48 49 49 48 49 49 48 49 49 48 49 49 48 49 49 48 49 49 48 49 49 48 49 49 48 49 49 48 49 49 48 49 49 48 49 49 48 49 49 48 49 49 48 49 49 48 49 49 48 49 49 48 49 49 48 49 49 48 49 49 48 49 49 48 49 49 48 49 49 48 49 49 48 49 49 48 49 49 48 49 49 48 49 49 48 49 49 48 49 49 48 49 49 48 49 49 48 49 49 48 49 49 48 49 49 48 49 49 48 49 49 48 49 49 48 49 49 48 49 49 48 49 49 48 49 49 48 49 49 48 49 49 48 49 49 48 49 49 48 49 49 48 49 49 48 49 49 48 49 49 48 49 49 48 49 49 48 49 49 48 49 49 48 49 49 48 49 49 48 49 49 48 49 49 48 49 49 48 49 49 48 49 49 48 49 49 48 49 49 48 49 49 48 49 49 48 49 49 48 49 49 48 49 49 48 49 49 48 49 49 48 49 49 48 49 49 48 49 49 48 49 49 48 49 49 48 49 49 48 49 49 48 49 49 48 49 49 48 49 49 48 49 49 48 49 49 48 49 49 48 49 49 48 49 49 48 49 49 48 49 49 48 49 49 48 49 49 48 49 49 48 49 49 48 49 49 48 49 49 48 49 49 48 49 49 48 49 49 48 49 49 48 49 49 48 49 49 48 49 49 48 49 49 48 49 49 48 49 49 48 49 49 48 49 49 48 49 49 48 49 49 48 49 49 48 49 49 48 49 49 48 49 49 48 49 49 48 49 49 48 49 49 48 49 49 48 49 49 48 49 49 48 49 49 48 49 49 48 49 49 48 49
49 48 49 49 48 49 49 48 49 49 48 49 49 48 49 49 48 49 49 48 49 49 48 49 49 48 49 49 48 49 49 48 49 49 48 49 49 48 49 49 48 49 49 48 49 49 48 49 49 48 49 49 48 49 49 48 49 49 48 49 49 48 49 49 48 49 49 48 49 49 48 49 49 48 49 49 48 49 49 48 49 49 48 49 49 48 49 49 48 49 49 48 49 49 48 49 49 48 49 49 48 49 49 48 49 49 48 49 49 48 49 49 48 49 49 48 49 49 48 49 49 48 49 49 48 49 49 48 49 49 48 49 49 48 49 49 48 49 49 48 49 49 48 49 49 48 49 49 48 49 49 48 49 49 48 49 49 48 49 49 48 49 49 48 49 49 48 49 49 48 49 49 48 49 49 48 49 49 48 49 49 48 49 49 48 49 49 48 49 49 48 49 49 48 49 49 48 49 49 48 49 49 48 49 49 48 49 49 48 49 49 48 49 49 48 49 49 48 49 49 48 49 49 48 49 49 48 49 49 48 49 49 48 49 49 48 49 49 48 49 49 48 49 49 48 49 49 48 49 49 48 49 49 48 49 49 48 49 49 48 49 49 48 49 49 48 49 49 48 49 49 48 49 49 48 49 49 48 49 49 48 49 49 48 49 49 48 49 49 48 49 49 48 49 49 48 49 49 48 49 49 48 49 49 48 49 49 48 49 49 48 49 49 48 49 49 48 49 49 48 49 49 48 49 49 48 49 49 48 49 49 48 49 49 48 49 49 48 49 49 48 49 49 48 49 49 48 49 49 48 49 49 48 49 49 48 49 49 48 49 49 48 49 49 48 49 49 48 49 49 48 49 49 48 49 49 48 49 49 48 49 49 48 49
49 48 49 49 48 49 49 48 49 49 48 49 49 48 49 49 48 49 49 48 49 49 48 49 49 48 49 49 48 49 49 48 49 49 48 49 49 48 49 49 48 49 49 48 49 49 48 49 49 48 49 49 48 49 49 48 49 49 48 49 49 48 49 49 48 49 49 48 49 49 48 49 49 48 49 49 48 49 49 48 49 49 48 49 49 48 49 49 48 49 49 48 49 49 48 49 49 48 49 49 48 49 49 48 49 49 48 49 49 48 49 49 48 49 49 48 49 49 48 49 49 48 49 49 48 49 49 48 49 49 48 49 49 48 49 49 48 49 49 48 49 49 48 49 49 48 49 49 48 49 49 48 49 49 48 49 49 48 49 49 48 49 49 48 49 49 48 49 49 48 49 49 48 49 49 48 49 49 48 49 49 48 49 49 48 49 49 48 49 49 48 49 49 48 49 49 48 49 49 48 49 49 48 49 49 48 49 49 48 49 49 48 49 49 48 49 49 48 49 49 48 49 49 48 49 49 48 49 49 48 49 49 48 49 49 48 49 49 48 49 49 48 49 49 48 49 49 48 49 49 48 49 49 48 49 49 48 49 49 48 49 49 48 49 49 48 49 49 48 49 49 48 49 49 48 49 49 48 49 49 48 49 49 48 49 49 48 49 49 48 49 49 48 49 49 48 49 49 48 49 49 48 49 49 48 49 49 48 49 49 48 49 49 48 49 49 48 49 49 48 49 49 48 49 49 48 49 49 48 49 49 48 49 49 48 49 49 48 49 49 48 49 49 48 49 49 48 49 49 48 49 49 48 49 49 48 49 49 48 49 49 48 49 49 48 49 49 48 49 49 48 49 49 48 49 49 48 49 49 48 49 49 48 49
49 48 49 49 48 49 49 48 49 49 48 49 49 48 49 49 48 49 49 48 49 49 48 49 49 48 49 49 48 49 49 48 49 49 48 49 49 48 49 49 48 49 49 48 49 49 48 49 49 48 49 49 48 49 49 48 49 49 48 49 49 48 49 49 48 49 49 48 49 49 48 49 49 48 49 49 48 49 49 48 49 49 48 49 49 48 49 49 48 49 49 48 49 49 48 49 49 48 49 49 48 49 49 48 49 49 48 49 49 48 49 49 48 49 49 48 49 49 48 49 49 48 49 49 48 49 49 48 49 49 48 49 49 48 49 49 48 49 49 48 49 49 48 49 49 48 49 49 48 49 49 48 49 49 48 49 49 48 49 49 48 49 49 48 49 49 48 49 49 48 49 49 48 49 49 48 49 49 48 49 49 48 49 49 48 49 49 48 49 49 48 49 49 48 49 49 48 49 49 48 49 49 48 49 49 48 49 49 48 49 49 48 49 49 48 49 49 48 49 49 48 49 49 48 49 49 48 49 49 48 49 49 48 49 49 48 49 49 48 49 49 48 49 49 48 49 49 48 49 49 48 49 49 48 49 49 48 49 49 48 49 49 48 49 49 48 49 49 48 49 49 48 49 49 48 49 49 48 49 49 48 49 49 48 49 49 48 49 49 48 49 49 48 49 49 48 49 49 48 49 49 48 49 49 48 49 49 48 49 49 48 49 49 48 49 49 48 49 49 48 49 49 48 49 49 48 49 49 48 49 49 48 49 49 48 49 49 48 49 49 48 49 49 48 49 49 48 49 49 48 49 49 48 49 49 48 49 49 48 49 49 48 49 49 48 49 49 48 49 49 48 49 49 48 49 49 48 49 49 48 49 49 48 49
49 48 49 49 48 49 49 48 49 49 48 49 49 48 49 49 48 49 49 48 49 49 48 49 49 48 49 49 48 49 49 48 49 49 48 49 49 48 49 49 48 49 49 48 49 49 48 49 49 48 49 49 48 49 49 48 49 49 48 49 49 48 49 49 48 49 49 48 49 49 48 49 49 48 49 49 48 49 49 48 49 49 48 49 49 48 49 49 48 49 49 48 49 49 48 49 49 48 49 49 48 49 49 48 49 49 48 49 49 48 49 49 48 49 49 48 49 49 48 49 49 48 49 49 48 49 49 48 49 49 48 49 49 48 49 49 48 49 49 48 49 49 48 49 49 48 49 49 48 49 49 48 49 49 48 49 49 48 49 49 48 49 49 48 49 49 48 49 49 48 49 49 48 49 49 48 49 49 48 49 49 48 49 49 48 49 49 48 49 49 48 49 49 48 49 49 48 49 49 48 49 49 48 49 49 48 49 49 48 49 173 174 173 173 174 173 173 174 173 173 174 173 173 174 173 173 174 173 173 174 173 173 174 173 173 174 173 173 174 173 173 174 173 173 174 173 173 174 173 173 174 173 173 174 173 173 174 173 173 174 173 49 48 49 49 48 49 49 48 49 49 48 49 49 48 49 49 48 49 49 48 49 49 48 49 49 48 49 49 48 49 49 48 49 49 48 49 49 48 49 49 48 49 49 48 49 49 48 49 49 48 49 49 48 49 49 48 49 49 48 49 49 48 49 49 48 49 49 48 49 49 48 49 49 48 49 49 48 49 49 48 49 49 48 49 49 48 49 49 48 49 49 48 49 49 48 49 49 48 49 49 48 49 49 48 49 49 48 49 49 48 49 49 48 49 49 48 49 49 48 49 49 48 49
49 48 49 49 48 49 49 48 49 49 48 49 49 48 49 49 48 49 49 48 49 49 48 49 49 48 49 49 48 49 49 48 49 49 48 49 49 48 49 49 48 49 49 48 49 49 48 49 49 48 49 49 48 49 49 48 49 49 48 49 49 48 49 49 48 49 49 48 49 49 48 49 49 48 49 49 48 49 49 48 49 49 48 49 49 48 49 49 48 49 49 48 49 49 48 49 49 48 49 49 48 49 49 48 49 49 48 49 49 48 49 173 174 173 173 174 173 173 174 173 173 174 173 173 174 173 173 174 173 173 174 173 173 174 173 173 174 173 173 174 173 173 174 173 173 174 173 173 174 173 173 174 173 173 174 173 173 174 173 173 174 173 173 174 173 173 174 173 173 174 173 173 174 173 173 174 173 173 174 173 173 174 173 173 174 173 173 174 173 173 174 173 173 174 173 173 174 173 173 174 173 173 174 173 173 174 173 173 174 173 173 174 173 173 174 173 173 174 173 173 174 173 173 174 173 173 174 173 173 174 173 173 174 173 173 174 173 173 174 173 173 174 173 173 174 173 173 174 173 173 174 173 173 174 173 173 174 173 173 174 173 173 174 173 49 48 49 49 48 49 49 48 49 49 48 49 49 48 49 49 48 49 49 48 49 49 48 49 49 48 49 49 48 49 49 48 49 49 48 49 49 48 49 49 48 49 49 48 49 49 48 49 49 48 49 49 48 49 49 48 49 49 48 49 49 48 49 49 48 49 49 48 49 49 48 49 49 48 49 49 48 49 49 48 49 49 48 49 49 48 49 49 48 49 49 48 49 49 48 49 49 48 49 49 48 49 49 48 49 49 48 49 49 48 49 49 48 49 49 48 49 49 48 49
49 48 49 49 48 49 49 48 49 49 48 49 49 48 49 49 48 49 49 48 49 49 48 49 49 48 49 49 48 49 49 48 49 49 48 49 49 48 49 49 48 49 49 48 49 49 48 49 49 48 49 49 48 49 49 48 49 49 48 49 49 48 49 49 48 49 49 48 49 49 48 49 49 48 49 49 48 49 49 48 49 49 48 49 49 48 49 49 48 49 49 48 49 49 48 49 49 48 49 49 48 49 49 48 49 49 48 49 49 48 49 173 174 173 173 174 173 173 174 173 173 174 173 173 174 173 173 174 173 173 174 173 173 174 173 173 174 173 173 174 173 173 174 173 173 174 173 173 174 173 173 174 173 156 166 165 57 117 123 57 117 123 57 117 123 57 117 123 57 117 123 57 117 123 57 117 123 57 117 123 57 117 123 57 117 123 57 117 123 57 121 132 57 121 132 57 121 132 57 121 132 57 121 132 57 121 132 57 121 132 57 121 132 57 121 132 115 146 148 173 174 173 173 174 173 173 174 173 173 174 173 173 174 173 173 174 173 173 174 173 173 174 173 173 174 173 173 174 173 173 174 173 173 174 173 173 174 173 173 174 173 173 174 173 49 48 49 49 48 49 49 48 49 49 48 49 49 48 49 49 48 49 49 48 49 49 48 49 49 48 49 49 48 49 49 48 49 49 48 49 49 48 49 49 48 49 49 48 49 49 48 49 49 48 49 49 48 49 49 48 49 49 48 49 49 48 49 49 48 49 49 48 49 49 48 49 49 48 49 49 48 49 49 48 49 49 48 49 49 48 49 49 48 49 49 48 49 49 48 49 49 48 49 49 48 49 49 48 49 49 48 49 49 48 49 49 48 49 49 48 49 49 48 49
49 48 49 49 48 49 49 48 49 49 48 49 49 48 49 49 48 49 49 48 49 49 48 49 49 48 49 49 48 49 49 48 49 49 48 49 49 48 49 49 48 49 49 48 49 49 48 49 49 48 49 49 48 49 49 48 49 49 48 49 49 48 49 49 48 49 49 48 49 49 48 49 49 48 49 49 48 49 49 48 49 49 48 49 49 48 49 49 48 49 49 48 49 49 48 49 49 48 49 49 48 49 49 48 49 49 48 49 173 174 173 173 174 173 173 174 173 173 174 173 173 174 173 173 174 173 173 174 173 173 174 173 173 174 173 173 174 173 173 174 173 173 174 173 173 174 173 173 174 173 173 174 173 156 166 165 57 125 132 57 130 132 57 130 132 57 130 140 181 199 198 247 247 247 239 239 239 57 130 140 57 130 140 57 130 140 57 130 140 57 130 140 247 247 247 247 247 247 247 247 247 231 231 231 247 247 247 66 134 140 66 134 140 66 134 140 57 134 140 173 174 173 173 174 173 173 174 173 173 174 173 173 174 173 173 174 173 173 174 173 173 174 173 173 174 173 173 174 173 173 174 173 173 174 173 173 174 173 173 174 173 173 174 173 173 174 173 49 48 49 49 48 49 49 48 49 49 48 49 49 48 49 49 48 49 49 48 49 49 48 49 49 48 49 49 48 49 49 48 49 49 48 49 49 48 49 49 48 49 49 48 49 49 48 49 49 48 49 49 48 49 49 48 49 49 48 49 49 48 49 49 48 49 49 48 49 49 48 49 49 48 49 49 48 49 49 48 49 49 48 49 49 48 49 49 48 49 49 48 49 49 48 49 49 48 49 49 48 49 49 48 49 49 48 49 49 48 49 49 48 49 49 48 49
49 48 49 49 48 49 49 48 49 49 48 49 49 48 49 49 48 49 49 48 49 49 48 49 49 48 49 49 48 49 49 48 49 49 48 49 49 48 49 49 48 49 49 48 49 49 48 49 49 48 49 49 48 49 49 48 49 49 48 49 49 48 49 49 48 49 49 48 49 49 48 49 49 48 49 49 48 49 49 48 49 49 48 49 49 48 49 49 48 49 49 48 49 49 48 49 49 48 49 49 48 49 49 48 49 49 48 49 173 174 173 173 174 173 173 174 173 173 174 173 173 174 173 173 174 173 173 174 173 173 174 173 173 174 173 173 174 173 173 174 173 173 174 173 173 174 173 173 174 173 173 174 173 156 166 173 66 142 148 66 142 148 66 142 148 231 231 231 247 247 247 140 174 181 74 142 148 74 146 148 82 146 156 90 150 156 90 150 156 90 150 156 90 150 156 90 150 156 82 150 156 82 150 156 198 211 214 247 247 247 74 146 156 74 142 156 66 142 148 123 158 165 173 174 173 173 174 173 173 174 173 173 174 173 173 174 173 173 174 173 173 174 173 173 174 173 173 174 173 173 174 173 173 174 173 173 174 173 173 174 173 173 174 173 173 174 173 173 174 173 49 48 49 49 48 49 49 48 49 49 48 49 49 48 49 49 48 49 49 48 49 49 48 49 49 48 49 49 48 49 49 48 49 49 48 49 49 48 49 49 48 49 49 48 49 49 48 49 49 48 49 49 48 49 49 48 49 49 48 49 49 48 49 49 48 49 49 48 49 49 48 49 49 48 49 49 48 49 49 48 49 49 48 49 49 48 49 49 48 49 49 48 49 49 48 49 49 48 49 49 48 49 49 48 49 49 48 49 49 48 49 49 48 49
49 48 49 49 48 49 49 48 49 49 48 49 49 48 49 49 48 49 49 48 49 49 48 49 49 48 49 49 48 49 49 48 49 49 48 49 49 48 49 49 48 49 49 48 49 49 48 49 49 48 49 49 48 49 49 48 49 49 48 49 49 48 49 49 48 49 49 48 49 49 48 49 49 48 49 49 48 49 49 48 49 49 48 49 49 48 49 49 48 49 49 48 49 49 48 49 49 48 49 49 48 49 49 48 49 49 48 49 173 174 173 173 174 173 173 174 173 173 174 173 173 174 173 173 174 173 173 174 173 173 174 173 173 174 173 173 174 173 173 174 173 173 174 173 173 174 173 173 174 173 173 174 173 156 170 173 74 150 156 82 150 156 82 150 156 99 154 165 247 247 247 156 190 189 115 166 173 115 166 173 123 170 173 123 170 181 132 174 181 132 174 181 123 170 181 123 170 181 123 170 173 115 166 173 247 247 247 239 239 247 115 166 173 99 162 173 90 158 165 132 162 173 173 174 173 173 174 173 173 174 173 173 174 173 173 174 173 173 174 173 173 174 173 173 174 173 173 174 173 173 174 173 173 174 173 173 174 173 173 174 173 173 174 173 173 174 173 173 174 173 49 48 49 49 48 49 49 48 49 49 48 49 49 48 49 49 48 49 49 48 49 49 48 49 49 48 49 49 48 49 49 48 49 49 48 49 49 48 49 49 48 49 49 48 49 49 48 49 49 48 49 49 48 49 49 48 49 49 48 49 49 48 49 49 48 49 49 48 49 49 48 49 49 48 49 49 48 49 49 48 49 49 48 49 49 48 49 49 48 49 49 48 49 49 48 49 49 48 49 49 48 49 49 48 49 49 48 49 49 48 49 49 48 49
49 48 49 49 48 49 49 48 49 49 48 49 49 48 49 49 48 49 49 48 49 49 48 49 49 48 49 49 48 49 49 48 49 49 48 49 49 48 49 49 48 49 49 48 49 49 48 49 49 48 49 49 48 49 49 48 49 49 48 49 49 48 49 49 48 49 49 48 49 49 48 49 49 48 49 49 48 49 49 48 49 49 48 49 49 48 49 49 48 49 49 48 49 49 48 49 49 48 49 49 48 49 49 48 49 49 48 49 173 174 173 173 174 173 173 174 173 173 174 173 173 174 173 173 174 173 173 174 173 173 174 173 173 174 173 173 174 173 173 174 173 173 174 173 173 174 173 173 174 173 173 174 173 165 174 173 99 162 173 107 166 173 107 166 173 115 170 181 198 215 222 247 247 247 239 243 247 181 203 206 165 190 198 165 195 198 173 195 198 173 195 198 189 207 214 206 223 222 239 243 247 247 247 247 247 243 247 148 186 189 140 182 189 123 174 181 115 170 181 107 170 173 140 170 173 173 174 173 173 174 173 173 174 173 173 174 173 173 174 173 173 174 173 173 174 173 173 174 173 173 174 173 173 174 173 173 174 173 173 174 173 173 174 173 173 174 173 173 174 173 173 174 173 49 48 49 49 48 49 49 48 49 49 48 49 49 48 49 49 48 49 49 48 49 49 48 49 49 48 49 49 48 49 49 48 49 49 48 49 49 48 49 49 48 49 49 48 49 49 48 49 49 48 49 49 48 49 49 48 49 49 48 49 49 48 49 49 48 49 49 48 49 49 48 49 49 48 49 49 48 49 49 48 49 49 48 49 49 48 49 49 48 49 49 48 49 49 48 49 49 48 49 49 48 49 49 48 49 49 48 49 49 48 49
49 48 49 49 48 49 49 48 49 49 48 49 49 48 49 49 48 49 49 48 49 49 48 49 49 48 49 49 48 49 49 48 49 49 48 49 49 48 49 49 48 49 49 48 49 49 48 49 49 48 49 49 48 49 49 48 49 49 48 49 49 48 49 49 48 49 49 48 49 49 48 49 49 48 49 49 48 49 49 48 49 49 48 49 49 48 49 49 48 49 49 48 49 49 48 49 49 48 49 49 48 49 49 48 49 173 174 173 173 174 173 173 174 173 173 174 173 173 174 173 173 174 173 173 174 173 173 174 173 173 174 173 173 174 173 173 174 173 173 174 173 173 174 173 173 174 173 173 174 173 181 178 181 173 178 181 115 170 181 123 178 181 132 182 189 140 186 189 156 190 198 181 203 206 206 223 222 239 239 239 247 247 247 247 243 247 8 65 66 8 65 66 24 69 74 74 101 107 132 146 148 181 186 189 222 227 231 231 235 239 198 215 222 148 190 198 140 182 189 123 178 189 148 182 189 181 182 181 181 178 181 181 178 181 173 174 173 173 174 173 173 174 173 173 174 173 173 174 173 173 174 173 173 174 173 173 174 173 173 174 173 173 174 173 173 174 173 173 174 173 173 174 173 173 174 173 49 48 49 49 48 49 49 48 49 49 48 49 49 48 49 49 48 49 49 48 49 49 48 49 49 48 49 49 48 49 49 48 49 49 48 49 49 48 49 49 48 49 49 48 49 49 48 49 49 48 49 49 48 49 49 48 49 49 48 49 49 48 49 49 48 49 49 48 49 49 48 49 49 48 49 49 48 49 49 48 49 49 48 49 49 48 49 49 48 49 49 48 49 49 48 49 49 48 49 49 48 49 49 48 49 49 48 49
49 48 49 49 48 49 49 48 49 49 48 49 49 48 49 49 48 49 49 48 49 49 48 49 49 48 49 49 48 49 49 48 49 49 48 49 49 48 49 49 48 49 49 48 49 49 48 49 49 48 49 49 48 49 49 48 49 49 48 49 49 48 49 49 48 49 49 48 49 49 48 49 49 48 49 49 48 49 49 48 49 49 48 49 49 48 49 49 48 49 49 48 49 49 48 49 49 48 49 49 48 49 49 48 49 173 174 173 173 174 173 173 174 173 173 174 173 173 174 173 173 174 173 173 174 173 173 174 173 173 174 173 173 174 173 173 174 173 173 174 173 173 174 173 173 174 173 181 178 181 181 178 181 173 182 181 123 178 189 156 195 198 222 227 231 148 166 165 24 89 99 16 89 90 16 89 90 16 89 90 16 97 107 74 117 123 189 195 198 173 182 181 66 113 115 16 97 107 16 97 107 16 97 107 16 97 107 16 97 107 16 97 107 16 97 107 16 97 99 115 146 148 189 203 206 181 182 181 181 182 181 181 178 181 173 174 173 173 174 173 173 174 173 173 174 173 173 174 173 173 174 173 173 174 173 173 174 173 173 174 173 173 174 173 173 174 173 173 174 173 173 174 173 173 174 173 49 48 49 49 48 49 49 48 49 49 48 49 49 48 49 49 48 49 49 48 49 49 48 49 49 48 49 49 48 49 49 48 49 49 48 49 49 48 49 49 48 49 49 48 49 49 48 49 49 48 49 49 48 49 49 48 49 49 48 49 49 48 49 49 48 49 49 48 49 49 48 49 49 48 49 49 48 49 49 48 49 49 48 49 49 48 49 49 48 49 49 48 49 49 48 49 49 48 49 49 48 49 49 48 49 49 48 49
49 48 49 49 48 49 49 48 49 49 48 49 49 48 49 49 48 49 49 48 49 49 48 49 49 48 49 49 48 49 49 48 49 49 48 49 49 48 49 49 48 49 49 48 49 49 48 49 49 48 49 49 48 49 49 48 49 49 48 49 49 48 49 49 48 49 49 48 49 49 48 49 49 48 49 49 48 49 49 48 49 49 48 49 49 48 49 49 48 49 49 48 49 49 48 49 49 48 49 49 48 49 49 48 49 173 174 173 173 174 173 173 174 173 173 174 173 173 174 173 173 174 173 173 174 173 173 174 173 173 174 173 173 174 173 173 174 173 173 174 173 173 174 173 173 174 173 181 178 181 181 182 181 165 174 173 24 109 115 24 109 115 24 109 115 24 109 115 24 109 115 24 109 115 24 109 115 24 109 115 24 117 123 90 138 140 132 162 165 132 162 165 132 162 165 123 158 165 24 117 123 24 117 123 24 117 123 24 117 123 24 117 123 24 117 123 24 117 123 33 121 132 33 121 132 115 150 156 181 182 181 181 178 181 173 174 173 173 174 173 173 174 173 173 174 173 173 174 173 173 174 173 173 174 173 173 174 173 173 174 173 173 174 173 173 174 173 173 174 173 173 174 173 173 174 173 173 174 173 49 48 49 49 48 49 49 48 49 49 48 49 49 48 49 49 48 49 49 48 49 49 48 49 49 48 49 49 48 49 49 48 49 49 48 49 49 48 49 49 48 49 49 48 49 49 48 49 49 48 49 49 48 49 49 48 49 49 48 49 49 48 49 49 48 49 49 48 49 49 48 49 49 48 49 49 48 49 49 48 49 49 48 49 49 48 49 49 48 49 49 48 49 49 48 49 49 48 49 49 48 49 49 48 49
49 48 49 49 48 49 49 48 49 49 48 49 49 48 49 49 48 49 49 48 49 49 48 49 49 48 49 49 48 49 49 48 49 49 48 49 49 48 49 49 48 49 49 48 49 49 48 49 49 48 49 49 48 49 49 48 49 49 48 49 49 48 49 49 48 49 49 48 49 49 48 49 49 48 49 49 48 49 49 48 49 49 48 49 49 48 49 49 48 49 49 48 49 49 48 49 49 48 49 49 48 49 49 48 49 173 174 173 173 174 173 173 174 173 173 174 173 173 174 173 173 174 173 173 174 173 173 174 173 173 174 173 173 174 173 173 174 173 173 174 173 173 174 173 173 174 173 181 178 181 181 178 181 165 174 173 33 125 132 33 125 132 33 125 132 33 125 132 33 125 132 33 125 132 33 125 132 33 125 132 33 125 132 33 130 140 33 130 140 33 130 140 132 170 173 181 199 198 33 130 140 33 130 140 33 130 140 33 130 140 33 130 140 33 130 140 33 130 140 33 130 140 33 134 140 115 154 156 181 182 181 181 178 181 173 174 173 173 174 173 173 174 173 173 174 173 173 174 173 173 174 173 173 174 173 173 174 173 173 174 173 173 174 173 173 174 173 173 174 173 173 174 173 173 174 173 173 174 173 49 48 49 49 48 49 49 48 49 49 48 49 49 48 49 49 48 49 49 48 49 49 48 49 49 48 49 49 48 49 49 48 49 49 48 49 49 48 49 49 48 49 49 48 49 49 48 49 49 48 49 49 48 49 49 48 49 49 48 49 49 48 49 49 48 49 49 48 49 49 48 49 49 48 49 49 48 49 49 48 49 49 48 49 49 48 49 49 48 49 49 48 49 49 48 49 49 48 49 49 48 49 49 48 49
49 48 49 49 48 49 49 48 49 49 48 49 49 48 49 49 48 49 49 48 49 49 48 49 49 48 49 49 48 49 49 48 49 49 48 49 49 48 49 49 48 49 49 48 49 49 48 49 49 48 49 49 48 49 49 48 49 49 48 49 49 48 49 49 48 49 49 48 49 49 48 49 49 48 49 49 48 49 49 48 49 49 48 49 49 48 49 49 48 49 49 48 49 49 48 49 49 48 49 49 48 49 49 48 49 173 174 173 173 174 173 173 174 173 173 174 173 173 174 173 173 174 173 173 174 173 173 174 173 173 174 173 173 174 173 173 174 173 173 174 173 173 174 173 173 174 173 173 174 173 181 178 181 156 170 173 33 134 140 33 134 140 33 134 140 33 134 140 33 134 140 33 134 140 33 134 140 33 134 140 33 134 140 66 142 148 165 190 198 33 138 148 132 170 173 181 199 206 33 138 148 33 138 148 33 138 148 33 138 148 33 138 148 33 138 148 33 138 148 33 138 148 33 138 148 115 154 165 181 178 181 173 174 173 173 174 173 173 174 173 173 174 173 173 174 173 173 174 173 173 174 173 173 174 173 173 174 173 173 174 173 173 174 173 173 174 173 173 174 173 173 174 173 173 174 173 173 174 173 173 174 173 49 48 49 49 48 49 49 48 49 49 48 49 49 48 49 49 48 49 49 48 49 49 48 49 49 48 49 49 48 49 49 48 49 49 48 49 49 48 49 49 48 49 49 48 49 49 48 49 49 48 49 49 48 49 49 48 49 49 48 49 49 48 49 49 48 49 49 48 49 49 48 49 49 48 49 49 48 49 49 48 49 49 48 49 49 48 49 49 48 49 49 48 49 49 48 49 49 48 49 49 48 49
49 48 49 49 48 49 49 48 49 49 48 49 49 48 49 49 48 49 49 48 49 49 48 49 49 48 49 49 48 49 49 48 49 49 48 49 49 48 49 49 48 49 49 48 49 49 48 49 49 48 49 49 48 49 49 48 49 49 48 49 49 48 49 49 48 49 49 48 49 49 48 49 49 48 49 49 48 49 49 48 49 49 48 49 49 48 49 49 48 49 49 48 49 49 48 49 49 48 49 49 48 49 173 174 173 173 174 173 173 174 173 173 174 173 173 174 173 173 174 173 173 174 173 173 174 173 173 174 173 173 174 173 173 174 173 173 174 173 173 174 173 173 174 173 173 174 173 173 174 173 173 174 173 156 170 173 33 138 148 33 142 148 33 142 148 33 142 148 33 142 148 33 142 148 33 142 148 33 142 148 33 142 148 33 142 148 33 142 148 33 142 148 33 142 148 33 142 148 33 142 156 33 142 156 33 142 156 33 142 156 33 142 156 33 142 156 33 142 156 33 142 156 33 142 156 33 142 156 107 158 165 173 174 173 173 174 173 173 174 173 173 174 173 173 174 173 173 174 173 173 174 173 173 174 173 173 174 173 173 174 173 173 174 173 173 174 173 173 174 173 173 174 173 173 174 173 173 174 173 173 174 173 173 174 173 49 48 49 49 48 49 49 48 49 49 48 49 49 48 49 49 48 49 49 48 49 49 48 49 49 48 49 49 48 49 49 48 49 49 48 49 49 48 49 49 48 49 49 48 49 49 48 49 49 48 49 49 48 49 49 48 49 49 48 49 49 48 49 49 48 49 49 48 49 49 48 49 49 48 49 49 48 49 49 48 49 49 48 49 49 48 49 49 48 49 49 48 49 49 48 49 49 48 49
49 48 49 49 48 49 49 48 49 49 48 49 49 48 49 49 48 49 49 48 49 49 48 49 49 48 49 49 48 49 49 48 49 49 48 49 49 48 49 49 48 49 49 48 49 49 48 49 49 48 49 49 48 49 49 48 49 49 48 49 49 48 49 49 48 49 49 48 49 49 48 49 49 48 49 49 48 49 49 48 49 49 48 49 49 48 49 49 48 49 49 48 49 49 48 49 49 48 49 49 48 49 173 174 173 173 174 173 173 174 173 173 174 173 173 174 173 173 174 173 173 174 173 173 174 173 173 174 173 173 174 173 173 174 173 173 174 173 173 174 173 173 174 173 173 174 173 173 174 173 173 174 173 156 170 173 33 146 156 33 146 156 33 146 156 33 146 156 33 146 156 33 146 156 33 146 156 33 146 156 33 146 156 33 146 156 33 146 156 41 150 156 189 207 206 132 178 181 33 146 156 33 146 156 33 146 156 33 146 156 33 146 156 41 150 156 41 150 156 41 150 156 41 150 156 41 150 156 107 158 165 173 174 173 173 174 173 173 174 173 173 174 173 173 174 173 173 174 173 173 174 173 173 174 173 173 174 173 173 174 173 173 174 173 173 174 173 173 174 173 173 174 173 173 174 173 173 174 173 173 174 173 173 174 173 49 48 49 49 48 49 49 48 49 49 48 49 49 48 49 49 48 49 49 48 49 49 48 49 49 48 49 49 48 49 49 48 49 49 48 49 49 48 49 49 48 49 49 48 49 49 48 49 49 48 49 49 48 49 49 48 49 49 48 49 49 48 49 49 48 49 49 48 49 49 48 49 49 48 49 49 48 49 49 48 49 49 48 49 49 48 49 49 48 49 49 48 49 49 48 49 49 48 49
49 48 49 49 48 49 49 48 49 49 48 49 49 48 49 49 48 49 49 48 49 49 48 49 49 48 49 49 48 49 49 48 49 49 48 49 49 48 49 49 48 49 49 48 49 49 48 49 49 48 49 49 48 49 49 48 49 49 48 49 49 48 49 49 48 49 49 48 49 49 48 49 49 48 49 49 48 49 49 48 49 49 48 49 49 48 49 49 48 49 49 48 49 49 48 49 49 48 49 49 48 49 173 174 173 173 174 173 173 174 173 173 174 173 173 174 173 173 174 173 173 174 173 173 174 173 173 174 173 173 174 173 173 174 173 173 174 173 173 174 173 173 174 173 173 174 173 173 174 173 173 174 173 156 170 173 41 150 156 41 150 156 41 150 156 41 150 156 41 150 156 41 150 156 41 150 156 41 150 156 41 150 156 41 150 156 41 150 156 41 150 156 41 150 156 41 150 156 41 150 156 41 150 156 41 150 156 41 150 156 41 150 156 41 150 156 41 150 156 41 150 156 41 150 156 41 150 156 107 162 165 173 174 173 173 174 173 173 174 173 173 174 173 173 174 173 173 174 173 173 174 173 173 174 173 173 174 173 173 174 173 173 174 173 173 174 173 173 174 173 173 174 173 173 174 173 173 174 173 173 174 173 173 174 173 173 174 173 49 48 49 49 48 49 49 48 49 49 48 49 49 48 49 49 48 49 49 48 49 49 48 49 49 48 49 49 48 49 49 48 49 49 48 49 49 48 49 49 48 49 49 48 49 49 48 49 49 48 49 49 48 49 49 48 49 49 48 49 49 48 49 49 48 49 49 48 49 49 48 49 49 48 49 49 48 49 49 48 49 49 48 49 49 48 49 49 48 49 49 48 49 49 48 49
49 48 49 49 48 49 49 48 49 49 48 49 49 48 49 49 48 49 49 48 49 49 48 49 49 48 49 49 48 49 49 48 49 49 48 49 49 48 49 49 48 49 49 48 49 49 48 49 49 48 49 49 48 49 49 48 49 49 48 49 49 48 49 49 48 49 49 48 49 49 48 49 49 48 49 49 48 49 49 48 49 49 48 49 49 48 49 49 48 49 49 48 49 49 48 49 49 48 49 49 48 49 173 174 173 173 174 173 173 174 173 173 174 173 173 174 173 173 174 173 173 174 173 173 174 173 173 174 173 173 174 173 173 174 173 173 174 173 173 174 173 173 174 173 173 174 173 173 174 173 173 174 173 156 170 173 41 150 156 41 150 156 41 150 156 41 154 165 41 154 165 41 154 165 41 154 165 41 154 165 41 154 165 41 154 165 115 174 181 165 195 198 165 195 198 165 195 198 82 162 173 41 154 165 41 154 165 41 154 165 41 154 165 41 154 165 41 154 165 41 154 165 41 154 165 41 154 165 41 154 165 107 162 165 173 174 173 173 174 173 173 174 173 173 174 173 173 174 173 173 174 173 173 174 173 173 174 173 173 174 173 173 174 173 173 174 173 173 174 173 173 174 173 173 174 173 173 174 173 173 174 173 173 174 173 173 174 173 49 48 49 49 48 49 49 48 49 49 48 49 49 48 49 49 48 49 49 48 49 49 48 49 49 48 49 49 48 49 49 48 49 49 48 49 49 48 49 49 48 49 49 48 49 49 48 49 49 48 49 49 48 49 49 48 49 49 48 49 49 48 49 49 48 49 49 48 49 49 48 49 49 48 49 49 48 49 49 48 49 49 48 49 49 48 49 49 48 49 49 48 49 49 48 49
49 48 49 49 48 49 49 48 49 49 48 49 49 48 49 49 48 49 49 48 49 49 48 49 49 48 49 49 48 49 49 48 49 49 48 49 49 48 49 49 48 49 49 48 49 49 48 49 49 48 49 49 48 49 49 48 49 49 48 49 49 48 49 49 48 49 49 48 49 49 48 49 49 48 49 49 48 49 49 48 49 49 48 49 49 48 49 49 48 49 49 48 49 49 48 49 49 48 49 173 174 173 173 174 173 173 174 173 173 174 173 173 174 173 173 174 173 173 174 173 173 174 173 173 174 173 173 174 173 173 174 173 173 174 173 173 174 173 173 174 173 173 174 173 173 174 173 173 174 173 173 174 173 156 170 173 41 154 165 41 154 165 41 154 165 41 154 165 41 154 165 41 154 165 41 154 165 41 154 165 41 154 165 41 154 165 123 178 189 181 207 214 181 207 214 181 207 214 148 186 189 41 154 165 41 154 165 41 154 165 41 154 165 41 154 165 41 154 165 41 154 165 41 154 165 41 154 165 41 154 165 107 162 165 173 174 173 173 174 173 173 174 173 173 174 173 173 174 173 173 174 173 173 174 173 173 174 173 173 174 173 173 174 173 173 174 173 173 174 173 173 174 173 173 174 173 173 174 173 173 174 173 173 174 173 173 174 173 173 174 173 49 48 49 49 48 49 49 48 49 49 48 49 49 48 49 49 48 49 49 48 49 49 48 49 49 48 49 49 48 49 49 48 49 49 48 49 49 48 49 49 48 49 49 48 49 49 48 49 49 48 49 49 48 49 49 48 49 49 48 49 49 48 49 49 48 49 49 48 49 49 48 49 49 48 49 49 48 49 49 48 49 49 48 49 49 48 49 49 48 49 49 48 49
49 48 49 49 48 49 49 48 49 49 48 49 49 48 49 49 48 49 49 48 49 49 48 49 49 48 49 49 48 49 49 48 49 49 48 49 49 48 49 49 48 49 49 48 49 49 48 49 49 48 49 49 48 49 49 48 49 49 48 49 49 48 49 49 48 49 49 48 49 49 48 49 49 48 49 49 48 49 49 48 49 49 48 49 49 48 49 49 48 49 49 48 49 49 48 49 49 48 49 173 174 173 173 174 173 173 174 173 173 174 173 173 174 173 173 174 173 173 174 173 173 174 173 173 174 173 173 174 173 173 174 173 173 174 173 173 174 173 173 174 173 173 174 173 173 174 173 173 174 173 173 174 173 156 170 173 41 154 165 41 154 165 41 154 165 41 154 165 41 154 165 41 154 165 41 154 165 41 154 165 41 154 165 41 154 165 41 154 165 41 154 165 41 154 165 41 154 165 41 154 165 41 154 165 41 154 165 41 154 165 41 154 165 41 154 165 41 154 165 41 154 165 41 154 165 41 154 165 41 154 165 41 154 165 107 162 173 173 174 173 173 174 173 173 174 173 173 174 173 173 174 173 173 174 173 173 174 173 173 174 173 173 174 173 173 174 173 173 174 173 173 174 173 173 174 173 173 174 173 173 174 173 173 174 173 173 174 173 173 174 173 173 174 173 49 48 49 49 48 49 49 48 49 49 48 49 49 48 49 49 48 49 49 48 49 49 48 49 49 48 49 49 48 49 49 48 49 49 48 49 49 48 49 49 48 49 49 48 49 49 48 49 49 48 49 49 48 49 49 48 49 49 48 49 49 48 49 49 48 49 49 48 49 49 48 49 49 48 49 49 48 49 49 48 49 49 48 49 49 48 49 49 48 49
49 48 49 49 48 49 49 48 49 49 48 49 49 48 49 49 48 49 49 48 49 49 48 49 49 48 49 49 48 49 49 48 49 49 48 49 49 48 49 49 48 49 49 48 49 49 48 49 49 48 49 49 48 49 49 48 49 49 48 49 49 48 49 49 48 49 49 48 49 49 48 49 49 48 49 49 48 49 49 48 49 49 48 49 49 48 49 49 48 49 49 48 49 49 48 49 49 48 49 173 174 173 173 174 173 173 174 173 173 174 173 173 174 173 173 174 173 173 174 173 173 174 173 173 174 173 173 174 173 173 174 173 173 174 173 173 174 173 173 174 173 173 174 173 173 174 173 173 174 173 173 174 173 156 170 173 41 154 165 41 154 165 41 154 165 41 154 165 41 154 165 41 154 165 41 154 165 41 154 165 41 154 165 41 154 165 41 154 165 41 154 165 41 154 165 41 154 165 181 207 214 206 219 222 41 154 165 41 154 165 41 154 165 41 154 165 41 154 165 41 154 165 41 154 165 41 154 165 41 154 165 41 154 165 107 162 173 173 174 173 173 174 173 173 174 173 173 174 173 173 174 173 173 174 173 173 174 173 173 174 173 173 174 173 173 174 173 173 174 173 173 174 173 173 174 173 173 174 173 173 174 173 173 174 173 173 174 173 173 174 173 173 174 173 49 48 49 49 48 49 49 48 49 49 48 49 49 48 49 49 48 49 49 48 49 49 48 49 49 48 49 49 48 49 49 48 49 49 48 49 49 48 49 49 48 49 49 48 49 49 48 49 49 48 49 49 48 49 49 48 49 49 48 49 49 48 49 49 48 49 49 48 49 49 48 49 49 48 49 49 48 49 49 48 49 49 48 49 49 48 49 49 48 49
49 48 49 49 48 49 49 48 49 49 48 49 49 48 49 49 48 49 49 48 49 49 48 49 49 48 49 49 48 49 49 48 49 49 48 49 49 48 49 49 48 49 49 48 49 49 48 49 49 48 49 49 48 49 49 48 49 49 48 49 49 48 49 49 48 49 49 48 49 49 48 49 49 48 49 49 48 49 49 48 49 49 48 49 49 48 49 49 48 49 49 48 49 49 48 49 49 48 49 173 174 173 173 174 173 173 174 173 173 174 173 173 174 173 173 174 173 173 174 173 173 174 173 173 174 173 173 174 173 173 174 173 173 174 173 173 174 173 173 174 173 173 174 173 173 174 173 173 174 173 173 174 173 156 170 173 41 154 165 41 154 165 41 154 165 41 154 165 41 154 165 41 154 165 41 154 165 41 154 165 41 154 165 41 154 165 41 154 165 41 154 165 41 154 165 41 154 165 41 154 165 41 154 165 41 154 165 41 154 165 41 154 165 41 154 165 41 154 165 41 154 165 41 154 165 41 154 165 41 154 165 41 154 165 107 162 173 173 174 173 173 174 173 173 174 173 173 174 173 173 174 173 173 174 173 173 174 173 173 174 173 173 174 173 173 174 173 173 174 173 173 174 173 173 174 173 173 174 173 173 174 173 173 174 173 173 174 173 173 174 173 173 174 173 173 174 173 49 48 49 49 48 49 49 48 49 49 48 49 49 48 49 49 48 49 49 48 49 49 48 49 49 48 49 49 48 49 49 48 49 49 48 49 49 48 49 49 48 49 49 48 49 49 48 49 49 48 49 49 48 49 49 48 49 49 48 49 49 48 49 49 48 49 49 48 49 49 48 49 49 48 49 49 48 49 49 48 49 49 48 49 49 48 49
49 48 49 49 48 49 49 48 49 49 48 49 49 48 49 49 48 49 49 48 49 49 48 49 49 48 49 49 48 49 49 48 49 49 48 49 49 48 49 49 48 49 49 48 49 49 48 49 49 48 49 49 48 49 49 48 49 49 48 49 49 48 49 49 48 49 49 48 49 49 48 49 49 48 49 49 48 49 49 48 49 49 48 49 49 48 49 49 48 49 49 48 49 49 48 49 173 174 173 173 174 173 173 174 173 173 174 173 173 174 173 173 174 173 173 174 173 173 174 173 173 174 173 173 174 173 173 174 173 173 174 173 173 174 173 173 174 173 173 174 173 173 174 173 173 174 173 173 174 173 173 174 173 156 170 173 41 154 165 41 154 165 41 154 165 41 154 165 41 154 165 41 154 165 41 154 165 41 154 165 41 154 165 41 154 165 41 154 165 41 154 165 41 154 165 41 154 165 41 154 165 41 154 165 41 154 165 41 154 165 41 154 165 41 154 165 41 154 165 156 170 173 156 170 173 156 170 173 156 170 173 156 170 173 156 170 173 173 174 173 173 174 173 173 174 173 173 174 173 173 174 173 173 174 173 173 174 173 173 174 173 173 174 173 173 174 173 173 174 173 173 174 173 173 174 173 173 174 173 173 174 173 173 174 173 173 174 173 173 174 173 173 174 173 173 174 173 173 174 173 49 48 49 49 48 49 49 48 49 49 48 49 49 48 49 49 48 49 49 48 49 49 48 49 49 48 49 49 48 49 49 48 49 49 48 49 49 48 49 49 48 49 49 48 49 49 48 49 49 48 49 49 48 49 49 48 49 49 48 49 49 48 49 49 48 49 49 48 49 49 48 49 49 48 49 49 48 49 49 48 49 49 48 49
49 48 49 49 48 49 49 48 49 49 48 49 49 48 49 49 48 49 49 48 49 49 48 49 49 48 49 49 48 49 49 48 49 49 48 49 49 48 49 49 48 49 49 48 49 49 48 49 49 48 49 49 48 49 49 48 49 49 48 49 49 48 49 49 48 49 49 48 49 49 48 49 49 48 49 49 48 49 49 48 49 49 48 49 49 48 49 49 48 49 49 48 49 49 48 49 173 174 173 173 174 173 173 174 173 173 174 173 173 174 173 173 174 173 173 174 173 173 174 173 173 174 173 173 174 173 173 174 173 173 174 173 173 174 173 173 174 173 173 174 173 173 174 173 173 174 173 173 174 173 173 174 173 173 174 173 165 170 173 156 170 173 156 170 173 156 170 173 173 174 173 173 174 173 173 174 173 173 174 173 173 174 173 173 174 173 173 174 173 173 174 173 173 174 173 173 174 173 173 174 173 173 174 173 173 174 173 173 174 173 173 174 173 173 174 173 173 174 173 173 174 173 173 174 173 173 174 173 173 174 173 173 174 173 173 174 173 173 174 173 173 174 173 173 174 173 173 174 173 173 174 173 173 174 173 173 174 173 173 174 173 173 174 173 173 174 173 173 174 173 173 174 173 173 174 173 173 174 173 173 174 173 173 174 173 173 174 173 173 174 173 173 174 173 173 174 173 173 174 173 49 48 49 49 48 49 49 48 49 49 48 49 49 48 49 49 48 49 49 48 49 49 48 49 49 48 49 49 48 49 49 48 49 49 48 49 49 48 49 49 48 49 49 48 49 49 48 49 49 48 49 49 48 49 49 48 49 49 48 49 49 48 49 49 48 49 49 48 49 49 48 49 49 48 49 49 48 49 49 48 49 49 48 49
49 48 49 49 48 49 49 48 49 49 48 49 49 48 49 49 48 49 49 48 49 49 48 49 49 48 49 49 48 49 49 48 49 49 48 49 49 48 49 49 48 49 49 48 49 49 48 49 49 48 49 49 48 49 49 48 49 49 48 49 49 48 49 49 48 49 49 48 49 49 48 49 49 48 49 49 48 49 49 48 49 49 48 49 49 48 49 49 48 49 49 48 49 49 48 49 173 174 173 173 174 173 173 174 173 173 174 173 173 174 173 173 174 173 173 174 173 173 174 173 173 174 173 173 174 173 173 174 173 173 174 173 173 174 173 173 174 173 173 174 173 173 174 173 173 174 173 173 174 173 173 174 173 173 174 173 173 174 173 173 174 173 173 174 173 173 174 173 173 174 173 173 174 173 173 174 173 173 174 173 173 174 173 173 174 173 173 174 173 173 174 173 173 174 173 173 174 173 173 174 173 173 174 173 173 174 173 173 174 173 173 174 173 173 174 173 173 174 173 173 174 173 173 174 173 173 174 173 173 174 173 173 174 173 173 174 173 173 174 173 173 174 173 173 174 173 173 174 173 173 174 173 173 174 173 140 138 140 140 138 140 140 138 140 140 138 140 140 138 140 140 138 140 140 138 140 140 138 140 140 138 140 140 138 140 140 138 140 140 138 140 140 138 140 140 138 140 140 138 140 49 48 49 49 48 49 49 48 49 49 48 49 49 48 49 49 48 49 49 48 49 49 48 49 49 48 49 49 48 49 49 48 49 49 48 49 49 48 49 49 48 49 49 48 49 49 48 49 49 48 49 49 48 49 49 48 49 49 48 49 49 48 49 49 48 49 49 48 49 49 48 49 49 48 49 49 48 49 49 48 49 49 48 49
49 48 49 49 48 49 49 48 49 49 48 49 49 48 49 49 48 49 49 48 49 49 48 49 49 48 49 49 48 49 49 48 49 49 48 49 49 48 49 49 48 49 49 48 49 49 48 49 49 48 49 49 48 49 49 48 49 49 48 49 49 48 49 49 48 49 49 48 49 49 48 49 49 48 49 49 48 49 49 48 49 49 48 49 49 48 49 49 48 49 49 48 49 49 48 49 173 174 173 173 174 173 173 174 173 173 174 173 173 174 173 173 174 173 173 174 173 173 174 173 173 174 173 173 174 173 173 174 173 173 174 173 173 174 173 173 174 173 173 174 173 173 174 173 173 174 173 173 174 173 173 174 173 173 174 173 173 174 173 140 138 140 140 138 140 140 138 140 140 138 140 140 138 140 140 138 140 140 138 140 140 138 140 140 138 140 140 138 140 140 138 140 140 138 140 140 138 140 140 138 140 140 138 140 140 138 140 140 138 140 140 138 140 140 138 140 140 138 140 140 138 140 140 138 140 140 138 140 140 138 140 140 138 140 140 138 140 140 138 140 140 138 140 140 138 140 140 138 140 140 138 140 140 138 140 140 138 140 140 138 140 140 138 140 140 138 140 140 138 140 140 138 140 140 138 140 140 138 140 140 138 140 140 138 140 140 138 140 140 138 140 140 138 140 140 138 140 140 138 140 49 48 49 49 48 49 49 48 49 49 48 49 49 48 49 49 48 49 49 48 49 49 48 49 49 48 49 49 48 49 49 48 49 49 48 49 49 48 49 49 48 49 49 48 49 49 48 49 49 48 49 49 48 49 49 48 49 49 48 49 49 48 49 49 48 49 49 48 49 49 48 49 49 48 49 49 48 49 49 48 49 49 48 49
49 48 49 49 48 49 49 48 49 49 48 49 49 48 49 49 48 49 49 48 49 49 48 49 49 48 49 49 48 49 49 48 49 49 48 49 49 48 49 49 48 49 49 48 49 49 48 49 49 48 49 49 48 49 49 48 49 49 48 49 49 48 49 49 48 49 49 48 49 49 48 49 49 48 49 49 48 49 49 48 49 49 48 49 49 48 49 49 48 49 49 48 49 140 138 140 140 138 140 140 138 140 140 138 140 140 138 140 140 138 140 140 138 140 140 138 140 140 138 140 140 138 140 140 138 140 140 138 140 140 138 140 140 138 140 140 138 140 140 138 140 140 138 140 140 138 140 140 138 140 140 138 140 140 138 140 140 138 140 140 138 140 140 138 140 140 138 140 140 138 140 140 138 140 140 138 140 140 138 140 140 138 140 140 138 140 140 138 140 140 138 140 140 138 140 140 138 140 140 138 140 140 138 140 140 138 140 140 138 140 140 138 140 140 138 140 140 138 140 140 138 140 140 138 140 140 138 140 140 138 140 140 138 140 140 138 140 140 138 140 140 138 140 140 138 140 140 138 140 140 138 140 140 138 140 140 138 140 140 138 140 140 138 140 140 138 140 140 138 140 140 138 140 140 138 140 140 138 140 140 138 140 140 138 140 140 138 140 140 138 140 140 138 140 140 138 140 140 138 140 49 48 49 49 48 49 49 48 49 49 48 49 49 48 49 49 48 49 49 48 49 49 48 49 49 48 49 49 48 49 49 48 49 49 48 49 49 48 49 49 48 49 49 48 49 49 48 49 49 48 49 49 48 49 49 48 49 49 48 49 49 48 49 49 48 49 49 48 49 49 48 49 49 48 49 49 48 49 49 48 49 49 48 49
49 48 49 49 48 49 49 48 49 49 48 49 49 48 49 49 48 49 49 48 49 49 48 49 49 48 49 49 48 49 49 48 49 49 48 49 49 48 49 49 48 49 49 48 49 49 48 49 49 48 49 49 48 49 49 48 49 49 48 49 49 48 49 49 48 49 49 48 49 49 48 49 49 48 49 49 48 49 49 48 49 49 48 49 49 48 49 49 48 49 49 48 49 49 48 49 140 138 140 140 138 140 140 138 140 140 138 140 140 138 140 140 138 140 140 138 140 140 138 140 140 138 140 140 138 140 140 138 140 140 138 140 140 138 140 140 138 140 140 138 140 140 138 140 140 138 140 140 138 140 140 138 140 140 138 140 140 138 140 140 138 140 140 138 140 140 138 140 140 138 140 140 138 140 140 138 140 140 138 140 140 138 140 140 138 140 140 138 140 140 138 140 140 138 140 140 138 140 140 138 140 140 138 140 140 138 140 140 138 140 140 138 140 140 138 140 140 138 140 140 138 140 140 138 140 140 138 140 140 138 140 140 138 140 140 138 140 140 138 140 140 138 140 140 138 140 140 138 140 140 138 140 140 138 140 140 138 140 140 138 140 140 138 140 140 138 140 140 138 140 140 138 140 140 138 140 140 138 140 140 138 140 140 138 140 140 138 140 140 138 140 140 138 140 140 138 140 140 138 140 49 48 49 49 48 49 49 48 49 49 48 49 49 48 49 49 48 49 49 48 49 49 48 49 49 48 49 49 48 49 49 48 49 49 48 49 49 48 49 49 48 49 49 48 49 49 48 49 49 48 49 49 48 49 49 48 49 49 48 49 49 48 49 49 48 49 49 48 49 49 48 49 49 48 49 49 48 49 49 48 49 49 48 49
49 48 49 49 48 49 49 48 49 49 48 49 49 48 49 49 48 49 49 48 49 49 48 49 49 48 49 49 48 49 49 48 49 49 48 49 49 48 49 49 48 49 49 48 49 49 48 49 49 48 49 49 48 49 49 48 49 49 48 49 49 48 49 49 48 49 49 48 49 49 48 49 49 48 49 49 48 49 49 48 49 49 48 49 49 48 49 49 48 49 49 48 49 49 48 49 140 138 140 140 138 140 140 138 140 140 138 140 140 138 140 140 138 140 140 138 140 140 138 140 140 138 140 140 138 140 140 138 140 140 138 140 140 138 140 140 138 140 140 138 140 140 138 140 140 138 140 140 138 140 140 138 140 140 138 140 140 138 140 140 138 140 140 138 140 140 138 140 140 138 140 140 138 140 140 138 140 140 138 140 140 138 140 140 138 140 140 138 140 140 138 140 140 138 140 140 138 140 140 138 140 140 138 140 140 138 140 140 138 140 140 138 140 140 138 140 140 138 140 140 138 140 140 138 140 140 138 140 140 138 140 140 138 140 140 138 140 140 138 140 140 138 140 140 138 140 140 138 140 140 138 140 140 138 140 140 138 140 140 138 140 140 138 140 140 138 140 140 138 140 140 138 140 140 138 140 140 138 140 140 138 140 140 138 140 140 138 140 140 138 140 140 138 140 140 138 140 140 138 140 49 48 49 49 48 49 49 48 49 49 48 49 49 48 49 49 48 49 49 48 49 49 48 49 49 48 49 49 48 49 49 48 49 49 48 49 49 48 49 49 48 49 49 48 49 49 48 49 49 48 49 49 48 49 49 48 49 49 48 49 49 48 49 49 48 49 49 48 49 49 48 49 49 48 49 49 48 49 49 48 49 49 48 49
49 48 49 49 48 49 49 48 49 49 48 49 49 48 49 49 48 49 49 48 49 49 48 49 49 48 49 49 48 49 49 48 49 49 48 49 49 48 49 49 48 49 49 48 49 49 48 49 49 48 49 49 48 49 49 48 49 49 48 49 49 48 49 49 48 49 49 48 49 49 48 49 49 48 49 49 48 49 49 48 49 49 48 49 49 48 49 49 48 49 49 48 49 49 48 49 140 138 140 140 138 140 140 138 140 140 138 140 140 138 140 140 138 140 140 138 140 140 138 140 140 138 140 140 138 140 140 138 140 140 138 140 140 138 140 140 138 140 140 138 140 140 138 140 140 138 140 140 138 140 140 138 140 140 138 140 140 138 140 140 138 140 140 138 140 140 138 140 140 138 140 140 138 140 140 138 140 140 138 140 140 138 140 140 138 140 140 138 140 140 138 140 140 138 140 140 138 140 140 138 140 140 138 140 140 138 140 140 138 140 140 138 140 140 138 140 140 138 140 140 138 140 140 138 140 140 138 140 140 138 140 140 138 140 140 138 140 140 138 140 140 138 140 140 138 140 140 138 140 140 138 140 140 138 140 140 138 140 140 138 140 140 138 140 140 138 140 140 138 140 140 138 140 140 138 140 140 138 140 140 138 140 140 138 140 140 138 140 140 138 140 140 138 140 140 138 140 140 138 140 49 48 49 49 48 49 49 48 49 49 48 49 49 48 49 49 48 49 49 48 49 49 48 49 49 48 49 49 48 49 49 48 49 49 48 49 49 48 49 49 48 49 49 48 49 49 48 49 49 48 49 49 48 49 49 48 49 49 48 49 49 48 49 49 48 49 49 48 49 49 48 49 49 48 49 49 48 49 49 48 49 49 48 49
49 48 49 49 48 49 49 48 49 49 48 49 49 48 49 49 48 49 49 48 49 49 48 49 49 48 49 49 48 49 49 48 49 49 48 49 49 48 49 49 48 49 49 48 49 49 48 49 49 48 49 49 48 49 49 48 49 49 48 49 49 48 49 49 48 49 49 48 49 49 48 49 49 48 49 49 48 49 49 48 49 49 48 49 49 48 49 49 48 49 49 48 49 49 48 49 140 138 140 140 138 140 140 138 140 140 138 140 140 138 140 140 138 140 140 138 140 140 138 140 140 138 140 140 138 140 140 138 140 140 138 140 140 138 140 140 138 140 140 138 140 140 138 140 140 138 140 140 138 140 140 138 140 140 138 140 140 138 140 140 138 140 140 138 140 140 138 140 140 138 140 140 138 140 140 138 140 140 138 140 140 138 140 140 138 140 140 138 140 140 138 140 140 138 140 140 138 140 140 138 140 140 138 140 140 138 140 140 138 140 140 138 140 140 138 140 140 138 140 140 138 140 140 138 140 140 138 140 140 138 140 140 138 140 140 138 140 140 138 140 140 138 140 140 138 140 140 138 140 140 138 140 140 138 140 140 138 140 140 138 140 140 138 140 140 138 140 140 138 140 140 138 140 140 138 140 140 138 140 140 138 140 140 138 140 140 138 140 140 138 140 140 138 140 140 138 140 140 138 140 49 48 49 49 48 49 49 48 49 49 48 49 49 48 49 49 48 49 49 48 49 49 48 49 49 48 49 49 48 49 49 48 49 49 48 49 49 48 49 49 48 49 49 48 49 49 48 49 49 48 49 49 48 49 49 48 49 49 48 49 49 48 49 49 48 49 49 48 49 49 48 49 49 48 49 49 48 49 49 48 49 49 48 49
49 48 49 49 48 49 49 48 49 49 48 49 49 48 49 49 48 49 49 48 49 49 48 49 49 48 49 49 48 49 49 48 49 49 48 49 49 48 49 49 48 49 49 48 49 49 48 49 49 48 49 49 48 49 49 48 49 49 48 49 49 48 49 49 48 49 49 48 49 49 48 49 49 48 49 49 48 49 49 48 49 49 48 49 49 48 49 49 48 49 49 48 49 49 48 49 140 138 140 140 138 140 140 138 140 140 138 140 140 138 140 140 138 140 140 138 140 140 138 140 140 138 140 140 138 140 140 138 140 140 138 140 140 138 140 140 138 140 140 138 140 140 138 140 140 138 140 140 138 140 140 138 140 140 138 140 140 138 140 140 138 140 140 138 140 140 138 140 140 138 140 140 138 140 140 138 140 140 138 140 140 138 140 140 138 140 140 138 140 140 138 140 140 138 140 140 138 140 140 138 140 140 138 140 140 138 140 140 138 140 140 138 140 140 138 140 140 138 140 140 138 140 140 138 140 140 138 140 140 138 140 140 138 140 140 138 140 140 138 140 140 138 140 140 138 140 140 138 140 140 138 140 140 138 140 140 138 140 140 138 140 140 138 140 140 138 140 140 138 140 140 138 140 140 138 140 140 138 140 140 138 140 140 138 140 140 138 140 140 138 140 140 138 140 140 138 140 49 48 49 49 48 49 49 48 49 49 48 49 49 48 49 49 48 49 49 48 49 49 48 49 49 48 49 49 48 49 49 48 49 49 48 49 49 48 49 49 48 49 49 48 49 49 48 49 49 48 49 49 48 49 49 48 49 49 48 49 49 48 49 49 48 49 49 48 49 49 48 49 49 48 49 49 48 49 49 48 49 49 48 49 49 48 49
49 48 49 49 48 49 49 48 49 49 48 49 49 48 49 49 48 49 49 48 49 49 48 49 49 48 49 49 48 49 49 48 49 49 48 49 49 48 49 49 48 49 49 48 49 49 48 49 49 48 49 49 48 49 49 48 49 49 48 49 49 48 49 49 48 49 49 48 49 49 48 49 49 48 49 49 48 49 49 48 49 49 48 49 49 48 49 49 48 49 49 48 49 49 48 49 140 138 140 140 138 140 140 138 140 140 138 140 140 138 140 140 138 140 140 138 140 140 138 140 140 138 140 140 138 140 140 138 140 140 138 140 140 138 140 140 138 140 140 138 140 140 138 140 140 138 140 140 138 140 140 138 140 140 138 140 140 138 140 140 138 140 140 138 140 140 138 140 140 138 140 140 138 140 140 138 140 140 138 140 140 138 140 140 138 140 140 138 140 140 138 140 140 138 140 140 138 140 140 138 140 140 138 140 140 138 140 140 138 140 140 138 140 140 138 140 140 138 140 140 138 140 140 138 140 140 138 140 140 138 140 140 138 140 140 138 140 140 138 140 140 138 140 140 138 140 140 138 140 140 138 140 140 138 140 140 138 140 140 138 140 140 138 140 140 138 140 140 138 140 140 138 140 140 138 140 140 138 140 140 138 140 140 138 140 140 138 140 140 138 140 140 138 140 140 138 140 49 48 49 49 48 49 49 48 49 49 48 49 49 48 49 49 48 49 49 48 49 49 48 49 49 48 49 49 48 49 49 48 49 49 48 49 49 48 49 49 48 49 49 48 49 49 48 49 49 48 49 49 48 49 49 48 49 49 48 49 49 48 49 49 48 49 49 48 49 49 48 49 49 48 49 49 48 49 49 48 49 49 48 49 49 48 49
49 48 49 49 48 49 49 48 49 49 48 49 49 48 49 49 48 49 49 48 49 49 48 49 49 48 49 49 48 49 49 48 49 49 48 49 49 48 49 49 48 49 49 48 49 49 48 49 49 48 49 49 48 49 49 48 49 49 48 49 49 48 49 49 48 49 49 48 49 49 48 49 49 48 49 49 48 49 49 48 49 49 48 49 49 48 49 49 48 49 49 48 49 49 48 49 140 138 140 140 138 140 140 138 140 140 138 140 140 138 140 140 138 140 140 138 140 140 138 140 140 138 140 140 138 140 140 138 140 140 138 140 140 138 140 140 138 140 140 138 140 140 138 140 140 138 140 140 138 140 140 138 140 140 138 140 140 138 140 140 138 140 140 138 140 140 138 140 140 138 140 140 138 140 140 138 140 140 138 140 140 138 140 140 138 140 140 138 140 140 138 140 140 138 140 140 138 140 140 138 140 140 138 140 140 138 140 140 138 140 140 138 140 140 138 140 140 138 140 140 138 140 140 138 140 140 138 140 140 138 140 140 138 140 140 138 140 140 138 140 140 138 140 140 138 140 140 138 140 140 138 140 140 138 140 140 138 140 140 138 140 140 138 140 140 138 140 140 138 140 140 138 140 140 138 140 140 138 140 140 138 140 140 138 140 140 138 140 140 138 140 140 138 140 140 138 140 49 48 49 49 48 49 49 48 49 49 48 49 49 48 49 49 48 49 49 48 49 49 48 49 49 48 49 49 48 49 49 48 49 49 48 49 49 48 49 49 48 49 49 48 49 49 48 49 49 48 49 49 48 49 49 48 49 49 48 49 49 48 49 49 48 49 49 48 49 49 48 49 49 48 49 49 48 49 49 48 49 49 48 49 49 48 49
49 48 49 49 48 49 49 48 49 49 48 49 49 48 49 49 48 49 49 48 49 49 48 49 49 48 49 49 48 49 49 48 49 49 48 49 49 48 49 49 48 49 49 48 49 49 48 49 49 48 49 49 48 49 49 48 49 49 48 49 49 48 49 49 48 49 49 48 49 49 48 49 49 48 49 49 48 49 49 48 49 49 48 49 49 48 49 49 48 49 49 48 49 49 48 49 140 138 140 140 138 140 140 138 140 140 138 140 140 138 140 140 138 140 140 138 140 140 138 140 140 138 140 140 138 140 140 138 140 140 138 140 140 138 140 140 138 140 140 138 140 140 138 140 140 138 140 140 138 140 140 138 140 140 138 140 140 138 140 140 138 140 140 138 140 140 138 140 140 138 140 140 138 140 140 138 140 140 138 140 140 138 140 140 138 140 140 138 140 140 138 140 140 138 140 140 138 140 140 138 140 140 138 140 140 138 140 140 138 140 140 138 140 140 138 140 140 138 140 140 138 140 140 138 140 140 138 140 140 138 140 140 138 140 140 138 140 140 138 140 140 138 140 140 138 140 140 138 140 140 138 140 140 138 140 140 138 140 140 138 140 140 138 140 140 138 140 140 138 140 140 138 140 140 138 140 140 138 140 140 138 140 140 138 140 140 138 140 140 138 140 140 138 140 140 138 140 49 48 49 49 48 49 49 48 49 49 48 49 49 48 49 49 48 49 49 48 49 49 48 49 49 48 49 49 48 49 49 48 49 49 48 49 49 48 49 49 48 49 49 48 49 49 48 49 49 48 49 49 48 49 49 48 49 49 48 49 49 48 49 49 48 49 49 48 49 49 48 49 49 48 49 49 48 49 49 48 49 49 48 49 49 48 49
49 48 49 49 48 49 49 48 49 49 48 49 49 48 49 49 48 49 49 48 49 49 48 49 49 48 49 49 48 49 49 48 49 49 48 49 49 48 49 49 48 49 49 48 49 49 48 49 49 48 49 49 48 49 49 48 49 49 48 49 49 48 49 49 48 49 49 48 49 49 48 49 49 48 49 49 48 49 49 48 49 49 48 49 49 48 49 49 48 49 49 48 49 49 48 49 49 48 49 140 138 140 140 138 140 140 138 140 140 138 140 140 138 140 140 138 140 140 138 140 140 138 140 140 138 140 140 138 140 140 138 140 140 138 140 140 138 140 140 138 140 140 138 140 140 138 140 140 138 140 140 138 140 140 138 140 140 138 140 140 138 140 140 138 140 140 138 140 140 138 140 140 138 140 140 138 140 140 138 140 140 138 140 140 138 140 140 138 140 140 138 140 140 138 140 140 138 140 140 138 140 140 138 140 140 138 140 140 138 140 140 138 140 140 138 140 140 138 140 140 138 140 140 138 140 140 138 140 140 138 140 140 138 140 140 138 140 140 138 140 140 138 140 140 138 140 140 138 140 140 138 140 140 138 140 140 138 140 140 138 140 140 138 140 140 138 140 140 138 140 140 138 140 140 138 140 140 138 140 140 138 140 140 138 140 140 138 140 140 138 140 140 138 140 140 138 140 49 48 49 49 48 49 49 48 49 49 48 49 49 48 49 49 48 49 49 48 49 49 48 49 49 48 49 49 48 49 49 48 49 49 48 49 49 48 49 49 48 49 49 48 49 49 48 49 49 48 49 49 48 49 49 48 49 49 48 49 49 48 49 49 48 49 49 48 49 49 48 49 49 48 49 49 48 49 49 48 49 49 48 49 49 48 49
49 48 49 49 48 49 49 48 49 49 48 49 49 48 49 49 48 49 49 48 49 49 48 49 49 48 49 49 48 49 49 48 49 49 48 49 49 48 49 49 48 49 49 48 49 49 48 49 49 48 49 49 48 49 49 48 49 49 48 49 49 48 49 49 48 49 49 48 49 49 48 49 49 48 49 49 48 49 49 48 49 49 48 49 49 48 49 49 48 49 49 48 49 49 48 49 49 48 49 140 138 140 140 138 140 140 138 140 140 138 140 140 138 140 140 138 140 140 138 140 140 138 140 140 138 140 140 138 140 140 138 140 140 138 140 140 138 140 140 138 140 140 138 140 140 138 140 140 138 140 140 138 140 140 138 140 140 138 140 140 138 140 140 138 140 140 138 140 140 138 140 140 138 140 140 138 140 140 138 140 140 138 140 140 138 140 140 138 140 140 138 140 140 138 140 140 138 140 140 138 140 140 138 140 140 138 140 140 138 140 140 138 140 140 138 140 140 138 140 140 138 140 140 138 140 140 138 140 140 138 140 140 138 140 140 138 140 140 138 140 140 138 140 140 138 140 140 138 140 140 138 140 140 138 140 140 138 140 140 138 140 140 138 140 140 138 140 140 138 140 140 138 140 140 138 140 140 138 140 140 138 140 140 138 140 140 138 140 140 138 140 140 138 140 140 138 140 49 48 49 49 48 49 49 48 49 49 48 49 49 48 49 49 48 49 49 48 49 49 48 49 49 48 49 49 48 49 49 48 49 49 48 49 49 48 49 49 48 49 49 48 49 49 48 49 49 48 49 49 48 49 49 48 49 49 48 49 49 48 49 49 48 49 49 48 49 49 48 49 49 48 49 49 48 49 49 48 49 49 48 49 49 48 49
49 48 49 49 48 49 49 48 49 49 48 49 49 48 49 49 48 49 49 48 49 49 48 49 49 48 49 49 48 49 49 48 49 49 48 49 49 48 49 49 48 49 49 48 49 49 48 49 49 48 49 49 48 49 49 48 49 49 48 49 49 48 49 49 48 49 49 48 49 49 48 49 49 48 49 49 48 49 49 48 49 49 48 49 49 48 49 49 48 49 49 48 49 49 48 49 49 48 49 140 138 140 140 138 140 140 138 140 140 138 140 140 138 140 140 138 140 140 138 140 140 138 140 140 138 140 140 138 140 140 138 140 140 138 140 140 138 140 140 138 140 140 138 140 140 138 140 140 138 140 140 138 140 140 138 140 140 138 140 140 138 140 140 138 140 140 138 140 140 138 140 140 138 140 140 138 140 140 138 140 140 138 140 140 138 140 140 138 140 140 138 140 140 138 140 140 138 140 140 138 140 140 138 140 140 138 140 140 138 140 140 138 140 140 138 140 140 138 140 140 138 140 140 138 140 140 138 140 140 138 140 140 138 140 140 138 140 140 138 140 140 138 140 140 138 140 140 138 140 140 138 140 140 138 140 140 138 140 140 138 140 140 138 140 140 138 140 140 138 140 140 138 140 140 138 140 140 138 140 140 138 140 140 138 140 140 138 140 140 138 140 140 138 140 140 138 140 49 48 49 49 48 49 49 48 49 49 48 49 49 48 49 49 48 49 49 48 49 49 48 49 49 48 49 49 48 49 49 48 49 49 48 49 49 48 49 49 48 49 49 48 49 49 48 49 49 48 49 49 48 49 49 48 49 49 48 49 49 48 49 49 48 49 49 48 49 49 48 49 49 48 49 49 48 49 49 48 49 49 48 49 49 48 49
49 48 49 49 48 49 49 48 49 49 48 49 49 48 49 49 48 49 49 48 49 49 48 49 49 48 49 49 48 49 49 48 49 49 48 49 49 48 49 49 48 49 49 48 49 49 48 49 49 48 49 49 48 49 49 48 49 49 48 49 49 48 49 49 48 49 49 48 49 49 48 49 49 48 49 49 48 49 49 48 49 49 48 49 49 48 49 49 48 49 49 48 49 49 48 49 49 48 49 140 138 140 140 138 140 140 138 140 140 138 140 140 138 140 140 138 140 140 138 140 140 138 140 140 138 140 140 138 140 140 138 140 140 138 140 140 138 140 140 138 140 140 138 140 140 138 140 140 138 140 140 138 140 140 138 140 140 138 140 140 138 140 140 138 140 140 138 140 140 138 140 140 138 140 140 138 140 140 138 140 140 138 140 140 138 140 140 138 140 140 138 140 140 138 140 140 138 140 140 138 140 140 138 140 140 138 140 140 138 140 140 138 140 140 138 140 140 138 140 140 138 140 140 138 140 140 138 140 140 138 140 140 138 140 140 138 140 140 138 140 140 138 140 140 138 140 140 138 140 140 138 140 140 138 140 140 138 140 140 138 140 140 138 140 140 138 140 140 138 140 140 138 140 140 138 140 140 138 140 140 138 140 140 138 140 140 138 140 140 138 140 140 138 140 140 138 140 49 48 49 49 48 49 49 48 49 49 48 49 49 48 49 49 48 49 49 48 49 49 48 49 49 48 49 49 48 49 49 48 49 49 48 49 49 48 49 49 48 49 49 48 49 49 48 49 49 48 49 49 48 49 49 48 49 49 48 49 49 48 49 49 48 49 49 48 49 49 48 49 49 48 49 49 48 49 49 48 49 49 48 49 49 48 49
49 48 49 49 48 49 49 48 49 49 48 49 49 48 49 49 48 49 49 48 49 49 48 49 49 48 49 49 48 49 49 48 49 49 48 49 49 48 49 49 48 49 49 48 49 49 48 49 49 48 49 49 48 49 49 48 49 49 48 49 49 48 49 49 48 49 49 48 49 49 48 49 49 48 49 49 48 49 49 48 49 49 48 49 49 48 49 49 48 49 49 48 49 49 48 49 49 48 49 140 138 140 140 138 140 140 138 140 140 138 140 140 138 140 140 138 140 140 138 140 140 138 140 140 138 140 140 138 140 140 138 140 140 138 140 140 138 140 140 138 140 140 138 140 140 138 140 140 138 140 140 138 140 140 138 140 140 138 140 140 138 140 140 138 140 140 138 140 140 138 140 140 138 140 140 138 140 140 138 140 140 138 140 140 138 140 140 138 140 140 138 140 140 138 140 140 138 140 140 138 140 140 138 140 140 138 140 140 138 140 140 138 140 140 138 140 140 138 140 140 138 140 140 138 140 140 138 140 140 138 140 140 138 140 140 138 140 140 138 140 140 138 140 140 138 140 140 138 140 140 138 140 140 138 140 140 138 140 140 138 140 140 138 140 140 138 140 140 138 140 140 138 140 140 138 140 140 138 140 140 138 140 140 138 140 140 138 140 140 138 140 140 138 140 49 48 49 49 48 49 49 48 49 49 48 49 49 48 49 49 48 49 49 48 49 49 48 49 49 48 49 49 48 49 49 48 49 49 48 49 49 48 49 49 48 49 49 48 49 49 48 49 49 48 49 49 48 49 49 48 49 49 48 49 49 48 49 49 48 49 49 48 49 49 48 49 49 48 49 49 48 49 49 48 49 49 48 49 49 48 49 49 48 49
49 48 49 49 48 49 49 48 49 49 48 49 49 48 49 49 48 49 49 48 49 49 48 49 49 48 49 49 48 49 49 48 49 49 48 49 49 48 49 49 48 49 49 48 49 49 48 49 49 48 49 49 48 49 49 48 49 49 48 49 49 48 49 49 48 49 49 48 49 49 48 49 49 48 49 49 48 49 49 48 49 49 48 49 49 48 49 49 48 49 49 48 49 49 48 49 49 48 49 140 138 140 140 138 140 140 138 140 140 138 140 140 138 140 140 138 140 140 138 140 140 138 140 140 138 140 140 138 140 140 138 140 140 138 140 140 138 140 140 138 140 140 138 140 140 138 140 140 138 140 140 138 140 140 138 140 140 138 140 140 138 140 140 138 140 140 138 140 140 138 140 140 138 140 140 138 140 140 138 140 140 138 140 140 138 140 140 138 140 140 138 140 140 138 140 140 138 140 140 138 140 140 138 140 140 142 140 140 142 140 140 142 140 140 142 140 140 142 140 140 142 140 140 138 140 140 138 140 140 138 140 140 138 140 140 138 140 140 138 140 140 138 140 140 138 140 140 138 140 140 138 140 140 138 140 140 138 140 140 138 140 140 138 140 140 138 140 140 138 140 140 138 140 140 138 140 140 138 140 140 138 140 140 138 140 140 138 140 140 138 140 140 138 140 49 48 49 49 48 49 49 48 49 49 48 49 49 48 49 49 48 49 49 48 49 49 48 49 49 48 49 49 48 49 49 48 49 49 48 49 49 48 49 49 48 49 49 48 49 49 48 49 49 48 49 49 48 49 49 48 49 49 48 49 49 48 49 49 48 49 49 48 49 49 48 49 49 48 49 49 48 49 49 48 49 49 48 49 49 48 49 49 48 49
49 48 49 49 48 49 49 48 49 49 48 49 49 48 49 49 48 49 49 48 49 49 48 49 49 48 49 49 48 49 49 48 49 49 48 49 49 48 49 49 48 49 49 48 49 49 48 49 49 48 49 49 48 49 49 48 49 49 48 49 49 48 49 49 48 49 49 48 49 49 48 49 49 48 49 49 48 49 49 48 49 49 48 49 49 48 49 49 48 49 49 48 49 49 48 49 49 48 49 140 138 140 140 138 140 140 138 140 140 138 140 140 138 140 140 138 140 140 138 140 140 138 140 140 138 140 140 138 140 140 138 140 140 138 140 140 138 140 140 138 140 140 138 140 140 138 140 140 138 140 140 138 140 140 138 140 140 138 140 140 138 140 140 138 140 140 138 140 140 138 140 140 138 140 140 138 140 140 138 140 140 138 140 140 138 140 140 138 140 140 142 140 140 142 140 140 142 140 123 134 140 132 134 140 132 138 140 148 150 148 140 142 148 132 142 148 132 142 140 132 142 140 132 138 140 132 138 140 132 138 140 132 138 140 123 134 140 123 134 132 123 134 132 123 134 132 123 134 132 123 134 132 123 130 132 123 130 132 123 130 132 123 130 132 41 97 107 41 97 99 41 93 99 41 89 99 57 93 99 132 134 132 140 138 140 140 138 140 140 138 140 140 138 140 49 48 49 49 48 49 49 48 49 49 48 49 49 48 49 49 48 49 49 48 49 49 48 49 49 48 49 49 48 49 49 48 49 49 48 49 49 48 49 49 48 49 49 48 49 49 48 49 49 48 49 49 48 49 49 48 49 49 48 49 49 48 49 49 48 49 49 48 49 49 48 49 49 48 49 49 48 49 49 48 49 49 48 49 49 48 49 49 48 49
49 48 49 49 48 49 49 48 49 49 48 49 49 48 49 49 48 49 49 48 49 49 48 49 49 48 49 49 48 49 49 48 49 49 48 49 49 48 49 49 48 49 49 48 49 49 48 49 49 48 49 49 48 49 49 48 49 49 48 49 49 48 49 49 48 49 49 48 49 49 48 49 49 48 49 49 48 49 49 48 49 49 48 49 49 48 49 49 48 49 49 48 49 49 48 49 49 48 49 140 138 140 140 138 140 140 138 140 140 138 140 140 138 140 140 138 140 140 138 140 123 134 132 123 134 132 123 134 132 123 134 132 123 134 132 123 134 132 123 134 132 123 134 132 123 134 132 123 134 132 123 134 132 123 134 132 123 134 132 123 134 132 123 134 132 123 134 132 123 134 132 123 134 132 123 134 132 123 134 132 123 134 132 123 134 132 24 105 115 16 101 107 16 101 107 16 97 99 16 93 99 16 89 90 16 85 90 132 146 148 123 154 156 99 142 148 90 138 148 90 138 140 90 134 140 82 134 140 74 130 132 74 125 132 66 125 132 66 121 123 57 117 123 57 117 123 57 113 123 49 109 115 49 109 115 49 109 115 49 105 107 41 101 107 41 101 107 41 97 99 41 93 99 41 93 99 41 89 90 123 130 132 140 138 140 140 138 140 140 138 140 140 138 140 49 48 49 49 48 49 49 48 49 49 48 49 49 48 49 49 48 49 49 48 49 49 48 49 49 48 49 49 48 49 49 48 49 49 48 49 49 48 49 49 48 49 49 48 49 49 48 49 49 48 49 49 48 49 49 48 49 49 48 49 49 48 49 49 48 49 49 48 49 49 48 49 49 48 49 49 48 49 49 48 49 49 48 49 49 48 49 49 48 49
49 48 49 49 48 49 49 48 49 49 48 49 49 48 49 49 48 49 49 48 49 49 48 49 49 48 49 49 48 49 49 48 49 49 48 49 49 48 49 49 48 49 49 48 49 49 48 49 49 48 49 49 48 49 49 48 49 49 48 49 49 48 49 49 48 49 49 48 49 49 48 49 49 48 49 49 48 49 49 48 49 49 48 49 49 48 49 49 48 49 49 48 49 49 48 49 49 48 49 49 48 49 140 138 140 140 138 140 140 138 140 140 138 140 132 134 140 41 121 132 24 121 132 24 121 132 24 121 132 24 121 132 24 121 132 24 121 132 24 121 123 24 121 123 24 121 123 24 121 123 24 117 123 24 117 123 24 117 123 24 117 123 24 117 123 24 117 123 24 113 123 24 113 123 24 113 115 24 109 115 24 109 115 24 109 115 24 105 115 16 101 107 16 101 107 16 97 99 16 93 99 16 89 99 16 85 90 16 81 82 156 162 165 123 154 156 107 142 148 99 142 148 99 138 148 90 134 140 82 134 140 82 130 132 74 125 132 66 121 132 66 121 123 57 117 123 57 113 123 57 113 115 49 109 115 49 109 115 49 105 107 41 101 107 41 101 107 41 97 99 41 93 99 41 93 99 41 89 90 123 130 132 140 138 140 140 138 140 140 138 140 140 138 140 49 48 49 49 48 49 49 48 49 49 48 49 49 48 49 49 48 49 49 48 49 49 48 49 49 48 49 49 48 49 49 48 49 49 48 49 49 48 49 49 48 49 49 48 49 49 48 49 49 48 49 49 48 49 49 48 49 49 48 49 49 48 49 49 48 49 49 48 49 49 48 49 49 48 49 49 48 49 49 48 49 49 48 49 49 48 49 49 48 49
49 48 49 49 48 49 49 48 49 49 48 49 49 48 49 49 48 49 49 48 49 49 48 49 49 48 49 49 48 49 49 48 49 49 48 49 49 48 49 49 48 49 49 48 49 49 48 49 49 48 49 49 48 49 49 48 49 49 48 49 49 48 49 49 48 49 49 48 49 49 48 49 49 48 49 49 48 49 49 48 49 49 48 49 49 48 49 49 48 49 49 48 49 49 48 49 49 48 49 49 48 49 140 138 140 140 138 140 140 138 140 140 138 140 123 134 132 24 121 132 24 121 132 24 121 132 24 121 132 24 121 132 24 121 132 24 121 132 24 121 123 24 121 123 24 121 123 24 121 123 24 117 123 24 117 123 24 117 123 24 117 123 24 117 123 24 117 123 24 113 123 24 113 123 24 113 115 24 109 115 24 109 115 24 109 115 24 105 115 16 101 107 16 101 107 16 97 99 16 93 99 16 89 99 16 85 90 16 81 82 49 89 90 173 178 181 115 150 156 107 146 148 107 142 148 99 138 148 99 138 140 90 134 140 82 130 140 82 125 132 74 121 132 74 121 132 82 121 132 66 117 123 49 109 115 49 109 115 49 105 115 41 101 107 41 101 107 41 97 99 41 93 99 41 93 99 41 89 90 123 130 132 140 138 140 140 138 140 140 138 140 140 138 140 49 48 49 49 48 49 49 48 49 49 48 49 49 48 49 49 48 49 49 48 49 49 48 49 49 48 49 49 48 49 49 48 49 49 48 49 49 48 49 49 48 49 49 48 49 49 48 49 49 48 49 49 48 49 49 48 49 49 48 49 49 48 49 49 48 49 49 48 49 49 48 49 49 48 49 49 48 49 49 48 49 49 48 49 49 48 49 49 48 49
49 48 49 49 48 49 49 48 49 49 48 49 49 48 49 49 48 49 49 48 49 49 48 49 49 48 49 49 48 49 49 48 49 49 48 49 49 48 49 49 48 49 49 48 49 49 48 49 49 48 49 49 48 49 49 48 49 49 48 49 49 48 49 49 48 49 49 48 49 49 48 49 49 48 49 49 48 49 49 48 49 49 48 49 49 48 49 49 48 49 49 48 49 49 48 49 49 48 49 49 48 49 140 138 140 140 138 140 140 138 140 140 138 140 123 134 132 24 121 132 24 121 132 24 121 132 24 121 132 24 121 132 24 121 132 24 121 132 24 121 123 24 121 123 24 121 123 24 121 123 24 117 123 24 117 123 24 117 123 24 117 123 24 117 123 24 117 123 24 113 123 24 113 123 24 113 115 24 109 115 24 109 115 24 109 115 24 105 115 16 101 107 16 101 107 16 97 99 16 93 99 16 89 99 16 85 90 16 81 82 8 77 82 16 69 74 173 178 181 140 158 165 123 150 156 115 146 148 107 142 148 99 138 140 115 142 148 156 170 173 181 186 189 198 195 198 198 195 198 189 195 198 181 182 181 148 162 165 82 121 123 41 101 107 41 101 107 41 97 99 41 93 99 41 93 99 41 89 90 123 130 132 140 138 140 140 138 140 140 138 140 140 138 140 49 48 49 49 48 49 49 48 49 49 48 49 49 48 49 49 48 49 49 48 49 49 48 49 49 48 49 49 48 49 49 48 49 49 48 49 49 48 49 49 48 49 49 48 49 49 48 49 49 48 49 49 48 49 49 48 49 49 48 49 49 48 49 49 48 49 49 48 49 49 48 49 49 48 49 49 48 49 49 48 49 49 48 49 49 48 49 49 48 49
49 48 49 49 48 49 49 48 49 49 48 49 49 48 49 49 48 49 49 48 49 49 48 49 49 48 49 49 48 49 49 48 49 49 48 49 49 48 49 49 48 49 49 48 49 49 48 49 49 48 49 49 48 49 49 48 49 49 48 49 49 48 49 49 48 49 49 48 49 49 48 49 49 48 49 49 48 49 49 48 49 49 48 49 49 48 49 49 48 49 49 48 49 49 48 49 49 48 49 49 48 49 140 138 140 140 138 140 140 138 140 140 138 140 123 134 132 24 121 132 24 121 132 24 121 132 24 121 132 24 121 132 24 121 132 24 121 132 24 121 123 24 121 123 24 121 123 24 121 123 24 117 123 24 117 123 24 117 123 24 117 123 24 117 123 24 117 123 24 113 123 24 113 123 24 113 115 24 109 115 24 109 115 24 109 115 24 105 115 16 101 107 16 101 107 16 97 99 16 93 99 16 89 99 16 85 90 16 81 82 8 77 82 8 69 74 115 130 132 173 178 181 132 154 156 123 150 156 115 146 148 156 170 173 189 195 198 198 195 198 198 195 198 198 195 198 189 190 189 189 195 198 198 195 198 198 195 198 189 190 189 198 195 198 156 162 165 41 97 99 41 93 99 41 93 99 41 89 90 123 130 132 140 138 140 140 138 140 140 138 140 49 48 49 49 48 49 49 48 49 49 48 49 49 48 49 49 48 49 49 48 49 49 48 49 49 48 49 49 48 49 49 48 49 49 48 49 49 48 49 49 48 49 49 48 49 49 48 49 49 48 49 49 48 49 49 48 49 49 48 49 49 48 49 49 48 49 49 48 49 49 48 49 49 48 49 49 48 49 49 48 49 49 48 49 49 48 49 49 48 49 49 48 49
49 48 49 49 48 49 49 48 49 49 48 49 49 48 49 49 48 49 49 48 49 49 48 49 49 48 49 49 48 49 49 48 49 49 48 49 49 48 49 49 48 49 49 48 49 49 48 49 49 48 49 49 48 49 49 48 49 49 48 49 49 48 49 49 48 49 49 48 49 49 48 49 49 48 49 49 48 49 49 48 49 49 48 49 49 48 49 49 48 49 49 48 49 49 48 49 49 48 49 49 48 49 140 138 140 140 138 140 140 138 140 140 138 140 123 134 132 24 121 132 24 121 132 24 121 132 24 121 132 24 121 132 24 121 132 24 121 132 24 121 123 24 121 123 24 121 123 24 121 123 24 117 123 24 117 123 24 117 123 24 117 123 24 117 123 24 117 123 24 113 123 24 113 123 24 113 115 24 109 115 24 109 115 24 109 115 24 105 115 16 101 107 16 101 107 16 97 99 16 93 99 16 89 99 16 85 90 16 81 82 8 73 82 8 69 74 33 65 66 189 186 189 140 162 165 132 154 156 173 182 181 198 195 198 198 195 198 173 178 181 123 150 148 82 125 132 66 117 123 66 117 123 57 113 115 57 109 115 115 138 140 189 190 189 165 170 173 41 97 99 41 93 99 41 93 99 41 89 90 140 138 140 140 138 140 140 138 140 140 138 140 49 48 49 49 48 49 49 48 49 49 48 49 49 48 49 49 48 49 49 48 49 49 48 49 49 48 49 49 48 49 49 48 49 49 48 49 49 48 49 49 48 49 49 48 49 49 48 49 49 48 49 49 48 49 49 48 49 49 48 49 49 48 49 49 48 49 49 48 49 49 48 49 49 48 49 49 48 49 49 48 49 49 48 49 49 48 49 49 48 49 49 48 49
49 48 49 49 48 49 49 48 49 49 48 49 49 48 49 49 48 49 49 48 49 49 48 49 49 48 49 49 48 49 49 48 49 49 48 49 49 48 49 49 48 49 49 48 49 49 48 49 49 48 49 49 48 49 49 48 49 49 48 49 49 48 49 49 48 49 49 48 49 49 48 49 49 48 49 49 48 49 49 48 49 49 48 49 49 48 49 49 48 49 49 48 49 49 48 49 49 48 49 49 48 49 140 138 140 140 138 140 140 138 140 140 138 140 123 134 132 24 121 132 24 121 132 24 121 132 24 121 132 24 121 132 24 121 132 24 121 132 24 121 123 24 121 123 24 121 123 24 121 123 24 117 123 24 117 123 24 117 123 24 117 123 24 117 123 24 117 123 24 113 123 24 113 123 24 113 115 24 109 115 24 109 115 24 109 115 24 105 115 16 101 107 16 101 107 16 97 99 16 93 99 16 89 99 16 85 90 16 81 82 8 73 82 8 69 74 8 60 66 156 162 165 165 174 173 173 178 181 198 195 198 189 190 189 115 142 148 99 138 140 90 130 140 82 125 132 74 121 123 66 117 123 57 113 115 57 109 115 49 105 115 107 130 132 165 170 173 41 97 99 41 93 99 41 89 90 123 130 132 140 138 140 140 138 140 140 138 140 140 138 140 49 48 49 49 48 49 49 48 49 49 48 49 49 48 49 49 48 49 49 48 49 49 48 49 49 48 49 49 48 49 49 48 49 49 48 49 49 48 49 49 48 49 49 48 49 49 48 49 49 48 49 49 48 49 49 48 49 49 48 49 49 48 49 49 48 49 49 48 49 49 48 49 49 48 49 49 48 49 49 48 49 49 48 49 49 48 49 49 48 49 49 48 49
49 48 49 49 48 49 49 48 49 49 48 49 49 48 49 49 48 49 49 48 49 49 48 49 49 48 49 49 48 49 49 48 49 49 48 49 49 48 49 49 48 49 49 48 49 49 48 49 49 48 49 49 48 49 49 48 49 49 48 49 49 48 49 49 48 49 49 48 49 49 48 49 49 48 49 49 48 49 49 48 49 49 48 49 49 48 49 49 48 49 49 48 49 49 48 49 49 48 49 49 48 49 140 138 140 140 138 140 140 138 140 140 138 140 123 134 132 24 121 132 24 121 132 24 121 132 24 121 132 24 121 132 24 121 132 24 121 132 24 121 123 24 121 123 24 121 123 24 121 123 24 117 123 24 117 123 24 117 123 24 117 123 24 117 123 24 117 123 24 113 123 24 113 123 24 113 115 24 109 115 24 109 115 24 109 115 24 105 115 16 101 107 16 101 107 16 97 99 16 93 99 16 89 99 16 85 90 16 81 82 8 77 82 8 69 74 8 60 66 82 93 99 198 195 198 198 195 198 173 178 181 123 150 156 115 146 148 107 138 140 90 134 140 82 125 132 74 121 123 66 117 123 57 113 115 57 109 115 49 105 115 41 101 107 41 97 99 41 93 99 41 93 99 41 89 90 123 130 132 140 138 140 140 138 140 140 138 140 140 138 140 49 48 49 49 48 49 49 48 49 49 48 49 49 48 49 49 48 49 49 48 49 49 48 49 49 48 49 49 48 49 49 48 49 49 48 49 49 48 49 49 48 49 49 48 49 49 48 49 49 48 49 49 48 49 49 48 49 49 48 49 49 48 49 49 48 49 49 48 49 49 48 49 49 48 49 49 48 49 49 48 49 49 48 49 49 48 49 49 48 49 49 48 49
49 48 49 49 48 49 49 48 49 49 48 49 49 48 49 49 48 49 49 48 49 49 48 49 49 48 49 49 48 49 49 48 49 49 48 49 49 48 49 49 48 49 49 48 49 49 48 49 49 48 49 49 48 49 49 48 49 49 48 49 49 48 49 49 48 49 49 48 49 49 48 49 49 48 49 49 48 49 49 48 49 49 48 49 49 48 49 49 48 49 49 48 49 49 48 49 49 48 49 49 48 49 140 138 140 140 138 140 140 138 140 140 138 140 123 134 132 24 121 132 24 121 132 24 121 132 24 121 132 24 121 132 24 121 132 24 121 132 24 121 123 24 121 123 24 121 123 24 121 123 24 117 123 24 117 123 24 117 123 24 117 123 24 117 123 24 117 123 24 113 123 24 113 123 24 113 115 24 109 115 24 109 115 24 109 115 24 105 115 16 101 107 16 101 107 16 97 99 16 93 99 16 89 99 132 146 148 123 138 140 57 89 90 8 69 74 8 60 66 33 60 66 189 190 189 198 195 198 148 162 165 132 154 156 115 146 148 107 142 148 99 134 140 90 130 132 74 121 132 66 117 123 57 113 115 57 109 115 41 101 107 41 101 107 41 97 99 41 93 99 41 93 99 41 89 90 123 130 132 140 138 140 140 138 140 140 138 140 140 138 140 49 48 49 49 48 49 49 48 49 49 48 49 49 48 49 49 48 49 49 48 49 49 48 49 49 48 49 49 48 49 49 48 49 49 48 49 49 48 49 49 48 49 49 48 49 49 48 49 49 48 49 49 48 49 49 48 49 49 48 49 49 48 49 49 48 49 49 48 49 49 48 49 49 48 49 49 48 49 49 48 49 49 48 49 49 48 49 49 48 49 49 48 49
49 48 49 49 48 49 49 48 49 49 48 49 49 48 49 49 48 49 49 48 49 49 48 49 49 48 49 49 48 49 49 48 49 49 48 49 49 48 49 49 48 49 49 48 49 49 48 49 49 48 49 49 48 49 49 48 49 49 48 49 49 48 49 49 48 49 49 48 49 49 48 49 49 48 49 49 48 49 49 48 49 49 48 49 49 48 49 49 48 49 49 48 49 49 48 49 49 48 49 49 48 49 49 48 49 140 138 140 140 138 140 140 138 140 140 138 140 123 134 132 24 121 132 24 121 132 24 121 132 24 121 132 99 142 148 24 121 132 24 121 132 24 121 123 99 142 148 24 121 123 49 125 132 90 134 140 24 117 123 24 117 123 57 125 132 49 121 123 24 113 123 82 130 132 49 117 123 24 109 115 24 109 115 24 109 115 49 113 115 132 150 148 16 101 107 16 97 99 16 93 99 99 125 132 115 134 132 74 101 107 148 154 156 8 69 74 8 60 66 0 48 49 189 186 189 189 190 189 140 162 165 132 154 156 123 146 148 107 142 148 99 134 140 90 130 132 82 121 132 74 117 123 57 109 115 49 105 115 41 101 107 41 101 107 41 97 99 41 93 99 41 93 99 41 89 90 123 130 132 140 138 140 140 138 140 140 138 140 140 138 140 49 48 49 49 48 49 49 48 49 49 48 49 49 48 49 49 48 49 49 48 49 49 48 49 49 48 49 49 48 49 49 48 49 49 48 49 49 48 49 49 48 49 49 48 49 49 48 49 49 48 49 49 48 49 49 48 49 49 48 49 49 48 49 49 48 49 49 48 49 49 48 49 49 48 49 49 48 49 49 48 49 49 48 49 49 48 49 49 48 49 49 48 49
49 48 49 49 48 49 49 48 49 49 48 49 49 48 49 49 48 49 49 48 49 49 48 49 49 48 49 49 48 49 49 48 49 49 48 49 49 48 49 49 48 49 49 48 49 49 48 49 49 48 49 49 48 49 49 48 49 49 48 49 49 48 49 49 48 49 49 48 49 49 48 49 49 48 49 49 48 49 49 48 49 49 48 49 49 48 49 49 48 49 49 48 49 49 48 49 49 48 49 49 48 49 49 48 49 140 138 140 140 138 140 140 138 140 140 138 140 123 134 132 24 121 132 24 121 132 24 121 132 24 121 132 140 162 165 24 121 132 24 121 132 24 121 123 24 121 123 148 162 165 24 121 123 74 130 140 132 154 156 24 117 123 90 138 140 165 174 173 33 117 123 123 150 156 74 125 132 24 109 115 24 109 115 24 109 115 148 162 165 148 162 165 24 101 107 16 97 99 16 93 99 99 125 132 123 138 140 123 138 140 132 142 140 8 69 74 8 60 66 0 48 49 181 182 181 189 186 189 140 162 165 132 154 156 123 150 156 107 142 148 99 134 140 90 130 132 74 117 123 57 113 123 57 109 115 49 105 115 41 101 107 41 101 107 41 97 99 41 93 99 41 93 99 41 89 90 123 130 132 140 138 140 140 138 140 140 138 140 140 138 140 49 48 49 49 48 49 49 48 49 49 48 49 49 48 49 49 48 49 49 48 49 49 48 49 49 48 49 49 48 49 49 48 49 49 48 49 49 48 49 49 48 49 49 48 49 49 48 49 49 48 49 49 48 49 49 48 49 49 48 49 49 48 49 49 48 49 49 48 49 49 48 49 49 48 49 49 48 49 49 48 49 49 48 49 49 48 49 49 48 49 49 48 49
49 48 49 49 48 49 49 48 49 49 48 49 49 48 49 49 48 49 49 48 49 49 48 49 49 48 49 49 48 49 49 48 49 49 48 49 49 48 49 49 48 49 49 48 49 49 48 49 49 48 49 49 48 49 49 48 49 49 48 49 49 48 49 49 48 49 49 48 49 49 48 49 49 48 49 49 48 49 49 48 49 49 48 49 49 48 49 49 48 49 49 48 49 49 48 49 49 48 49 49 48 49 49 48 49 140 138 140 140 138 140 140 138 140 140 138 140 123 134 132 24 121 132 24 121 132 24 121 132 24 121 132 140 162 165 24 121 132 24 121 132 24 121 123 24 121 123 148 162 165 24 121 123 74 130 140 132 154 156 24 117 123 24 117 123 115 146 148 99 138 140 173 178 181 74 125 132 24 109 115 24 109 115 99 134 140 115 142 148 115 138 140 107 134 132 16 97 99 16 93 99 99 125 132 115 130 132 156 162 165 49 85 90 24 73 74 8 60 66 16 52 57 189 190 189 198 195 198 148 162 165 132 154 156 123 146 148 107 142 148 99 134 140 82 121 132 74 117 123 57 113 123 57 109 115 90 121 123 115 138 140 99 125 132 41 97 99 41 93 99 41 93 99 41 89 90 123 130 132 140 138 140 140 138 140 140 138 140 140 138 140 49 48 49 49 48 49 49 48 49 49 48 49 49 48 49 49 48 49 49 48 49 49 48 49 49 48 49 49 48 49 49 48 49 49 48 49 49 48 49 49 48 49 49 48 49 49 48 49 49 48 49 49 48 49 49 48 49 49 48 49 49 48 49 49 48 49 49 48 49 49 48 49 49 48 49 49 48 49 49 48 49 49 48 49 49 48 49 49 48 49 49 48 49
49 48 49 49 48 49 49 48 49 49 48 49 49 48 49 49 48 49 49 48 49 49 48 49 49 48 49 49 48 49 49 48 49 49 48 49 49 48 49 49 48 49 49 48 49 49 48 49 49 48 49 49 48 49 49 48 49 49 48 49 49 48 49 49 48 49 49 48 49 49 48 49 49 48 49 49 48 49 49 48 49 49 48 49 49 48 49 49 48 49 49 48 49 49 48 49 49 48 49 49 48 49 49 48 49 140 138 140 140 138 140 140 138 140 140 138 140 123 134 132 24 121 132 24 121 132 24 121 132 24 121 132 140 162 165 24 121 132 24 121 132 24 121 123 24 121 123 115 146 148 148 162 165 148 166 165 66 125 132 24 117 123 24 117 123 90 134 140 24 113 123 115 142 148 74 125 132 24 109 115 24 109 115 140 158 156 41 109 115 33 105 107 140 154 156 16 97 99 16 93 99 16 89 99 16 85 90 16 81 82 8 73 82 8 69 74 8 60 66 57 77 82 198 195 198 198 195 198 165 174 173 132 154 156 115 146 148 99 134 140 90 130 132 74 121 132 66 117 123 57 113 115 57 109 115 140 154 156 198 195 198 165 170 173 41 97 99 41 93 99 41 93 99 41 89 90 123 130 132 140 138 140 140 138 140 140 138 140 49 48 49 49 48 49 49 48 49 49 48 49 49 48 49 49 48 49 49 48 49 49 48 49 49 48 49 49 48 49 49 48 49 49 48 49 49 48 49 49 48 49 49 48 49 49 48 49 49 48 49 49 48 49 49 48 49 49 48 49 49 48 49 49 48 49 49 48 49 49 48 49 49 48 49 49 48 49 49 48 49 49 48 49 49 48 49 49 48 49 49 48 49 49 48 49
49 48 49 49 48 49 49 48 49 49 48 49 49 48 49 49 48 49 49 48 49 49 48 49 49 48 49 49 48 49 49 48 49 49 48 49 49 48 49 49 48 49 49 48 49 49 48 49 49 48 49 49 48 49 49 48 49 49 48 49 49 48 49 49 48 49 49 48 49 49 48 49 49 48 49 49 48 49 49 48 49 49 48 49 49 48 49 49 48 49 49 48 49 49 48 49 49 48 49 49 48 49 49 48 49 140 138 140 140 138 140 140 138 140 140 138 140 123 134 132 24 121 132 24 121 132 24 121 132 24 121 132 24 121 132 24 121 132 24 121 132 24 121 123 24 121 123 24 121 123 24 121 123 24 117 123 24 117 123 24 117 123 24 117 123 24 117 123 24 117 123 24 113 123 24 113 115 24 109 115 24 109 115 24 109 115 24 105 115 16 101 107 16 101 107 16 97 99 16 93 99 16 89 99 16 85 90 16 81 82 8 77 82 8 69 74 8 60 66 107 113 115 198 195 198 198 195 198 189 190 189 132 154 156 99 138 140 90 130 140 82 125 132 74 121 123 66 117 123 57 113 115 57 109 115 140 154 156 198 195 198 165 170 173 41 97 99 41 93 99 41 93 99 41 89 90 123 130 132 140 138 140 140 138 140 140 138 140 49 48 49 49 48 49 49 48 49 49 48 49 49 48 49 49 48 49 49 48 49 49 48 49 49 48 49 49 48 49 49 48 49 49 48 49 49 48 49 49 48 49 49 48 49 49 48 49 49 48 49 49 48 49 49 48 49 49 48 49 49 48 49 49 48 49 49 48 49 49 48 49 49 48 49 49 48 49 49 48 49 49 48 49 49 48 49 49 48 49 49 48 49 49 48 49
49 48 49 49 48 49 49 48 49 49 48 49 49 48 49 49 48 49 49 48 49 49 48 49 49 48 49 49 48 49 49 48 49 49 48 49 49 48 49 49 48 49 49 48 49 49 48 49 49 48 49 49 48 49 49 48 49 49 48 49 49 48 49 49 48 49 49 48 49 49 48 49 49 48 49 49 48 49 49 48 49 49 48 49 49 48 49 49 48 49 49 48 49 49 48 49 49 48 49 49 48 49 49 48 49 140 138 140 140 138 140 140 138 140 140 138 140 123 134 132 24 121 132 24 121 132 24 121 132 24 121 132 24 121 132 24 121 132 24 121 132 24 121 123 24 121 123 24 121 123 24 121 123 24 117 123 24 117 123 24 117 123 24 117 123 24 117 123 24 117 123 24 113 123 24 113 115 24 109 115 24 109 115 24 109 115 24 105 115 16 101 107 16 101 107 16 97 99 16 93 99 16 89 99 16 85 90 16 81 82 8 77 82 8 69 74 8 60 66 173 178 181 156 166 173 148 166 165 189 190 189 181 186 189 132 150 156 90 130 132 82 125 132 74 121 123 66 117 123 57 113 115 107 134 140 181 182 181 198 195 198 165 170 173 41 97 99 41 93 99 41 93 99 123 130 132 140 138 140 140 138 140 140 138 140 140 138 140 49 48 49 49 48 49 49 48 49 49 48 49 49 48 49 49 48 49 49 48 49 49 48 49 49 48 49 49 48 49 49 48 49 49 48 49 49 48 49 49 48 49 49 48 49 49 48 49 49 48 49 49 48 49 49 48 49 49 48 49 49 48 49 49 48 49 49 48 49 49 48 49 49 48 49 49 48 49 49 48 49 49 48 49 49 48 49 49 48 49 49 48 49 49 48 49
49 48 49 49 48 49 49 48 49 49 48 49 49 48 49 49 48 49 49 48 49 49 48 49 49 48 49 49 48 49 49 48 49 49 48 49 49 48 49 49 48 49 49 48 49 49 48 49 49 48 49 49 48 49 49 48 49 49 48 49 49 48 49 49 48 49 49 48 49 49 48 49 49 48 49 49 48 49 49 48 49 49 48 49 49 48 49 49 48 49 49 48 49 49 48 49 49 48 49 49 48 49 49 48 49 140 138 140 140 138 140 140 138 140 140 138 140 123 134 132 24 121 132 24 121 132 24 121 132 24 121 132 24 121 132 24 121 132 24 121 132 24 121 123 24 121 123 24 121 123 24 121 123 24 117 123 24 117 123 24 117 123 24 117 123 24 117 123 24 117 123 24 113 123 24 113 123 24 109 115 24 109 115 24 109 115 24 105 115 16 101 107 16 101 107 16 97 99 16 93 99 16 89 99 16 85 90 16 81 82 8 77 82 8 69 74 82 101 107 181 186 189 132 158 165 132 154 156 189 186 189 198 195 198 198 195 198 181 182 189 156 170 173 148 162 165 156 166 173 181 182 181 189 190 189 148 158 156 57 109 115 41 101 107 41 97 99 41 93 99 41 89 90 123 130 132 140 138 140 140 138 140 140 138 140 140 138 140 49 48 49 49 48 49 49 48 49 49 48 49 49 48 49 49 48 49 49 48 49 49 48 49 49 48 49 49 48 49 49 48 49 49 48 49 49 48 49 49 48 49 49 48 49 49 48 49 49 48 49 49 48 49 49 48 49 49 48 49 49 48 49 49 48 49 49 48 49 49 48 49 49 48 49 49 48 49 49 48 49 49 48 49 49 48 49 49 48 49 49 48 49 49 48 49
49 48 49 49 48 49 49 48 49 49 48 49 49 48 49 49 48 49 49 48 49 49 48 49 49 48 49 49 48 49 49 48 49 49 48 49 49 48 49 49 48 49 49 48 49 49 48 49 49 48 49 49 48 49 49 48 49 49 48 49 49 48 49 49 48 49 49 48 49 49 48 49 49 48 49 49 48 49 49 48 49 49 48 49 49 48 49 49 48 49 49 48 49 49 48 49 49 48 49 49 48 49 49 48 49 140 138 140 140 138 140 140 138 140 140 138 140 123 134 132 24 121 132 24 121 132 24 121 132 24 121 132 24 121 132 24 121 132 24 121 132 24 121 123 24 121 123 24 121 123 24 121 123 24 117 123 24 117 123 24 117 123 24 117 123 24 117 123 24 117 123 24 113 123 24 113 123 24 109 115 24 109 115 24 109 115 24 105 115 16 101 107 16 101 107 16 97 99 16 93 99 16 89 99 16 85 90 16 81 82 8 77 82 8 69 74 156 158 156 156 170 173 132 154 156 123 150 156 107 142 148 156 166 173 90 130 140 123 146 148 140 158 165 148 162 165 140 154 156 115 138 140 57 109 115 49 105 115 41 101 107 41 101 107 41 93 99 41 93 99 41 89 90 123 130 132 140 138 140 140 138 140 140 138 140 140 138 140 49 48 49 49 48 49 49 48 49 49 48 49 49 48 49 49 48 49 49 48 49 49 48 49 49 48 49 49 48 49 49 48 49 49 48 49 49 48 49 49 48 49 49 48 49 49 48 49 49 48 49 49 48 49 49 48 49 49 48 49 49 48 49 49 48 49 49 48 49 49 48 49 49 48 49 49 48 49 49 48 49 49 48 49 49 48 49 49 48 49 49 48 49 49 48 49
49 48 49 49 48 49 49 48 49 49 48 49 49 48 49 49 48 49 49 48 49 49 48 49 49 48 49 49 48 49 49 48 49 49 48 49 49 48 49 49 48 49 49 48 49 49 48 49 49 48 49 49 48 49 49 48 49 49 48 49 49 48 49 49 48 49 49 48 49 49 48 49 49 48 49 49 48 49 49 48 49 49 48 49 49 48 49 49 48 49 49 48 49 49 48 49 49 48 49 49 48 49 49 48 49 140 138 140 140 138 140 140 138 140 140 138 140 123 134 132 24 121 132 24 121 132 24 121 132 24 121 132 24 121 132 24 121 132 24 121 132 24 121 123 24 121 123 24 121 123 24 121 123 24 117 123 24 117 123 24 117 123 24 117 123 24 117 123 24 117 123 24 113 123 24 113 123 24 109 115 24 109 115 24 109 115 24 105 115 16 101 107 16 101 107 16 97 99 16 93 99 16 89 99 16 85 90 16 81 82 8 77 82 74 97 99 140 158 165 115 150 156 115 146 148 99 138 140 90 134 140 82 130 140 74 125 132 74 121 132 66 117 123 57 117 123 57 113 115 49 109 115 49 109 115 49 105 115 41 101 107 41 97 99 41 93 99 41 93 99 41 89 90 123 130 132 140 138 140 140 138 140 140 138 140 140 138 140 49 48 49 49 48 49 49 48 49 49 48 49 49 48 49 49 48 49 49 48 49 49 48 49 49 48 49 49 48 49 49 48 49 49 48 49 49 48 49 49 48 49 49 48 49 49 48 49 49 48 49 49 48 49 49 48 49 49 48 49 49 48 49 49 48 49 49 48 49 49 48 49 49 48 49 49 48 49 49 48 49 49 48 49 49 48 49 49 48 49 49 48 49 49 48 49
49 48 49 49 48 49 49 48 49 49 48 49 49 48 49 49 48 49 49 48 49 49 48 49 49 48 49 49 48 49 49 48 49 49 48 49 49 48 49 49 48 49 49 48 49 49 48 49 49 48 49 49 48 49 49 48 49 49 48 49 49 48 49 49 48 49 49 48 49 49 48 49 49 48 49 49 48 49 49 48 49 49 48 49 49 48 49 49 48 49 49 48 49 49 48 49 49 48 49 49 48 49 49 48 49 49 48 49 140 138 140 140 138 140 140 138 140 123 134 132 24 121 132 24 121 132 24 121 132 24 121 132 24 121 132 24 121 132 24 121 132 24 121 123 24 121 123 24 121 123 24 121 123 24 117 123 24 117 123 24 117 123 24 117 123 24 117 123 24 117 123 24 113 123 24 113 123 24 113 115 24 109 115 24 109 115 24 105 115 16 101 107 16 101 107 16 97 99 16 93 99 16 89 99 16 85 90 16 81 82 123 134 140 148 166 173 115 146 156 107 146 148 99 138 140 90 134 140 82 130 140 82 130 132 74 125 132 66 121 123 57 117 123 57 113 123 49 113 115 49 109 115 49 109 115 49 105 107 41 101 107 41 97 99 41 93 99 41 93 99 41 89 90 123 130 132 140 138 140 140 138 140 140 138 140 140 138 140 49 48 49 49 48 49 49 48 49 49 48 49 49 48 49 49 48 49 49 48 49 49 48 49 49 48 49 49 48 49 49 48 49 49 48 49 49 48 49 49 48 49 49 48 49 49 48 49 49 48 49 49 48 49 49 48 49 49 48 49 49 48 49 49 48 49 49 48 49 49 48 49 49 48 49 49 48 49 49 48 49 49 48 49 49 48 49 49 48 49 49 48 49 49 48 49
49 48 49 49 48 49 49 48 49 49 48 49 49 48 49 49 48 49 49 48 49 49 48 49 49 48 49 49 48 49 49 48 49 49 48 49 49 48 49 49 48 49 49 48 49 49 48 49 49 48 49 49 48 49 49 48 49 49 48 49 49 48 49 49 48 49 49 48 49 49 48 49 49 48 49 49 48 49 49 48 49 49 48 49 49 48 49 49 48 49 49 48 49 49 48 49 49 48 49 49 48 49 49 48 49 49 48 49 140 138 140 140 138 140 140 138 140 140 138 140 123 134 132 24 121 132 24 121 132 24 121 132 24 121 132 24 121 132 24 121 132 24 121 123 24 121 123 24 121 123 24 121 123 24 117 123 24 117 123 24 117 123 24 117 123 24 117 123 24 117 123 24 113 123 24 113 123 24 113 115 24 109 115 24 109 115 24 105 115 16 101 107 16 101 107 16 97 99 16 93 99 16 89 99 16 85 90 90 113 115 156 170 173 107 146 148 99 142 148 99 142 148 90 134 140 82 134 140 107 134 140 99 130 132 99 130 132 99 125 132 99 125 132 99 121 123 90 121 123 90 121 123 90 121 123 90 117 123 90 117 115 90 113 115 90 113 115 90 109 115 107 121 123 140 138 140 140 138 140 140 138 140 140 138 140 49 48 49 49 48 49 49 48 49 49 48 49 49 48 49 49 48 49 49 48 49 49 48 49 49 48 49 49 48 49 49 48 49 49 48 49 49 48 49 49 48 49 49 48 49 49 48 49 49 48 49 49 48 49 49 48 49 49 48 49 49 48 49 49 48 49 49 48 49 49 48 49 49 48 49 49 48 49 49 48 49 49 48 49 49 48 49 49 48 49 49 48 49 49 48 49 49 48 49
49 48 49 49 48 49 49 48 49 49 48 49 49 48 49 49 48 49 49 48 49 49 48 49 49 48 49 49 48 49 49 48 49 49 48 49 49 48 49 49 48 49 49 48 49 49 48 49 49 48 49 49 48 49 49 48 49 49 48 49 49 48 49 49 48 49 49 48 49 49 48 49 49 48 49 49 48 49 49 48 49 49 48 49 49 48 49 49 48 49 49 48 49 49 48 49 49 48 49 49 48 49 49 48 49 49 48 49 140 138 140 140 138 140 140 138 140 140 138 140 123 134 132 24 121 132 24 121 132 24 121 132 24 121 132 24 121 132 24 121 132 24 121 123 24 121 123 24 121 123 24 121 123 24 117 123 24 117 123 24 117 123 82 125 132 82 125 132 82 125 132 82 125 132 82 121 132 82 121 123 82 121 123 90 121 123 90 121 123 90 121 123 90 117 123 90 117 123 90 117 123 90 113 115 90 113 115 148 162 165 148 146 148 140 142 140 140 142 140 140 142 140 140 142 140 140 138 140 140 138 140 140 138 140 140 138 140 140 138 140 140 138 140 140 138 140 140 138 140 140 138 140 140 138 140 140 138 140 140 138 140 140 138 140 140 138 140 140 138 140 140 138 140 140 138 140 140 138 140 140 138 140 140 138 140 49 48 49 49 48 49 49 48 49 49 48 49 49 48 49 49 48 49 49 48 49 49 48 49 49 48 49 49 48 49 49 48 49 49 48 49 49 48 49 49 48 49 49 48 49 49 48 49 49 48 49 49 48 49 49 48 49 49 48 49 49 48 49 49 48 49 49 48 49 49 48 49 49 48 49 49 48 49 49 48 49 49 48 49 49 48 49 49 48 49 49 48 49 49 48 49 49 48 49
49 48 49 49 48 49 49 48 49 49 48 49 49 48 49 49 48 49 49 48 49 49 48 49 49 48 49 49 48 49 49 48 49 49 48 49 49 48 49 49 48 49 49 48 49 49 48 49 49 48 49 49 48 49 49 48 49 49 48 49 49 48 49 49 48 49 49 48 49 49 48 49 49 48 49 49 48 49 49 48 49 49 48 49 49 48 49 49 48 49 49 48 49 49 48 49 49 48 49 49 48 49 49 48 49 49 48 49 140 138 140 140 138 140 140 138 140 140 138 140 140 138 140 107 130 132 82 125 132 82 125 132 82 125 132 82 125 132 82 125 132 82 125 132 140 138 140 140 138 140 140 138 140 140 138 140 140 138 140 140 138 140 140 138 140 140 138 140 140 138 140 140 138 140 140 138 140 140 138 140 140 138 140 140 138 140 140 142 140 140 142 140 140 142 140 140 142 140 140 142 140 140 142 140 140 142 140 140 142 140 140 142 140 140 142 140 140 142 140 140 138 140 140 138 140 140 138 140 140 138 140 140 138 140 140 138 140 140 138 140 140 138 140 140 138 140 140 138 140 140 138 140 140 138 140 140 138 140 140 138 140 140 138 140 140 138 140 140 138 140 140 138 140 140 138 140 140 138 140 140 138 140 140 138 140 49 48 49 49 48 49 49 48 49 49 48 49 49 48 49 49 48 49 49 48 49 49 48 49 49 48 49 49 48 49 49 48 49 49 48 49 49 48 49 49 48 49 49 48 49 49 48 49 49 48 49 49 48 49 49 48 49 49 48 49 49 48 49 49 48 49 49 48 49 49 48 49 49 48 49 49 48 49 49 48 49 49 48 49 49 48 49 49 48 49 49 48 49 49 48 49 49 48 49
49 48 49 49 48 49 49 48 49 49 48 49 49 48 49 49 48 49 49 48 49 49 48 49 49 48 49 49 48 49 49 48 49 49 48 49 49 48 49 49 48 49 49 48 49 49 48 49 49 48 49 49 48 49 49 48 49 49 48 49 49 48 49 49 48 49 49 48 49 49 48 49 49 48 49 49 48 49 49 48 49 49 48 49 49 48 49 49 48 49 49 48 49 49 48 49 49 48 49 49 48 49 49 48 49 49 48 49 140 138 140 140 138 140 140 138 140 140 138 140 140 138 140 140 138 140 140 138 140 140 138 140 140 138 140 140 138 140 140 138 140 140 138 140 140 138 140 140 138 140 140 138 140 140 138 140 140 138 140 140 138 140 140 138 140 140 138 140 140 138 140 140 138 140 140 138 140 140 138 140 140 138 140 140 138 140 140 138 140 140 138 140 140 138 140 140 138 140 140 138 140 140 138 140 140 138 140 140 138 140 140 138 140 140 138 140 140 138 140 140 138 140 140 138 140 140 138 140 140 138 140 140 138 140 140 138 140 140 138 140 140 138 140 140 138 140 140 138 140 140 138 140 140 138 140 140 138 140 140 138 140 140 138 140 140 138 140 140 138 140 140 138 140 140 138 140 140 138 140 140 138 140 140 138 140 49 48 49 49 48 49 49 48 49 49 48 49 49 48 49 49 48 49 49 48 49 49 48 49 49 48 49 49 48 49 49 48 49 49 48 49 49 48 49 49 48 49 49 48 49 49 48 49 49 48 49 49 48 49 49 48 49 49 48 49 49 48 49 49 48 49 49 48 49 49 48 49 49 48 49 49 48 49 49 48 49 49 48 49 49 48 49 49 48 49 49 48 49 49 48 49 49 48 49
49 48 49 49 48 49 49 48 49 49 48 49 49 48 49 49 48 49 49 48 49 49 48 49 49 48 49 49 48 49 49 48 49 49 48 49 49 48 49 49 48 49 49 48 49 49 48 49 49 48 49 49 48 49 49 48 49 49 48 49 49 48 49 49 48 49 49 48 49 49 48 49 49 48 49 49 48 49 49 48 49 49 48 49 49 48 49 49 48 49 49 48 49 49 48 49 49 48 49 49 48 49 49 48 49 49 48 49 140 138 140 140 138 140 140 138 140 140 138 140 140 138 140 140 138 140 140 138 140 140 138 140 140 138 140 140 138 140 140 138 140 140 138 140 140 138 140 140 138 140 140 138 140 140 138 140 140 138 140 140 138 140 140 138 140 140 138 140 140 138 140 140 138 140 140 138 140 140 138 140 140 138 140 140 138 140 140 138 140 140 138 140 140 138 140 140 138 140 140 138 140 140 138 140 140 138 140 140 138 140 140 138 140 140 138 140 140 138 140 140 138 140 140 138 140 140 138 140 140 138 140 140 138 140 140 138 140 140 138 140 140 138 140 140 138 140 140 138 140 140 138 140 140 138 140 140 138 140 140 138 140 140 138 140 140 138 140 140 138 140 140 138 140 140 138 140 140 138 140 140 138 140 140 138 140 49 48 49 49 48 49 49 48 49 49 48 49 49 48 49 49 48 49 49 48 49 49 48 49 49 48 49 49 48 49 49 48 49 49 48 49 49 48 49 49 48 49 49 48 49 49 48 49 49 48 49 49 48 49 49 48 49 49 48 49 49 48 49 49 48 49 49 48 49 49 48 49 49 48 49 49 48 49 49 48 49 49 48 49 49 48 49 49 48 49 49 48 49 49 48 49 49 48 49
49 48 49 49 48 49 49 48 49 49 48 49 49 48 49 49 48 49 49 48 49 49 48 49 49 48 49 49 48 49 49 48 49 49 48 49 49 48 49 49 48 49 49 48 49 49 48 49 49 48 49 49 48 49 49 48 49 49 48 49 49 48 49 49 48 49 49 48 49 49 48 49 49 48 49 49 48 49 49 48 49 49 48 49 49 48 49 49 48 49 49 48 49 49 48 49 49 48 49 49 48 49 49 48 49 49 48 49 140 138 140 140 138 140 140 138 140 140 138 140 140 138 140 140 138 140 140 138 140 140 138 140 140 138 140 140 138 140 140 138 140 140 138 140 140 138 140 140 138 140 140 138 140 140 138 140 140 138 140 140 138 140 140 138 140 140 138 140 140 138 140 140 138 140 140 138 140 140 138 140 140 138 140 140 138 140 140 138 140 140 138 140 140 138 140 140 138 140 140 138 140 140 138 140 140 138 140 140 138 140 140 138 140 140 138 140 140 138 140 140 138 140 140 138 140 140 138 140 140 138 140 140 138 140 140 138 140 140 138 140 140 138 140 140 138 140 140 138 140 140 138 140 140 138 140 140 138 140 140 138 140 140 138 140 140 138 140 140 138 140 140 138 140 140 138 140 140 138 140 140 138 140 140 138 140 49 48 49 49 48 49 49 48 49 49 48 49 49 48 49 49 48 49 49 48 49 49 48 49 49 48 49 49 48 49 49 48 49 49 48 49 49 48 49 49 48 49 49 48 49 49 48 49 49 48 49 49 48 49 49 48 49 49 48 49 49 48 49 49 48 49 49 48 49 49 48 49 49 48 49 49 48 49 49 48 49 49 48 49 49 48 49 49 48 49 49 48 49 49 48 49 49 48 49
49 48 49 49 48 49 49 48 49 49 48 49 49 48 49 49 48 49 49 48 49 49 48 49 49 48 49 49 48 49 49 48 49 49 48 49 49 48 49 49 48 49 49 48 49 49 48 49 49 48 49 49 48 49 49 48 49 49 48 49 49 48 49 49 48 49 49 48 49 49 48 49 49 48 49 49 48 49 49 48 49 49 48 49 49 48 49 49 48 49 49 48 49 49 48 49 49 48 49 49 48 49 49 48 49 49 48 49 140 138 140 140 138 140 140 138 140 140 138 140 140 138 140 140 138 140 140 138 140 140 138 140 140 138 140 140 138 140 140 138 140 140 138 140 140 138 140 140 138 140 140 138 140 140 138 140 140 138 140 140 138 140 140 138 140 140 138 140 140 138 140 140 138 140 140 138 140 140 138 140 140 138 140 140 138 140 140 138 140 140 138 140 140 138 140 140 138 140 140 138 140 140 138 140 140 138 140 140 138 140 140 138 140 140 138 140 140 138 140 140 138 140 140 138 140 140 138 140 140 138 140 140 138 140 140 138 140 140 138 140 140 138 140 140 138 140 140 138 140 140 138 140 140 138 140 140 138 140 140 138 140 140 138 140 140 138 140 140 138 140 140 138 140 140 138 140 140 138 140 140 138 140 140 138 140 49 48 49 49 48 49 49 48 49 49 48 49 49 48 49 49 48 49 49 48 49 49 48 49 49 48 49 49 48 49 49 48 49 49 48 49 49 48 49 49 48 49 49 48 49 49 48 49 49 48 49 49 48 49 49 48 49 49 48 49 49 48 49 49 48 49 49 48 49 49 48 49 49 48 49 49 48 49 49 48 49 49 48 49 49 48 49 49 48 49 49 48 49 49 48 49 49 48 49
49 48 49 49 48 49 49 48 49 49 48 49 49 48 49 49 48 49 49 48 49 49 48 49 49 48 49 49 48 49 49 48 49 49 48 49 49 48 49 49 48 49 49 48 49 49 48 49 49 48 49 49 48 49 49 48 49 49 48 49 49 48 49 49 48 49 49 48 49 49 48 49 49 48 49 49 48 49 49 48 49 49 48 49 49 48 49 49 48 49 49 48 49 49 48 49 49 48 49 49 48 49 49 48 49 49 48 49 49 48 49 140 138 140 140 138 140 140 138 140 140 138 140 140 138 140 140 138 140 140 138 140 140 138 140 140 138 140 140 138 140 140 138 140 140 138 140 140 138 140 140 138 140 140 138 140 140 138 140 140 138 140 140 138 140 140 138 140 140 138 140 140 138 140 140 138 140 140 138 140 140 138 140 140 138 140 140 138 140 140 138 140 140 138 140 140 138 140 140 138 140 140 138 140 140 138 140 140 138 140 140 138 140 140 138 140 140 138 140 140 138 140 140 138 140 140 138 140 140 138 140 140 138 140 140 138 140 140 138 140 140 138 140 140 138 140 140 138 140 140 138 140 140 138 140 140 138 140 140 138 140 140 138 140 140 138 140 140 138 140 140 138 140 140 138 140 140 138 140 140 138 140 49 48 49 49 48 49 49 48 49 49 48 49 49 48 49 49 48 49 49 48 49 49 48 49 49 48 49 49 48 49 49 48 49 49 48 49 49 48 49 49 48 49 49 48 49 49 48 49 49 48 49 49 48 49 49 48 49 49 48 49 49 48 49 49 48 49 49 48 49 49 48 49 49 48 49 49 48 49 49 48 49 49 48 49 49 48 49 49 48 49 49 48 49 49 48 49 49 48 49 49 48 49
49 48 49 49 48 49 49 48 49 49 48 49 49 48 49 49 48 49 49 48 49 49 48 49 49 48 49 49 48 49 49 48 49 49 48 49 49 48 49 49 48 49 49 48 49 49 48 49 49 48 49 49 48 49 49 48 49 49 48 49 49 48 49 49 48 49 49 48 49 49 48 49 49 48 49 49 48 49 49 48 49 49 48 49 49 48 49 49 48 49 49 48 49 49 48 49 49 48 49 49 48 49 49 48 49 49 48 49 49 48 49 140 138 140 140 138 140 140 138 140 140 138 140 140 138 140 140 138 140 140 138 140 140 138 140 140 138 140 140 138 140 140 138 140 140 138 140 140 138 140 140 138 140 140 138 140 140 138 140 140 138 140 140 138 140 140 138 140 140 138 140 140 138 140 140 138 140 140 138 140 140 138 140 140 138 140 140 138 140 140 138 140 140 138 140 140 138 140 140 138 140 140 138 140 140 138 140 140 138 140 140 138 140 140 138 140 140 138 140 140 138 140 140 138 140 140 138 140 140 138 140 140 138 140 140 138 140 140 138 140 140 138 140 140 138 140 140 138 140 140 138 140 140 138 140 140 138 140 140 138 140 140 138 140 140 138 140 140 138 140 140 138 140 140 138 140 140 138 140 140 138 140 49 48 49 49 48 49 49 48 49 49 48 49 49 48 49 49 48 49 49 48 49 49 48 49 49 48 49 49 48 49 49 48 49 49 48 49 49 48 49 49 48 49 49 48 49 49 48 49 49 48 49 49 48 49 49 48 49 49 48 49 49 48 49 49 48 49 49 48 49 49 48 49 49 48 49 49 48 49 49 48 49 49 48 49 49 48 49 49 48 49 49 48 49 49 48 49 49 48 49 49 48 49
49 48 49 49 48 49 49 48 49 49 48 49 49 48 49 49 48 49 49 48 49 49 48 49 49 48 49 49 48 49 49 48 49 49 48 49 49 48 49 49 48 49 49 48 49 49 48 49 49 48 49 49 48 49 49 48 49 49 48 49 49 48 49 49 48 49 49 48 49 49 48 49 49 48 49 49 48 49 49 48 49 49 48 49 49 48 49 49 48 49 49 48 49 49 48 49 49 48 49 49 48 49 49 48 49 49 48 49 49 48 49 140 138 140 140 138 140 140 138 140 140 138 140 140 138 140 140 138 140 140 138 140 140 138 140 140 138 140 140 138 140 140 138 140 140 138 140 140 138 140 140 138 140 140 138 140 140 138 140 140 138 140 140 138 140 140 138 140 140 138 140 140 138 140 140 138 140 140 138 140 140 138 140 140 138 140 140 138 140 140 138 140 140 138 140 140 138 140 140 138 140 140 138 140 140 138 140 140 138 140 140 138 140 140 138 140 140 138 140 140 138 140 140 138 140 140 138 140 140 138 140 140 138 140 140 138 140 140 138 140 140 138 140 140 138 140 140 138 140 140 138 140 140 138 140 140 138 140 140 138 140 140 138 140 140 138 140 140 138 140 140 138 140 140 138 140 140 138 140 140 138 140 49 48 49 49 48 49 49 48 49 49 48 49 49 48 49 49 48 49 49 48 49 49 48 49 49 48 49 49 48 49 49 48 49 49 48 49 49 48 49 49 48 49 49 48 49 49 48 49 49 48 49 49 48 49 49 48 49 49 48 49 49 48 49 49 48 49 49 48 49 49 48 49 49 48 49 49 48 49 49 48 49 49 48 49 49 48 49 49 48 49 49 48 49 49 48 49 49 48 49 49 48 49
49 48 49 49 48 49 49 48 49 49 48 49 49 48 49 49 48 49 49 48 49 49 48 49 49 48 49 49 48 49 49 48 49 49 48 49 49 48 49 49 48 49 49 48 49 49 48 49 49 48 49 49 48 49 49 48 49 49 48 49 49 48 49 49 48 49 49 48 49 49 48 49 49 48 49 49 48 49 49 48 49 49 48 49 49 48 49 49 48 49 49 48 49 49 48 49 49 48 49 49 48 49 49 48 49 49 48 49 49 48 49 140 138 140 140 138 140 140 138 140 140 138 140 140 138 140 140 138 140 140 138 140 140 138 140 140 138 140 140 138 140 140 138 140 140 138 140 140 138 140 140 138 140 140 138 140 140 138 140 140 138 140 140 138 140 140 138 140 140 138 140 140 138 140 140 138 140 140 138 140 140 138 140 140 138 140 140 138 140 140 138 140 140 138 140 140 138 140 140 138 140 140 138 140 140 138 140 140 138 140 140 138 140 140 138 140 140 138 140 140 138 140 140 138 140 140 138 140 140 138 140 140 138 140 140 138 140 140 138 140 140 138 140 140 138 140 140 138 140 140 138 140 140 138 140 140 138 140 140 138 140 140 138 140 140 138 140 140 138 140 140 138 140 140 138 140 140 138 140 140 138 140 49 48 49 49 48 49 49 48 49 49 48 49 49 48 49 49 48 49 49 48 49 49 48 49 49 48 49 49 48 49 49 48 49 49 48 49 49 48 49 49 48 49 49 48 49 49 48 49 49 48 49 49 48 49 49 48 49 49 48 49 49 48 49 49 48 49 49 48 49 49 48 49 49 48 49 49 48 49 49 48 49 49 48 49 49 48 49 49 48 49 49 48 49 49 48 49 49 48 49 49 48 49
49 48 49 49 48 49 49 48 49 49 48 49 49 48 49 49 48 49 49 48 49 49 48 49 49 48 49 49 48 49 49 48 49 49 48 49 49 48 49 49 48 49 49 48 49 49 48 49 49 48 49 49 48 49 49 48 49 49 48 49 49 48 49 49 48 49 49 48 49 49 48 49 49 48 49 49 48 49 49 48 49 49 48 49 49 48 49 49 48 49 49 48 49 49 48 49 49 48 49 49 48 49 49 48 49 49 48 49 49 48 49 140 138 140 140 138 140 140 138 140 140 138 140 140 138 140 140 138 140 140 138 140 140 138 140 140 138 140 140 138 140 140 138 140 140 138 140 140 138 140 140 138 140 140 138 140 140 138 140 140 138 140 140 138 140 140 138 140 140 138 140 140 138 140 140 138 140 140 138 140 140 138 140 140 138 140 140 138 140 140 138 140 140 138 140 140 138 140 140 138 140 140 138 140 140 138 140 140 138 140 140 138 140 140 138 140 140 138 140 140 138 140 140 138 140 140 138 140 140 138 140 140 138 140 140 138 140 140 138 140 140 138 140 140 138 140 140 138 140 140 138 140 140 138 140 140 138 140 140 138 140 140 138 140 140 138 140 140 138 140 140 138 140 140 138 140 140 138 140 140 138 140 49 48 49 49 48 49 49 48 49 49 48 49 49 48 49 49 48 49 49 48 49 49 48 49 49 48 49 49 48 49 49 48 49 49 48 49 49 48 49 49 48 49 49 48 49 49 48 49 49 48 49 49 48 49 49 48 49 49 48 49 49 48 49 49 48 49 49 48 49 49 48 49 49 48 49 49 48 49 49 48 49 49 48 49 49 48 49 49 48 49 49 48 49 49 48 49 49 48 49 49 48 49
49 48 49 49 48 49 49 48 49 49 48 49 49 48 49 49 48 49 49 48 49 49 48 49 49 48 49 49 48 49 49 48 49 49 48 49 49 48 49 49 48 49 49 48 49 49 48 49 49 48 49 49 48 49 49 48 49 49 48 49 49 48 49 49 48 49 49 48 49 49 48 49 49 48 49 49 48 49 49 48 49 49 48 49 49 48 49 49 48 49 49 48 49 49 48 49 49 48 49 49 48 49 49 48 49 49 48 49 49 48 49 140 138 140 140 138 140 140 138 140 140 138 140 140 138 140 140 138 140 140 138 140 140 138 140 140 138 140 140 138 140 140 138 140 140 138 140 140 138 140 140 138 140 140 138 140 140 138 140 140 138 140 140 138 140 140 138 140 140 138 140 140 138 140 140 138 140 140 138 140 140 138 140 140 138 140 140 138 140 140 138 140 140 138 140 140 138 140 140 138 140 140 138 140 140 138 140 140 138 140 140 138 140 140 138 140 140 138 140 140 138 140 140 138 140 140 138 140 140 138 140 140 138 140 140 138 140 140 138 140 140 138 140 140 138 140 140 138 140 140 138 140 140 138 140 140 138 140 140 138 140 140 138 140 140 138 140 140 138 140 140 138 140 140 138 140 140 138 140 140 138 140 49 48 49 49 48 49 49 48 49 49 48 49 49 48 49 49 48 49 49 48 49 49 48 49 49 48 49 49 48 49 49 48 49 49 48 49 49 48 49 49 48 49 49 48 49 49 48 49 49 48 49 49 48 49 49 48 49 49 48 49 49 48 49 49 48 49 49 48 49 49 48 49 49 48 49 49 48 49 49 48 49 49 48 49 49 48 49 49 48 49 49 48 49 49 48 49 49 48 49 49 48 49
49 48 49 49 48 49 49 48 49 49 48 49 49 48 49 49 48 49 49 48 49 49 48 49 49 48 49 49 48 49 49 48 49 49 48 49 49 48 49 49 48 49 49 48 49 49 48 49 49 48 49 49 48 49 49 48 49 49 48 49 49 48 49 49 48 49 49 48 49 49 48 49 49 48 49 49 48 49 49 48 49 49 48 49 49 48 49 49 48 49 49 48 49 49 48 49 49 48 49 49 48 49 49 48 49 49 48 49 49 48 49 140 138 140 140 138 140 140 138 140 140 138 140 140 138 140 140 138 140 140 138 140 140 138 140 140 138 140 140 138 140 140 138 140 140 138 140 140 138 140 140 138 140 140 138 140 140 138 140 140 138 140 140 138 140 140 138 140 140 138 140 140 138 140 140 138 140 140 138 140 140 138 140 140 138 140 140 138 140 140 138 140 140 138 140 140 138 140 140 138 140 140 138 140 140 138 140 140 138 140 140 138 140 140 138 140 140 138 140 140 138 140 140 138 140 140 138 140 140 138 140 140 138 140 140 138 140 140 138 140 140 138 140 140 138 140 140 138 140 140 138 140 140 138 140 140 138 140 140 138 140 49 48 49 49 48 49 49 48 49 49 48 49 49 48 49 49 48 49 49 48 49 49 48 49 49 48 49 49 48 49 49 48 49 49 48 49 49 48 49 49 48 49 49 48 49 49 48 49 49 48 49 49 48 49 49 48 49 49 48 49 49 48 49 49 48 49 49 48 49 49 48 49 49 48 49 49 48 49 49 48 49 49 48 49 49 48 49 49 48 49 49 48 49 49 48 49 49 48 49 49 48 49 49 48 49 49 48 49 49 48 49 49 48 49 49 48 49 49 48 49 49 48 49
49 48 49 49 48 49 49 48 49 49 48 49 49 48 49 49 48 49 49 48 49 49 48 49 49 48 49 49 48 49 49 48 49 49 48 49 49 48 49 49 48 49 49 48 49 49 48 49 49 48 49 49 48 49 49 48 49 49 48 49 49 48 49 49 48 49 49 48 49 49 48 49 49 48 49 49 48 49 49 48 49 49 48 49 49 48 49 49 48 49 49 48 49 49 48 49 49 48 49 49 48 49 49 48 49 49 48 49 49 48 49 140 138 140 140 138 140 140 138 140 140 138 140 140 138 140 140 138 140 140 138 140 140 138 140 140 138 140 140 138 140 140 138 140 140 138 140 140 138 140 140 138 140 140 138 140 140 138 140 140 138 140 140 138 140 140 138 140 140 138 140 140 138 140 140 138 140 140 138 140 140 138 140 140 138 140 140 138 140 140 138 140 140 138 140 140 138 140 140 138 140 49 48 49 49 48 49 49 48 49 49 48 49 49 48 49 49 48 49 49 48 49 49 48 49 49 48 49 49 48 49 49 48 49 49 48 49 49 48 49 49 48 49 49 48 49 49 48 49 49 48 49 49 48 49 49 48 49 49 48 49 49 48 49 49 48 49 49 48 49 49 48 49 49 48 49 49 48 49 49 48 49 49 48 49 49 48 49 49 48 49 49 48 49 49 48 49 49 48 49 49 48 49 49 48 49 49 48 49 49 48 49 49 48 49 49 48 49 49 48 49 49 48 49 49 48 49 49 48 49 49 48 49 49 48 49 49 48 49 49 48 49 49 48 49 49 48 49 49 48 49 49 48 49 49 48 49 49 48 49 49 48 49 49 48 49 49 48 49 49 48 49 49 48 49 49 48 49 49 48 49 49 48 49
49 48 49 49 48 49 49 48 49 49 48 49 49 48 49 49 48 49 49 48 49 49 48 49 49 48 49 49 48 49 49 48 49 49 48 49 49 48 49 49 48 49 49 48 49 49 48 49 49 48 49 49 48 49 49 48 49 49 48 49 49 48 49 49 48 49 49 48 49 49 48 49 49 48 49 49 48 49 49 48 49 49 48 49 49 48 49 49 48 49 49 48 49 49 48 49 49 48 49 49 48 49 49 48 49 49 48 49 49 48 49 49 48 49 140 138 140 140 138 140 140 138 140 140 138 140 140 138 140 140 138 140 140 138 140 140 138 140 140 138 140 140 138 140 49 48 49 49 48 49 49 48 49 49 48 49 49 48 49 49 48 49 49 48 49 49 48 49 49 48 49 49 48 49 49 48 49 49 48 49 49 48 49 49 48 49 49 48 49 49 48 49 49 48 49 49 48 49 49 48 49 49 48 49 49 48 49 49 48 49 49 48 49 49 48 49 49 48 49 49 48 49 49 48 49 49 48 49 49 48 49 49 48 49 49 48 49 49 48 49 49 48 49 49 48 49 49 48 49 49 48 49 49 48 49 49 48 49 49 48 49 49 48 49 49 48 49 49 48 49 49 48 49 49 48 49 49 48 49 49 48 49 49 48 49 49 48 49 49 48 49 49 48 49 49 48 49 49 48 49 49 48 49 49 48 49 49 48 49 49 48 49 49 48 49 49 48 49 49 48 49 49 48 49 49 48 49 49 48 49 49 48 49 49 48 49 49 48 49 49 48 49 49 48 49 49 48 49 49 48 49 49 48 49 49 48 49 49 48 49 49 48 49 49 48 49 49 48 49 49 48 49 49 48 49 49 48 49 49 48 49 49 48 49
49 48 49 49 48 49 49 48 49 49 48 49 49 48 49 49 48 49 49 48 49 49 48 49 49 48 49 49 48 49 49 48 49 49 48 49 49 48 49 49 48 49 49 48 49 49 48 49 49 48 49 49 48 49 49 48 49 49 48 49 49 48 49 49 48 49 49 48 49 49 48 49 49 48 49 49 48 49 49 48 49 49 48 49 49 48 49 49 48 49 49 48 49 49 48 49 49 48 49 49 48 49 49 48 49 49 48 49 49 48 49 49 48 49 49 48 49 49 48 49 49 48 49 49 48 49 49 48 49 49 48 49 49 48 49 49 48 49 49 48 49 49 48 49 49 48 49 49 48 49 49 48 49 49 48 49 49 48 49 49 48 49 49 48 49 49 48 49 49 48 49 49 48 49 49 48 49 49 48 49 49 48 49 49 48 49 49 48 49 49 48 49 49 48 49 49 48 49 49 48 49 49 48 49 49 48 49 49 48 49 49 48 49 49 48 49 49 48 49 49 48 49 49 48 49 49 48 49 49 48 49 49 48 49 49 48 49 49 48 49 49 48 49 49 48 49 49 48 49 49 48 49 49 48 49 49 48 49 49 48 49 49 48 49 49 48 49 49 48 49 49 48 49 49 48 49 49 48 49 49 48 49 49 48 49 49 48 49 49 48 49 49 48 49 49 48 49 49 48 49 49 48 49 49 48 49 49 48 49 49 48 49 49 48 49 49 48 49 49 48 49 49 48 49 49 48 49 49 48 49 49 48 49 49 48 49 49 48 49 49 48 49 49 48 49 49 48 49 49 48 49 49 48 49 49 48 49 49 48 49 49 48 49 49 48 49 49 48 49 49 48 49 49 48 49 49 48 49 49 48 49 49 48 49
49 48 49 49 48 49 49 48 49 49 48 49 49 48 49 49 48 49 49 48 49 49 48 49 49 48 49 49 48 49 49 48 49 49 48 49 49 48 49 49 48 49 49 48 49 49 48 49 49 48 49 49 48 49 49 48 49 49 48 49 49 48 49 49 48 49 49 48 49 49 48 49 49 48 49 49 48 49 49 48 49 49 48 49 49 48 49 49 48 49 49 48 49 49 48 49 49 48 49 49 48 49 49 48 49 49 48 49 49 48 49 49 48 49 49 48 49 49 48 49 49 48 49 49 48 49 49 48 49 49 48 49 49 48 49 49 48 49 49 48 49 49 48 49 49 48 49 49 48 49 49 48 49 49 48 49 49 48 49 49 48 49 49 48 49 49 48 49 49 48 49 49 48 49 49 48 49 49 48 49 49 48 49 49 48 49 49 48 49 49 48 49 49 48 49 49 48 49 49 48 49 49 48 49 49 48 49 49 48 49 49 48 49 49 48 49 49 48 49 49 48 49 49 48 49 49 48 49 49 48 49 49 48 49 49 48 49 49 48 49 49 48 49 49 48 49 49 48 49 49 48 49 49 48 49 49 48 49 49 48 49 49 48 49 49 48 49 49 48 49 49 48 49 49 48 49 49 48 49 49 48 49 49 48 49 49 48 49 49 48 49 49 48 49 49 48 49 49 48 49 49 48 49 49 48 49 49 48 49 49 48 49 49 48 49 49 48 49 49 48 49 49 48 49 49 48 49 49 48 49 49 48 49 49 48 49 49 48 49 49 48 49 49 48 49 49 48 49 49 48 49 49 48 49 49 48 49 49 48 49 49 48 49 49 48 49 49 48 49 49 48 49 49 48 49 49 48 49 49 48 49 49 48 49
49 48 49 49 48 49 49 48 49 49 48 49 49 48 49 49 48 49 49 48 49 49 48 49 49 48 49 49 48 49 49 48 49 49 48 49 49 48 49 49 48 49 49 48 49 49 48 49 49 48 49 49 48 49 49 48 49 49 48 49 49 48 49 49 48 49 49 48 49 49 48 49 49 48 49 49 48 49 49 48 49 49 48 49 49 48 49 49 48 49 49 48 49 49 48 49 49 48 49 49 48 49 49 48 49 49 48 49 49 48 49 49 48 49 49 48 49 49 48 49 49 48 49 49 48 49 49 48 49 49 48 49 49 48 49 49 48 49 49 48 49 49 48 49 49 48 49 49 48 49 49 48 49 49 48 49 49 48 49 49 48 49 49 48 49 49 48 49 49 48 49 49 48 49 49 48 49 49 48 49 49 48 49 49 48 49 49 48 49 49 48 49 49 48 49 49 48 49 49 48 49 49 48 49 49 48 49 49 48 49 49 48 49 49 48 49 49 48 49 49 48 49 49 48 49 49 48 49 49 48 49 49 48 49 49 48 49 49 48 49 49 48 49 49 48 49 49 48 49 49 48 49 49 48 49 49 48 49 49 48 49 49 48 49 49 48 49 49 48 49 49 48 49 49 48 49 49 48 49 49 48 49 49 48 49 49 48 49 49 48 49 49 48 49 49 48 49 49 48 49 49 48 49 49 48 49 49 48 49 49 48 49 49 48 49 49 48 49 49 48 49 49 48 49 49 48 49 49 48 49 49 48 49 49 48 49 49 48 49 49 48 49 49 48 49 49 48 49 49 48 49 49 48 49 49 48 49 49 48 49 49 48 49 49 48 49 49 48 49 49 48 49 49 48 49 49 48 49 49 48 49 49 48 49
49 48 49 49 48 49 49 48 49 49 48 49 49 48 49 49 48 49 49 48 49 49 48 49 49 48 49 49 48 49 49 48 49 49 48 49 49 48 49 49 48 49 49 48 49 49 48 49 49 48 49 49 48 49 49 48 49 49 48 49 49 48 49 49 48 49 49 48 49 49 48 49 49 48 49 49 48 49 49 48 49 49 48 49 49 48 49 49 48 49 49 48 49 49 48 49 49 48 49 49 48 49 49 48 49 49 48 49 49 48 49 49 48 49 49 48 49 49 48 49 49 48 49 49 48 49 49 48 49 49 48 49 49 48 49 49 48 49 49 48 49 49 48 49 49 48 49 49 48 49 49 48 49 49 48 49 49 48 49 49 48 49 49 48 49 49 48 49 49 48 49 49 48 49 49 48 49 49 48 49 49 48 49 49 48 49 49 48 49 49 48 49 49 48 49 49 48 49 49 48 49 49 48 49 49 48 49 49 48 49 49 48 49 49 48 49 49 48 49 49 48 49 49 48 49 49 48 49 49 48 49 49 48 49 49 48 49 49 48 49 49 48 49 49 48 49 49 48 49 49 48 49 49 48 49 49 48 49 49 48 49 49 48 49 49 48 49 49 48 49 49 48 49 49 48 49 49 48 49 49 48 49 49 48 49 49 48 49 49 48 49 49 48 49 49 48 49 49 48 49 49 48 49 49 48 49 49 48 49 49 48 49 49 48 49 49 48 49 49 48 49 49 48 49 49 48 49 49 48 49 49 48 49 49 48 49 49 48 49 49 48 49 49 48 49 49 48 49 49 48 49 49 48 49 49 48 49 49 48 49 49 48 49 49 48 49 49 48 49 49 48 49 49 48 49 49 48 49 49 48 49 49 48 49
49 48 49 49 48 49 49 48 49 49 48 49 49 48 49 49 48 49 49 48 49 49 48 49 49 48 49 49 48 49 49 48 49 49 48 49 49 48 49 49 48 49 49 48 49 49 48 49 49 48 49 49 48 49 49 48 49 49 48 49 49 48 49 49 48 49 49 48 49 49 48 49 49 48 49 49 48 49 49 48 49 49 48 49 49 48 49 49 48 49 49 48 49 49 48 49 49 48 49 49 48 49 49 48 49 49 48 49 49 48 49 49 48 49 49 48 49 49 48 49 49 48 49 49 48 49 49 48 49 49 48 49 49 48 49 49 48 49 49 48 49 49 48 49 49 48 49 49 48 49 49 48 49 49 48 49 49 48 49 49 48 49 49 48 49 49 48 49 49 48 49 49 48 49 49 48 49 49 48 49 49 48 49 49 48 49 49 48 49 49 48 49 49 48 49 49 48 49 49 48 49 49 48 49 49 48 49 49 48 49 49 48 49 49 48 49 49 48 49 49 48 49 49 48 49 49 48 49 49 48 49 49 48 49 49 48 49 49 48 49 49 48 49 49 48 49 49 48 49 49 48 49 49 48 49 49 48 49 49 48 49 49 48 49 49 48 49 49 48 49 49 48 49 49 48 49 49 48 49 49 48 49 49 48 49 49 48 49 49 48 49 49 48 49 49 48 49 49 48 49 49 48 49 49 48 49 49 48 49 49 48 49 49 48 49 49 48 49 49 48 49 49 48 49 49 48 49 49 48 49 49 48 49 49 48 49 49 48 49 49 48 49 49 48 49 49 48 49 49 48 49 49 48 49 49 48 49 49 48 49 49 48 49 49 48 49 49 48 49 49 48 49 49 48 49 49 48 49 49 48 49 49 48 49
49 48 49 49 48 49 49 48 49 49 48 49 49 48 49 49 48 49 49 48 49 49 48 49 49 48 49 49 48 49 49 48 49 49 48 49 49 48 49 49 48 49 49 48 49 49 48 49 49 48 49 49 48 49 49 48 49 49 48 49 49 48 49 49 48 49 49 48 49 49 48 49 49 48 49 49 48 49 49 48 49 49 48 49 49 48 49 49 48 49 49 48 49 49 48 49 49 48 49 49 48 49 49 48 49 49 48 49 49 48 49 49 48 49 49 48 49 49 48 49 49 48 49 49 48 49 49 48 49 49 48 49 49 48 49 49 48 49 49 48 49 49 48 49 49 48 49 49 48 49 49 48 49 49 48 49 49 48 49 49 48 49 49 48 49 49 48 49 49 48 49 49 48 49 49 48 49 49 48 49 49 48 49 49 48 49 49 48 49 49 48 49 49 48 49 49 48 49 49 48 49 49 48 49 49 48 49 49 48 49 49 48 49 49 48 49 49 48 49 49 48 49 49 48 49 49 48 49 49 48 49 49 48 49 49 48 49 49 48 49 49 48 49 49 48 49 49 48 49 49 48 49 49 48 49 49 48 49 49 48 49 49 48 49 49 48 49 49 48 49 49 48 49 49 48 49 49 48 49 49 48 49 49 48 49 49 48 49 49 48 49 49 48 49 49 48 49 49 48 49 49 48 49 49 48 49 49 48 49 49 48 49 49 48 49 49 48 49 49 48 49 49 48 49 49 48 49 49 48 49 49 48 49 49 48 49 49 48 49 49 48 49 49 48 49 49 48 49 49 48 49 49 48 49 49 48 49 49 48 49 49 48 49 49 48 49 49 48 49 49 48 49 49 48 49 49 48 49 49 48 49 49 48 49
49 48 49 49 48 49 49 48 49 49 48 49 49 48 49 49 48 49 49 48 49 49 48 49 49 48 49 49 48 49 49 48 49 49 48 49 49 48 49 49 48 49 49 48 49 49 48 49 49 48 49 49 48 49 49 48 49 49 48 49 49 48 49 49 48 49 49 48 49 49 48 49 49 48 49 49 48 49 49 48 49 49 48 49 49 48 49 49 48 49 49 48 49 49 48 49 49 48 49 49 48 49 49 48 49 49 48 49 49 48 49 49 48 49 49 48 49 49 48 49 49 48 49 49 48 49 49 48 49 49 48 49 49 48 49 49 48 49 49 48 49 49 48 49 49 48 49 49 48 49 49 48 49 49 48 49 49 48 49 49 48 49 49 48 49 49 48 49 49 48 49 49 48 49 49 48 49 49 48 49 49 48 49 49 48 49 49 48 49 49 48 49 49 48 49 49 48 49 49 48 49 49 48 49 49 48 49 49 48 49 49 48 49 49 48 49 49 48 49 49 48 49 49 48 49 49 48 49 49 48 49 49 48 49 49 48 49 49 48 49 49 48 49 49 48 49 49 48 49 49 48 49 49 48 49 49 48 49 49 48 49 49 48 49 49 48 49 49 48 49 49 48 49 49 48 49 49 48 49 49 48 49 49 48 49 49 48 49 49 48 49 49 48 49 49 48 49 49 48 49 49 48 49 49 48 49 49 48 49 49 48 49 49 48 49 49 48 49 49 48 49 49 48 49 49 48 49 49 48 49 49 48 49 49 48 49 49 48 49 49 48 49 49 48 49 49 48 49 49 48 49 49 48 49 49 48 49 49 48 49 49 48 49 49 48 49 49 48 49 49 48 49 49 48 49 49 48 49 49 48 49 49 48 49
49 48 49 49 48 49 49 48 49 49 48 49 49 48 49 49 48 49 49 48 49 49 48 49 49 48 49 49 48 49 49 48 49 49 48 49 49 48 49 49 48 49 49 48 49 49 48 49 49 48 49 49 48 49 49 48 49 49 48 49 49 48 49 49 48 49 49 48 49 49 48 49 49 48 49 49 48 49 49 48 49 49 48 49 49 48 49 49 48 49 49 48 49 49 48 49 49 48 49 49 48 49 49 48 49 49 48 49 49 48 49 49 48 49 49 48 49 49 48 49 49 48 49 49 48 49 49 48 49 49 48 49 49 48 49 49 48 49 49 48 49 49 48 49 49 48 49 49 48 49 49 48 49 49 48 49 49 48 49 49 48 49 49 48 49 49 48 49 49 48 49 49 48 49 49 48 49 49 48 49 49 48 49 49 48 49 49 48 49 49 48 49 49 48 49 49 48 49 49 48 49 49 48 49 49 48 49 49 48 49 49 48 49 49 48 49 49 48 49 49 48 49 49 48 49 49 48 49 49 48 49 49 48 49 49 48 49 49 48 49 49 48 49 49 48 49 49 48 49 49 48 49 49 48 49 49 48 49 49 48 49 49 48 49 49 48 49 49 48 49 49 48 49 49 48 49 49 48 49 49 48 49 49 48 49 49 48 49 49 48 49 49 48 49 49 48 49 49 48 49 49 48 49 49 48 49 49 48 49 49 48 49 49 48 49 49 48 49 49 48 49 49 48 49 49 48 49 49 48 49 49 48 49 49 48 49 49 48 49 49 48 49 49 48 49 49 48 49 49 48 49 49 48 49 49 48 49 49 48 49 49 48 49 49 48 49 49 48 49 49 48 49 49 48 49 49 48 49 49 48 49 49 48 49
49 48 49 49 48 49 49 48 49 49 48 49 49 48 49 49 48 49 49 48 49 49 48 49 49 48 49 49 48 49 49 48 49 49 48 49 49 48 49 49 48 49 49 48 49 49 48 49 49 48 49 49 48 49 49 48 49 49 48 49 49 48 49 49 48 49 49 48 49 49 48 49 49 48 49 49 48 49 49 48 49 49 48 49 49 48 49 49 48 49 49 48 49 49 48 49 49 48 49 49 48 49 49 48 49 49 48 49 49 48 49 49 48 49 49 48 49 49 48 49 49 48 49 49 48 49 49 48 49 49 48 49 49 48 49 49 48 49 49 48 49 49 48 49 49 48 49 49 48 49 49 48 49 49 48 49 49 48 49 49 48 49 49 48 49 49 48 49 49 48 49 49 48 49 49 48 49 49 48 49 49 48 49 49 48 49 49 48 49 49 48 49 49 48 49 49 48 49 49 48 49 49 48 49 49 48 49 49 48 49 49 48 49 49 48 49 49 48 49 49 48 49 49 48 49 49 48 49 49 48 49 49 48 49 49 48 49 49 48 49 49 48 49 49 48 49 49 48 49 49 48 49 49 48 49 49 48 49 49 48 49 49 48 49 49 48 49 49 48 49 49 48 49 49 48 49 49 48 49 49 48 49 49 48 49 49 48 49 49 48 49 49 48 49 49 48 49 49 48 49 49 48 49 49 48 49 49 48 49 49 48 49 49 48 49 49 48 49 49 48 49 49 48 49 49 48 49 49 48 49 49 48 49 49 48 49 49 48 49 49 48 49 49 48 49 49 48 49 49 48 49 49 48 49 49 48 49 49 48 49 49 48 49 49 48 49 49 48 49 49 48 49 49 48 49 49 48 49 49 48 49 49 48 49
49 48 49 49 48 49 49 48 49 49 48 49 49 48 49 49 48 49 49 48 49 49 48 49 49 48 49 49 48 49 49 48 49 49 48 49 49 48 49 49 48 49 49 48 49 49 48 49 49 48 49 49 48 49 49 48 49 49 48 49 49 48 49 49 48 49 49 48 49 49 48 49 49 48 49 49 48 49 49 48 49 49 48 49 49 48 49 49 48 49 49 48 49 49 48 49 49 48 49 49 48 49 49 48 49 49 48 49 49 48 49 49 48 49 49 48 49 49 48 49 49 48 49 49 48 49 49 48 49 49 48 49 49 48 49 49 48 49 49 48 49 49 48 49 49 48 49 49 48 49 49 48 49 49 48 49 49 48 49 49 48 49 49 48 49 49 48 49 49 48 49 49 48 49 49 48 49 49 48 49 49 48 49 49 48 49 49 48 49 49 48 49 49 48 49 49 48 49 49 48 49 49 48 49 49 48 49 49 48 49 49 48 49 49 48 49 49 48 49 49 48 49 49 48 49 49 48 49 49 48 49 49 48 49 49 48 49 49 48 49 49 48 49 49 48 49 49 48 49 49 48 49 49 48 49 49 48 49 49 48 49 49 48 49 49 48 49 49 48 49 49 48 49 49 48 49 49 48 49 49 48 49 49 48 49 49 48 49 49 48 49 49 48 49 49 48 49 49 48 49 49 48 49 49 48 49 49 48 49 49 48 49 49 48 49 49 48 49 49 48 49 49 48 49 49 48 49 49 48 49 49 48 49 49 48 49 49 48 49 49 48 49 49 48 49 49 48 49 49 48 49 49 48 49 49 48 49 49 48 49 49 48 49 49 48 49 49 48 49 49 48 49 49 48 49 49 48 49 49 48 49 49 48 49
49 48 49 49 48 49 49 48 49 49 48 49 49 48 49 49 48 49 49 48 49 49 48 49 49 48 49 49 48 49 49 48 49 49 48 49 49 48 49 49 48 49 49 48 49 49 48 49 49 48 49 49 48 49 49 48 49 49 48 49 49 48 49 49 48 49 49 48 49 49 48 49 49 48 49 49 48 49 49 48 49 49 48 49 49 48 49 49 48 49 49 48 49 49 48 49 49 48 49 49 48 49 49 48 49 49 48 49 49 48 49 49 48 49 49 48 49 49 48 49 49 48 49 49 48 49 49 48 49 49 48 49 49 48 49 49 48 49 49 48 49 49 48 49 49 48 49 49 48 49 49 48 49 49 48 49 49 48 49 49 48 49 49 48 49 49 48 49 49 48 49 49 48 49 49 48 49 49 48 49 49 48 49 49 48 49 49 48 49 49 48 49 49 48 49 49 48 49 49 48 49 49 48 49 49 48 49 49 48 49 49 48 49 49 48 49 49 48 49 49 48 49 49 48 49 49 48 49 49 48 49 49 48 49 49 48 49 49 48 49 49 48 49 49 48 49 49 48 49 49 48 49 49 48 49 49 48 49 49 48 49 49 48 49 49 48 49 49 48 49 49 48 49 49 48 49 49 48 49 49 48 49 49 48 49 49 48 49 49 48 49 49 48 49 49 48 49 49 48 49 49 48 49 49 48 49 49 48 49 49 48 49 49 48 49 49 48 49 49 48 49 49 48 49 49 48 49 49 48 49 49 48 49 49 48 49 49 48 49 49 48 49 49 48 49 49 48 49 49 48 49 49 48 49 49 48 49 49 48 49 49 48 49 49 48 49 49 48 49 49 48 49 49 48 49 49 48 49 49 48 49 49 48 49
49 48 49 49 48 49 49 48 49 49 48 49 49 48 49 49 48 49 49 48 49 49 48 49 49 48 49 49 48 49 49 48 49 49 48 49 49 48 49 49 48 49 49 48 49 49 48 49 49 48 49 49 48 49 49 48 49 49 48 49 49 48 49 49 48 49 49 48 49 49 48 49 49 48 49 49 48 49 49 48 49 49 48 49 49 48 49 49 48 49 49 48 49 49 48 49 49 48 49 49 48 49 49 48 49 49 48 49 49 48 49 49 48 49 49 48 49 49 48 49 49 48 49 49 48 49 49 48 49 49 48 49 49 48 49 49 48 49 49 48 49 49 48 49 49 48 49 49 48 49 49 48 49 49 48 49 49 48 49 49 48 49 49 48 49 49 48 49 49 48 49 49 48 49 49 48 49 49 48 49 49 48 49 49 48 49 49 48 49 49 48 49 49 48 49 49 48 49 49 48 49 49 48 49 49 48 49 49 48 49 49 48 49 49 48 49 49 48 49 49 48 49 49 48 49 49 48 49 49 48 49 49 48 49 49 48 49 49 48 49 49 48 49 49 48 49 49 48 49 49 48 49 49 48 49 49 48 49 49 48 49 49 48 49 49 48 49 49 48 49 49 48 49 49 48 49 49 48 49 49 48 49 49 48 49 49 48 49 49 48 49 49 48 49 49 48 49 49 48 49 49 48 49 49 48 49 49 48 49 49 48 49 49 48 49 49 48 49 49 48 49 49 48 49 49 48 49 49 48 49 49 48 49 49 48 49 49 48 49 49 48 49 49 48 49 49 48 49 49 48 49 49 48 49 49 48 49 49 48 49 49 48 49 49 48 49 49 48 49 49 48 49 49 48 49 49 48 49 49 48 49 49 48 49
49 48 49 49 48 49 49 48 49 49 48 49 49 48 49 49 48 49 49 48 49 49 48 49 49 48 49 49 48 49 49 48 49 49 48 49 49 48 49 49 48 49 49 48 49 49 48 49 49 48 49 49 48 49 49 48 49 49 48 49 49 48 49 49 48 49 49 48 49 49 48 49 49 48 49 49 48 49 49 48 49 49 48 49 49 48 49 49 48 49 49 48 49 49 48 49 49 48 49 49 48 49 49 48 49 49 48 49 49 48 49 49 48 49 49 48 49 49 48 49 49 48 49 49 48 49 49 48 49 49 48 49 49 48 49 49 48 49 49 48 49 49 48 49 49 48 49 49 48 49 49 48 49 49 48 49 49 48 49 49 48 49 49 48 49 49 48 49 49 48 49 49 48 49 49 48 49 49 48 49 49 48 49 49 48 49 49 48 49 49 48 49 49 48 49 49 48 49 49 48 49 49 48 49 49 48 49 49 48 49 49 48 49 49 48 49 49 48 49 49 48 49 49 48 49 49 48 49 49 48 49 49 48 49 49 48 49 49 48 49 49 48 49 49 48 49 49 48 49 49 48 49 49 48 49 49 48 49 49 48 49 49 48 49 49 48 49 49 48 49 49 48 49 49 48 49 49 48 49 49 48 49 49 48 49 49 48 49 49 48 49 49 48 49 49 48 49 49 48 49 49 48 49 49 48 49 49 48 49 49 48 49 49 48 49 49 48 49 49 48 49 49 48 49 49 48 49 49 48 49 49 48 49 49 48 49 49 48 49 49 48 49 49 48 49 49 48 49 49 48 49 49 48 49 49 48 49 49 48 49 49 48 49 49 48 49 49 48 49 49 48 49 49 48 49 49 48 49 49 48 49 49 48 49
49 48 49 49 48 49 49 48 49 49 48 49 49 48 49 49 48 49 49 48 49 49 48 49 49 48 49 49 48 49 49 48 49 49 48 49 49 48 49 49 48 49 49 48 49 49 48 49 49 48 49 49 48 49 49 48 49 49 48 49 49 48 49 49 48 49 49 48 49 49 48 49 49 48 49 49 48 49 49 48 49 49 48 49 49 48 49 49 48 49 49 48 49 49 48 49 49 48 49 49 48 49 49 48 49 49 48 49 49 48 49 49 48 49 49 48 49 49 48 49 49 48 49 49 48 49 49 48 49 49 48 49 49 48 49 49 48 49 49 48 49 49 48 49 49 48 49 49 48 49 49 48 49 49 48 49 49 48 49 49 48 49 49 48 49 49 48 49 49 48 49 49 48 49 49 48 49 49 48 49 49 48 49 49 48 49 49 48 49 49 48 49 49 48 49 49 48 49 49 48 49 49 48 49 49 48 49 49 48 49 49 48 49 49 48 49 49 48 49 49 48 49 49 48 49 49 48 49 49 48 49 49 48 49 49 48 49 49 48 49 49 48 49 49 48 49 49 48 49 49 48 49 49 48 49 49 48 49 49 48 49 49 48 49 49 48 49 49 48 49 49 48 49 49 48 49 49 48 49 49 48 49 49 48 49 49 48 49 49 48 49 49 48 49 49 48 49 49 48 49 49 48 49 49 48 49 49 48 49 49 48 49 49 48 49 49 48 49 49 48 49 49 48 49 49 48 49 49 48 49 49 48 49 49 48 49 49 48 49 49 48 49 49 48 49 49 48 49 49 48 49 49 48 49 49 48 49 49 48 49 49 48 49 49 48 49 49 48 49 49 48 49 49 48 49 49 48 49 49 48 49 49 48 49
49 48 49 49 48 49 49 48 49 49 48 49 49 48 49 49 48 49 49 48 49 49 48 49 49 48 49 49 48 49 49 48 49 49 48 49 49 48 49 49 48 49 49 48 49 49 48 49 49 48 49 49 48 49 49 48 49 49 48 49 49 48 49 49 48 49 49 48 49 49 48 49 49 48 49 49 48 49 49 48 49 49 48 49 49 48 49 49 48 49 49 48 49 49 48 49 49 48 49 49 48 49 49 48 49 49 48 49 49 48 49 49 48 49 49 48 49 49 48 49 49 48 49 49 48 49 49 48 49 49 48 49 49 48 49 49 48 49 49 48 49 49 48 49 49 48 49 49 48 49 49 48 49 49 48 49 49 48 49 49 48 49 49 48 49 49 48 49 49 48 49 49 48 49 49 48 49 49 48 49 49 48 49 49 48 49 49 48 49 49 48 49 49 48 49 49 48 49 49 48 49 49 48 49 49 48 49 49 48 49 49 48 49 49 48 49 49 48 49 49 48 49 49 48 49 49 48 49 49 48 49 49 48 49 49 48 49 49 48 49 49 48 49 49 48 49 49 48 49 49 48 49 49 48 49 49 48 49 49 48 49 49 48 49 49 48 49 49 48 49 49 48 49 49 48 49 49 48 49 49 48 49 49 48 49 49 48 49 49 48 49 49 48 49 49 48 49 49 48 49 49 48 49 49 48 49 49 48 49 49 48 49 49 48 49 49 48 49 49 48 49 49 48 49 49 48 49 49 48 49 49 48 49 49 48 49 49 48 49 49 48 49 49 48 49 49 48 49 49 48 49 49 48 49 49 48 49 49 48 49 49 48 49 49 48 49 49 48 49 49 48 49 49 48 49 49 48 49 49 48 49 49 48 49
49 48 49 49 48 49 49 48 49 49 48 49 49 48 49 49 48 49 49 48 49 49 48 49 49 48 49 49 48 49 49 48 49 49 48 49 49 48 49 49 48 49 49 48 49 49 48 49 49 48 49 49 48 49 49 48 49 49 48 49 49 48 49 49 48 49 49 48 49 49 48 49 49 48 49 49 48 49 49 48 49 49 48 49 49 48 49 49 48 49 49 48 49 49 48 49 49 48 49 49 48 49 49 48 49 49 48 49 49 48 49 49 48 49 49 48 49 49 48 49 49 48 49 49 48 49 49 48 49 49 48 49 49 48 49 49 48 49 49 48 49 49 48 49 49 48 49 49 48 49 49 48 49 49 48 49 49 48 49 49 48 49 49 48 49 49 48 49 49 48 49 49 48 49 49 48 49 49 48 49 49 48 49 49 48 49 49 48 49 49 48 49 49 48 49 49 48 49 49 48 49 49 48 49 49 48 49 49 48 49 49 48 49 49 48 49 49 48 49 49 48 49 49 48 49 49 48 49 49 48 49 49 48 49 49 48 49 49 48 49 49 48 49 49 48 49 49 48 49 49 48 49 49 48 49 49 48 49 49 48 49 49 48 49 49 48 49 49 48 49 49 48 49 49 48 49 49 48 49 49 48 49 49 48 49 49 48 49 49 48 49 49 48 49 49 48 49 49 48 49 49 48 49 49 48 49 49 48 49 49 48 49 49 48 49 49 48 49 49 48 49 49 48 49 49 48 49 49 48 49 49 48 49 49 48 49 49 48 49 49 48 49 49 48 49 49 48 49 49 48 49 49 48 49 49 48 49 49 48 49 49 48 49 49 48 49 49 48 49 49 48 49 49 48 49 49 48 49 49 48 49 49 48 49
49 48 49 49 48 49 49 48 49 49 48 49 49 48 49 49 48 49 49 48 49 49 48 49 49 48 49 49 48 49 49 48 49 49 48 49 49 48 49 49 48 49 49 48 49 49 48 49 49 48 49 49 48 49 49 48 49 49 48 49 49 48 49 49 48 49 49 48 49 49 48 49 49 48 49 49 48 49 49 48 49 49 48 49 49 48 49 49 48 49 49 48 49 49 48 49 49 48 49 49 48 49 49 48 49 49 48 49 49 48 49 49 48 49 49 48 49 49 48 49 49 48 49 49 48 49 49 48 49 49 48 49 49 48 49 49 48 49 49 48 49 49 48 49 49 48 49 49 48 49 49 48 49 49 48 49 49 48 49 49 48 49 49 48 49 49 48 49 49 48 49 49 48 49 49 48 49 49 48 49 49 48 49 49 48 49 49 48 49 49 48 49 49 48 49 49 48 49 49 48 49 49 48 49 49 48 49 49 48 49 49 48 49 49 48 49 49 48 49 49 48 49 49 48 49 49 48 49 49 48 49 49 48 49 49 48 49 49 48 49 49 48 49 49 48 49 49 48 49 49 48 49 49 48 49 49 48 49 49 48 49 49 48 49 49 48 49 49 48 49 49 48 49 49 48 49 49 48 49 49 48 49 49 48 49 49 48 49 49 48 49 49 48 49 49 48 49 49 48 49 49 48 49 49 48 49 49 48 49 49 48 49 49 48 49 49 48 49 49 48 49 49 48 49 49 48 49 49 48 49 49 48 49 49 48 49 49 48 49 49 48 49 49 48 49 49 48 49 49 48 49 49 48 49 49 48 49 49 48 49 49 48 49 49 48 49 49 48 49 49 48 49 49 48 49 49 48 49 49 48 49 49 48 49
49 48 49 49 48 49 49 48 49 49 48 49 49 48 49 49 48 49 49 48 49 49 48 49 49 48 49 49 48 49 49 48 49 49 48 49 49 48 49 49 48 49 49 48 49 49 48 49 49 48 49 49 48 49 49 48 49 49 48 49 49 48 49 49 48 49 49 48 49 49 48 49 49 48 49 49 48 49 49 48 49 49 48 49 49 48 49 49 48 49 49 48 49 49 48 49 49 48 49 49 48 49 49 48 49 49 48 49 49 48 49 49 48 49 49 48 49 49 48 49 49 48 49 49 48 49 49 48 49 49 48 49 49 48 49 49 48 49 49 48 49 49 48 49 49 48 49 49 48 49 49 48 49 49 48 49 49 48 49 49 48 49 49 48 49 49 48 49 49 48 49 49 48 49 49 48 49 49 48 49 49 48 49 49 48 49 49 48 49 49 48 49 49 48 49 49 48 49 49 48 49 49 48 49 49 48 49 49 48 49 49 48 49 49 48 49 49 48 49 49 48 49 49 48 49 49 48 49 49 48 49 49 48 49 49 48 49 49 48 49 49 48 49 49 48 49 49 48 49 49 48 49 49 48 49 49 48 49 49 48 49 49 48 49 49 48 49 49 48 49 49 48 49 49 48 49 49 48 49 49 48 49 49 48 49 49 48 49 49 48 49 49 48 49 49 48 49 49 48 49 49 48 49 49 48 49 49 48 49 49 48 49 49 48 49 49 48 49 49 48 49 49 48 49 49 48 49 49 48 49 49 48 49 49 48 49 49 48 49 49 48 49 49 48 49 49 48 49 49 48 49 49 48 49 49 48 49 49 48 49 49 48 49 49 48 49 49 48 49 49 48 49 49 48 49 49 48 49 49 48 49 49 48 49
49 48 49 49 48 49 49 48 49 49 48 49 49 48 49 49 48 49 49 48 49 49 48 49 49 48 49 49 48 49 49 48 49 49 48 49 49 48 49 49 48 49 49 48 49 49 48 49 49 48 49 49 48 49 49 48 49 49 48 49 49 48 49 49 48 49 49 48 49 49 48 49 49 48 49 49 48 49 49 48 49 49 48 49 49 48 49 49 48 49 49 48 49 49 48 49 49 48 49 49 48 49 49 48 49 49 48 49 49 48 49 49 48 49 49 48 49 49 48 49 49 48 49 49 48 49 49 48 49 49 48 49 49 48 49 49 48 49 49 48 49 49 48 49 49 48 49 49 48 49 49 48 49 49 48 49 49 48 49 49 48 49 49 48 49 49 48 49 49 48 49 49 48 49 49 48 49 49 48 49 49 48 49 49 48 49 49 48 49 49 48 49 49 48 49 49 48 49 49 48 49 49 48 49 49 48 49 49 48 49 49 48 49 49 48 49 49 48 49 49 48 49 49 48 49 49 48 49 49 48 49 49 48 49 49 48 49 49 48 49 49 48 49 49 48 49 49 48 49 49 48 49 49 48 49 49 48 49 49 48 49 49 48 49 49 48 49 49 48 49 49 48 49 49 48 49 49 48 49 49 48 49 49 48 49 49 48 49 49 48 49 49 48 49 49 48 49 49 48 49 49 48 49 49 48 49 49 48 49 49 48 49 49 48 49 49 48 49 49 48 49 49 48 49 49 48 49 49 48 49 49 48 49 49 48 49 49 48 49 49 48 49 49 48 49 49 48 49 49 48 49 49 48 49 49 48 49 49 48 49 49 48 49 49 48 49 49 48 49 49 48 49 49 48 49 49 48 49 49 48 49 49 48 49
49 48 49 49 48 49 49 48 49 49 48 49 49 48 49 49 48 49 49 48 49 49 48 49 49 48 49 49 48 49 49 48 49 49 48 49 49 48 49 49 48 49 49 48 49 49 48 49 49 48 49 49 48 49 49 48 49 49 48 49 49 48 49 49 48 49 49 48 49 49 48 49 49 48 49 49 48 49 49 48 49 49 48 49 49 48 49 49 48 49 49 48 49 49 48 49 49 48 49 49 48 49 49 48 49 49 48 49 49 48 49 49 48 49 49 48 49 49 48 49 49 48 49 49 48 49 49 48 49 49 48 49 49 48 49 49 48 49 49 48 49 49 48 49 49 48 49 49 48 49 49 48 49 49 48 49 49 48 49 49 48 49 49 48 49 49 48 49 49 48 49 49 48 49 49 48 49 49 48 49 49 48 49 49 48 49 49 48 49 49 48 49 49 48 49 49 48 49 49 48 49 49 48 49 49 48 49 49 48 49 49 48 49 49 48 49 49 48 49 49 48 49 49 48 49 49 48 49 49 48 49 49 48 49 49 48 49 49 48 49 49 48 49 49 48 49 49 48 49 49 48 49 49 48 49 49 48 49 49 48 49 49 48 49 49 48 49 49 48 49 49 48 49 49 48 49 49 48 49 49 48 49 49 48 49 49 48 49 49 48 49 49 48 49 49 48 49 49 48 49 49 48 49 49 48 49 49 48 49 49 48 49 49 48 49 49 48 49 49 48 49 49 48 49 49 48 49 49 48 49 49 48 49 49 48 49 49 48 49 49 48 49 49 48 49 49 48 49 49 48 49 49 48 49 49 48 49 49 48 49 49 48 49 49 48 49 49 48 49 49 48 49 49 48 49 49 48 49 49 48 49 49 48 49
49 48 49 49 48 49 49 48 49 49 48 49 49 48 49 49 48 49 49 48 49 49 48 49 49 48 49 49 48 49 49 48 49 49 48 49 49 48 49 49 48 49 49 48 49 49 48 49 49 48 49 49 48 49 49 48 49 49 48 49 49 48 49 49 48 49 49 48 49 49 48 49 49 48 49 49 48 49 49 48 49 49 48 49 49 48 49 49 48 49 49 48 49 49 48 49 49 48 49 49 48 49 49 48 49 49 48 49 49 48 49 49 48 49 49 48 49 49 48 49 49 48 49 49 48 49 49 48 49 49 48 49 49 48 49 49 48 49 49 48 49 49 48 49 49 48 49 49 48 49 49 48 49 49 48 49 49 48 49 49 48 49 49 48 49 49 48 49 49 48 49 49 48 49 49 48 49 49 48 49 49 48 49 49 48 49 49 48 49 49 48 49 49 48 49 49 48 49 49 48 49 49 48 49 49 48 49 49 48 49 49 48 49 49 48 49 49 48 49 49 48 49 49 48 49 49 48 49 49 48 49 49 48 49 49 48 49 49 48 49 49 48 49 49 48 49 49 48 49 49 48 49 49 48 49 49 48 49 49 48 49 49 48 49 49 48 49 49 48 49 49 48 49 49 48 49 49 48 49 49 48 49 49 48 49 49 48 49 49 48 49 49 48 49 49 48 49 49 48 49 49 48 49 49 48 49 49 48 49 49 48 49 49 48 49 49 48 49 49 48 49 49 48 49 49 48 49 49 48 49 49 48 49 49 48 49 49 48 49 49 48 49 49 48 49 49 48 49 49 48 49 49 48 49 49 48 49 49 48 49 49 48 49 49 48 49 49 48 49 49 48 49 49 48 49 49 48 49 49 48 49 49 48 49
49 48 49 49 48 49 49 48 49 49 48 49 49 48 49 49 48 49 49 48 49 49 48 49 49 48 49 49 48 49 49 48 49 49 48 49 49 48 49 49 48 49 49 48 49 49 48 49 49 48 49 49 48 49 49 48 49 49 48 49 49 48 49 49 48 49 49 48 49 49 48 49 49 48 49 49 48 49 49 48 49 49 48 49 49 48 49 49 48 49 49 48 49 49 48 49 49 48 49 49 48 49 49 48 49 49 48 49 49 48 49 49 48 49 49 48 49 49 48 49 49 48 49 49 48 49 49 48 49 49 48 49 49 48 49 49 48 49 49 48 49 49 48 49 49 48 49 49 48 49 49 48 49 49 48 49 49 48 49 49 48 49 49 48 49 49 48 49 49 48 49 49 48 49 49 48 49 49 48 49 49 48 49 49 48 49 49 48 49 49 48 49 49 48 49 49 48 49 49 48 49 49 48 49 49 48 49 49 48 49 49 48 49 49 48 49 49 48 49 49 48 49 49 48 49 49 48 49 49 48 49 49 48 49 49 48 49 49 48 49 49 48 49 49 48 49 49 48 49 49 48 49 49 48 49 49 48 49 49 48 49 49 48 49 49 48 49 49 48 49 49 48 49 49 48 49 49 48 49 49 48 49 49 48 49 49 48 49 49 48 49 49 48 49 49 48 49 49 48 49 49 48 49 49 48 49 49 48 49 49 48 49 49 48 49 49 48 49 49 48 49 49 48 49 49 48 49 49 48 49 49 48 49 49 48 49 49 48 49 49 48 49 49 48 49 49 48 49 49 48 49 49 48 49 49 48 49 49 48 49 49 48 49 49 48 49 49 48 49 49 48 49 49 48 49 49 48 49 49 48 49 49 48 49
49 48 49 49 48 49 49 48 49 49 48 49 49 48 49 49 48 49 49 48 49 49 48 49 49 48 49 49 48 49 49 48 49 49 48 49 49 48 49 49 48 49 49 48 49 49 48 49 49 48 49 49 48 49 49 48 49 49 48 49 49 48 49 49 48 49 49 48 49 49 48 49 49 48 49 49 48 49 49 48 49 49 48 49 49 48 49 49 48 49 49 48 49 49 48 49 49 48 49 49 48 49 49 48 49 49 48 49 49 48 49 49 48 49 49 48 49 49 48 49 49 48 49 49 48 49 49 48 49 49 48 49 49 48 49 49 48 49 49 48 49 49 48 49 49 48 49 49 48 49 49 48 49 49 48 49 49 48 49 49 48 49 49 48 49 49 48 49 49 48 49 49 48 49 49 48 49 49 48 49 49 48 49 49 48 49 49 48 49 49 48 49 49 48 49 49 48 49 49 48 49 49 48 49 49 48 49 49 48 49 49 48 49 49 48 49 49 48 49 49 48 49 49 48 49 49 48 49 49 48 49 49 48 49 49 48 49 49 48 49 49 48 49 49 48 49 49 48 49 49 48 49 49 48 49 49 48 49 49 48 49 49 48 49 49 48 49 49 48 49 49 48 49 49 48 49 49 48 49 49 48 49 49 48 49 49 48 49 49 48 49 49 48 49 49 48 49 49 48 49 49 48 49 49 48 49 49 48 49 49 48 49 49 48 49 49 48 49 49 48 49 49 48 49 49 48 49 49 48 49 49 48 49 49 48 49 49 48 49 49 48 49 49 48 49 49 48 49 49 48 49 49 48 49 49 48 49 49 48 49 49 48 49 49 48 49 49 48 49 49 48 49 49 48 49 49 48 49 49 48 49 49 48 49
49 48 49 49 48 49 49 48 49 49 48 49 49 48 49 49 48 49 49 48 49 49 48 49 49 48 49 49 48 49 49 48 49 49 48 49 49 48 49 49 48 49 49 48 49 49 48 49 49 48 49 49 48 49 49 48 49 49 48 49 49 48 49 49 48 49 49 48 49 49 48 49 49 48 49 49 48 49 49 48 49 49 48 49 49 48 49 49 48 49 49 48 49 49 48 49 49 48 49 49 48 49 49 48 49 49 48 49 49 48 49 49 48 49 49 48 49 49 48 49 49 48 49 49 48 49 49 48 49 49 48 49 49 48 49 49 48 49 49 48 49 49 48 49 49 48 49 49 48 49 49 48 49 49 48 49 49 48 49 49 48 49 49 48 49 49 48 49 49 48 49 49 48 49 49 48 49 49 48 49 49 48 49 49 48 49 49 48 49 49 48 49 49 48 49 49 48 49 49 48 49 49 48 49 49 48 49 49 48 49 49 48 49 49 48 49 49 48 49 49 48 49 49 48 49 49 48 49 49 48 49 49 48 49 49 48 49 49 48 49 49 48 49 49 48 49 49 48 49 49 48 49 49 48 49 49 48 49 49 48 49 49 48 49 49 48 49 49 48 49 49 48 49 49 48 49 49 48 49 49 48 49 49 48 49 49 48 49 49 48 49 49 48 49 49 48 49 49 48 49 49 48 49 49 48 49 49 48 49 49 48 49 49 48 49 49 48 49 49 48 49 49 48 49 49 48 49 49 48 49 49 48 49 49 48 49 49 48 49 49 48 49 49 48 49 49 48 49 49 48 49 49 48 49 49 48 49 49 48 49 49 48 49 49 48 49 49 48 49 49 48 49 49 48 49 49 48 49 49 48 49 49 48 49
